; Generated with MatterSlice 2.19.7
; filamentDiameter = 1.75
; extrusionWidth = 0.4
; firstLayerExtrusionWidth = 0.4
; layerThickness = 0.3
; firstLayerThickness = 0.3
; automatic settings before start_gcode
G21 ; set units to millimeters
M107 ; fan off
M140 S50 ; start heating the bed
M104 T0 S210 ; start heating T0
M190 S50 ; wait for bed temperature to be reached
T0 ; set the active extruder to 0
; settings from start_gcode
G28 X0 Y0 Z0 ; home all axes
G1 Z5 F5000
M109 S210 ; set the extruder temp and wait
G28 X0 Y0 Z0 ; Home Z again in case there was filament on nozzle
G29 ; probe the bed
; automatic settings after start_gcode
T0 ; set the active extruder to 0
G90 ; use absolute coordinates
G92 E0 ; reset the expected extruder position
M82 ; use absolute distance for extrusion
; Layer count: 68
; Layer Change GCode
; LAYER:0
; LAYER_HEIGHT:0.3
; TYPE:FILL
M400
M107
G1 X0 Y0 Z0.8 F9000
G1 X45.69 Y68.98
G1 X63.35 Y78.41
; TYPE:SKIRT
G1 Z0.3
G1 F1800
G1 X64.56 Y77.51 E0.075 F1080
G1 X65.81 Y76.63 E0.151
G1 X67.13 Y75.79 E0.229
G1 X68.5 Y74.98 E0.308
G1 X69.92 Y74.22 E0.389
G1 X71.39 Y73.51 E0.47
G1 X73.25 Y72.7 E0.572
G1 X75.11 Y71.99 E0.671
G1 X76.99 Y71.33 E0.77
G1 X78.87 Y70.74 E0.869
G1 X80.75 Y70.21 E0.966
G1 X82.61 Y69.72 E1.062
G1 X84.44 Y69.28 E1.156
G1 X86.25 Y68.87 E1.249
G1 X87.7 Y68.57 E1.323
G1 X89.12 Y68.3 E1.395
G1 X90.47 Y68.06 E1.463
G1 X93.17 Y67.6 E1.6
G1 X95.3 Y67.27 E1.707
G1 X97.29 Y67.04 E1.807
G1 X98.61 Y66.93 E1.873
G1 X100.91 Y66.79 E1.988
G1 X111.05 Y66.37 E2.494
G1 X113.97 Y66.29 E2.64
G1 X115.96 Y66.34 E2.74
G1 X127.05 Y66.79 E3.293
G1 X129.36 Y66.92 E3.409
G1 X130.65 Y67.04 E3.474
G1 X132.01 Y67.19 E3.542
G1 X134.1 Y67.48 E3.647
G1 X137.49 Y68.06 E3.819
G1 X138.84 Y68.29 E3.887
G1 X140.25 Y68.56 E3.959
G1 X141.7 Y68.86 E4.032
G1 X143.51 Y69.27 E4.125
G1 X145.34 Y69.71 E4.219
G1 X147.2 Y70.19 E4.315
G1 X149.07 Y70.73 E4.412
G1 X150.95 Y71.31 E4.51
G1 X152.84 Y71.97 E4.61
G1 X154.71 Y72.69 E4.71
G1 X156.58 Y73.49 E4.811
G1 X158.04 Y74.2 E4.892
G1 X159.46 Y74.96 E4.973
G1 X160.83 Y75.76 E5.052
G1 X162.15 Y76.6 E5.13
G1 X163.41 Y77.48 E5.206
G1 X164.61 Y78.38 E5.281
G1 X165.73 Y79.28 E5.353
G1 X184.66 Y95.08 E6.583
G1 X185.18 Y149.92 E9.319
G1 Y172.02 E10.422
G1 X127.34 Y187.71 E13.412
G1 X100.66 E14.743
G1 X42.82 Y172.02 E17.733
G1 Y149.92 E18.836
G1 X43.34 Y95.08 E21.572
G1 X62.24 Y79.3 E22.8
G1 X63.35 Y78.41 E22.871
G1 X63.6 Y78.72 F9000
G1 X64.79 Y77.83 E22.946 F1080
G1 X66.03 Y76.96 E23.021
G1 X67.34 Y76.13 E23.099
G1 X68.69 Y75.33 E23.177
G1 X70.1 Y74.58 E23.257
G1 X71.56 Y73.87 E23.337
G1 X73.4 Y73.07 E23.438
G1 X75.25 Y72.36 E23.536
G1 X77.12 Y71.71 E23.635
G1 X78.98 Y71.13 E23.733
G1 X80.85 Y70.59 E23.83
G1 X82.7 Y70.11 E23.925
G1 X84.53 Y69.67 E24.019
G1 X86.34 Y69.26 E24.111
G1 X87.78 Y68.96 E24.185
G1 X89.19 Y68.69 E24.257
G1 X90.53 Y68.46 E24.325
G1 X93.24 Y68 E24.461
G1 X95.35 Y67.67 E24.568
G1 X97.33 Y67.44 E24.667
G1 X98.64 Y67.32 E24.733
G1 X100.93 Y67.19 E24.848
G1 X111.06 Y66.77 E25.353
G1 X113.97 Y66.69 E25.499
G1 X115.95 Y66.74 E25.597
G1 X127.03 Y67.19 E26.151
G1 X129.33 Y67.32 E26.265
G1 X130.62 Y67.44 E26.33
G1 X131.96 Y67.58 E26.397
G1 X134.03 Y67.88 E26.502
G1 X137.42 Y68.45 E26.673
G1 X138.76 Y68.68 E26.741
G1 X140.18 Y68.95 E26.813
G1 X141.62 Y69.25 E26.886
G1 X143.42 Y69.66 E26.978
G1 X145.24 Y70.1 E27.072
G1 X147.09 Y70.58 E27.168
G1 X148.96 Y71.11 E27.264
G1 X150.83 Y71.69 E27.362
G1 X152.7 Y72.34 E27.461
G1 X154.56 Y73.06 E27.56
G1 X156.41 Y73.85 E27.661
G1 X157.86 Y74.55 E27.741
G1 X159.27 Y75.31 E27.821
G1 X160.62 Y76.1 E27.899
G1 X161.93 Y76.94 E27.976
G1 X163.17 Y77.8 E28.052
G1 X164.37 Y78.7 E28.126
G1 X165.47 Y79.59 E28.197
G1 X184.26 Y95.27 E29.418
G1 X184.78 Y149.92 E32.145
G1 Y171.72 E33.233
G1 X127.29 Y187.31 E36.204
G1 X100.71 E37.53
G1 X43.22 Y171.72 E40.502
G1 Y149.92 E41.59
G1 X43.74 Y95.27 E44.317
G1 X62.5 Y79.61 E45.536
G1 X63.6 Y78.72 E45.606
G1 E42.606 F1800
G1 Z0.8
G1 X67.37 Y83.44 F9000
G1 X65.3 Y85.58
G1 X57.54 Y98.01
; TYPE:WALL-OUTER
G1 Z0.3
G1 E45.606 F1800
G1 X57.53 Y97.4 E45.637 F1080
G1 X57.57 Y97.04 E45.655
G1 X57.82 Y95.76 E45.72
G1 X58 Y95.12 E45.753
G1 X58.21 Y94.5 E45.786
G1 X58.45 Y93.87 E45.819
G1 X58.74 Y93.24 E45.854
G1 X59.05 Y92.6 E45.889
G1 X59.77 Y91.26 E45.965
G1 X60.34 Y90.31 E46.02
G1 X60.96 Y89.39 E46.076
G1 X61.61 Y88.5 E46.131
G1 X62.29 Y87.66 E46.185
G1 X63 Y86.85 E46.238
G1 X63.7 Y86.1 E46.29
G1 X64.42 Y85.39 E46.34
G1 X65.11 Y84.75 E46.387
G1 X66.05 Y83.94 E46.449
G1 X67.04 Y83.14 E46.513
G1 X68.08 Y82.37 E46.577
G1 X69.15 Y81.62 E46.642
G1 X70.27 Y80.9 E46.709
G1 X71.44 Y80.21 E46.776
G1 X72.64 Y79.57 E46.844
G1 X73.88 Y78.97 E46.913
G1 X75.52 Y78.26 E47.002
G1 X77.18 Y77.62 E47.091
G1 X78.87 Y77.03 E47.18
G1 X80.6 Y76.49 E47.271
G1 X82.32 Y75.99 E47.36
G1 X84.07 Y75.54 E47.45
G1 X85.8 Y75.12 E47.539
G1 X87.52 Y74.74 E47.627
G1 X88.88 Y74.45 E47.696
G1 X90.2 Y74.2 E47.763
G1 X91.48 Y73.98 E47.828
G1 X92.73 Y73.78 E47.891
G1 X94.13 Y73.52 E47.963
G1 X96.1 Y73.22 E48.062
G1 X97.91 Y73.01 E48.152
G1 X99.05 Y72.91 E48.21
G1 X101.22 Y72.78 E48.318
G1 X103.16 Y72.71 E48.415
G1 X111.25 Y72.37 E48.819
G1 X113.99 Y72.29 E48.956
G1 X115.77 Y72.33 E49.045
G1 X126.75 Y72.78 E49.593
G1 X128.92 Y72.91 E49.701
G1 X130.06 Y73.01 E49.758
G1 X131.26 Y73.14 E49.819
G1 X133.17 Y73.41 E49.915
G1 X135.24 Y73.78 E50.02
G1 X136.48 Y73.97 E50.082
G1 X137.76 Y74.19 E50.147
G1 X139.08 Y74.44 E50.214
G1 X142.15 Y75.11 E50.371
G1 X143.88 Y75.53 E50.46
G1 X145.62 Y75.98 E50.55
G1 X147.35 Y76.47 E50.639
G1 X149.08 Y77.01 E50.73
G1 X150.77 Y77.6 E50.819
G1 X152.45 Y78.25 E50.908
G1 X154.09 Y78.95 E50.998
G1 X155.33 Y79.55 E51.066
G1 X156.53 Y80.19 E51.134
G1 X157.69 Y80.87 E51.201
G1 X158.81 Y81.59 E51.268
G1 X159.89 Y82.34 E51.334
G1 X160.93 Y83.12 E51.398
G1 X161.92 Y83.91 E51.461
G1 X162.86 Y84.73 E51.524
G1 X163.56 Y85.37 E51.571
G1 X164.28 Y86.08 E51.621
G1 X164.98 Y86.83 E51.673
G1 X165.68 Y87.63 E51.725
G1 X166.37 Y88.48 E51.78
G1 X167.02 Y89.36 E51.835
G1 X167.65 Y90.29 E51.891
G1 X168.22 Y91.24 E51.946
G1 X168.94 Y92.58 E52.022
G1 X169.26 Y93.22 E52.058
G1 X169.55 Y93.87 E52.093
G1 X169.79 Y94.5 E52.127
G1 X170 Y95.12 E52.159
G1 X170.18 Y95.74 E52.192
G1 X170.31 Y96.37 E52.224
G1 X170.43 Y97.04 E52.258
G1 X170.47 Y97.4 E52.276
G1 X170.46 Y98.01 E52.306
G1 X178.69 E52.717
G1 Y115.2 E53.574
G1 X171.07 E53.954
G1 Y150.14 E55.697
G1 X179.18 E56.102
G1 Y167.39 E56.962
G1 X139.4 E58.947
G1 X139.38 Y160.02 E59.314
G1 X139.08 Y159.94 E59.33
G1 X126.46 Y181.71 E60.585
G1 X101.54 E61.828
G1 X88.92 Y159.94 E63.083
G1 X88.62 Y160.02 E63.099
G1 X88.6 Y167.39 E63.466
G1 X48.82 E65.451
G1 Y150.14 E66.311
G1 X56.93 E66.716
G1 Y115.2 E68.459
G1 X49.31 E68.839
G1 Y98.01 E69.696
G1 X57.5 E70.105
G1 X57.54
G1 X57.53 Y97.4
G1 X57.57 Y97.04
G1 X57.82 Y95.76
G1 X58 Y95.12
G1 X58.02 Y95.06
G1 X57.95 Y98.41 F9000
; TYPE:WALL-INNER
G1 X57.93 Y97.41 E70.155 F1080
G1 X57.96 Y97.09 E70.171
G1 X58.21 Y95.84 E70.234
G1 X58.38 Y95.24 E70.266
G1 X58.58 Y94.63 E70.297
G1 X58.82 Y94.03 E70.33
G1 X59.1 Y93.4 E70.364
G1 X59.41 Y92.78 E70.399
G1 X60.11 Y91.47 E70.473
G1 X60.68 Y90.52 E70.528
G1 X61.28 Y89.63 E70.582
G1 X61.93 Y88.74 E70.636
G1 X62.59 Y87.92 E70.689
G1 X63.3 Y87.11 E70.743
G1 X64 Y86.37 E70.794
G1 X64.7 Y85.68 E70.843
G1 X65.38 Y85.05 E70.889
G1 X66.3 Y84.25 E70.95
G1 X67.29 Y83.45 E71.013
G1 X68.32 Y82.69 E71.077
G1 X69.36 Y81.96 E71.141
G1 X70.47 Y81.24 E71.206
G1 X71.64 Y80.55 E71.274
G1 X72.83 Y79.92 E71.341
G1 X74.04 Y79.33 E71.409
G1 X75.67 Y78.63 E71.497
G1 X77.31 Y78 E71.585
G1 X79.01 Y77.41 E71.674
G1 X80.7 Y76.88 E71.763
G1 X82.43 Y76.38 E71.853
G1 X84.17 Y75.93 E71.942
G1 X85.89 Y75.51 E72.031
G1 X88.96 Y74.84 E72.187
G1 X90.27 Y74.59 E72.254
G1 X91.54 Y74.37 E72.319
G1 X92.8 Y74.18 E72.382
G1 X94.2 Y73.92 E72.453
G1 X96.15 Y73.62 E72.551
G1 X97.94 Y73.41 E72.641
G1 X99.09 Y73.31 E72.699
G1 X101.23 Y73.18 E72.806
G1 X103.18 Y73.11 E72.903
G1 X111.26 Y72.77 E73.307
G1 X113.99 Y72.69 E73.443
G1 X115.76 Y72.73 E73.531
G1 X126.74 Y73.18 E74.079
G1 X128.88 Y73.31 E74.187
G1 X130.03 Y73.41 E74.244
G1 X131.21 Y73.54 E74.303
G1 X133.1 Y73.8 E74.399
G1 X135.17 Y74.17 E74.504
G1 X136.42 Y74.36 E74.566
G1 X137.69 Y74.59 E74.631
G1 X138.99 Y74.83 E74.697
G1 X140.34 Y75.12 E74.766
G1 X142.06 Y75.5 E74.854
G1 X143.78 Y75.92 E74.942
G1 X145.52 Y76.37 E75.032
G1 X147.23 Y76.86 E75.12
G1 X148.96 Y77.4 E75.211
G1 X150.63 Y77.97 E75.299
G1 X152.3 Y78.62 E75.388
G1 X153.91 Y79.31 E75.475
G1 X155.15 Y79.91 E75.544
G1 X156.34 Y80.54 E75.612
G1 X157.48 Y81.21 E75.677
G1 X158.6 Y81.93 E75.744
G1 X159.65 Y82.66 E75.808
G1 X160.69 Y83.44 E75.872
G1 X161.65 Y84.22 E75.934
G1 X162.6 Y85.03 E75.997
G1 X163.3 Y85.67 E76.044
G1 X163.98 Y86.35 E76.092
G1 X164.68 Y87.09 E76.143
G1 X165.38 Y87.89 E76.196
G1 X166.06 Y88.73 E76.249
G1 X166.69 Y89.59 E76.303
G1 X167.31 Y90.51 E76.358
G1 X167.87 Y91.43 E76.412
G1 X168.59 Y92.78 E76.488
G1 X168.89 Y93.39 E76.522
G1 X169.18 Y94.03 E76.557
G1 X169.42 Y94.63 E76.589
G1 X169.62 Y95.24 E76.621
G1 X169.79 Y95.83 E76.652
G1 X170.04 Y97.1 E76.716
G1 X170.07 Y97.41 E76.732
G1 X170.05 Y98.41 E76.782
G1 X178.29 E77.193
G1 Y114.8 E78.01
G1 X170.67 E78.39
G1 Y150.54 E80.173
G1 X178.78 E80.578
G1 Y166.99 E81.398
G1 X139.79 E83.343
G1 X139.78 Y159.71 E83.706
G1 X138.89 Y159.48 E83.752
G1 X126.22 Y181.31 E85.011
G1 X101.78 E86.231
G1 X89.11 Y159.48 E87.49
G1 X88.22 Y159.71 E87.536
G1 X88.21 Y166.99 E87.899
G1 X49.22 E89.844
G1 Y150.54 E90.664
G1 X57.33 E91.069
G1 Y114.8 E92.852
G1 X49.71 E93.232
G1 Y98.41 E94.049
G1 X57.91 E94.458
G1 X57.95
G1 E91.458 F1800
G1 Z0.8
G1 X90.63 Y115.2 F9000
; TYPE:WALL-OUTER
G1 Z0.3
G1 E94.458 F1800
G1 X95.58 Y123.93 E94.959 F1080
G1 X132.37 E96.794
G1 X137.48 Y115.4 E97.29
G1 X137.37 Y115.2 E97.302
G1 X126.77 E97.83
G1 Y98.01 E98.688
G1 X144.15 E99.555
G1 X144.24 Y97.74 E99.569
G1 X143.77 Y97.4 E99.598
G1 X143.04 Y96.9 E99.643
G1 X141.98 Y96.27 E99.704
G1 X140.82 Y95.66 E99.77
G1 X139.59 Y95.09 E99.837
G1 X138.93 Y94.82 E99.873
G1 X137.74 Y94.4 E99.936
G1 X136.94 Y94.16 E99.977
G1 X136.08 Y93.93 E100.022
G1 X135.16 Y93.71 E100.069
G1 X134.19 Y93.51 E100.118
G1 X130.4 Y92.63 E100.312
G1 X129.27 Y92.4 E100.37
G1 X127.47 Y92.1 E100.461
G1 X126.18 Y91.94 E100.526
G1 X124.75 Y91.81 E100.598
G1 X122.71 Y91.68 E100.7
G1 X120.07 Y91.57 E100.831
G1 X116.84 Y91.49 E100.993
G1 X111.23 Y91.49 E101.272
G1 X108.09 Y91.56 E101.429
G1 X105.45 Y91.67 E101.561
G1 X103.34 Y91.8 E101.666
G1 X101.9 Y91.93 E101.738
G1 X100.6 Y92.09 E101.804
G1 X98.86 Y92.37 E101.892
G1 X97.73 Y92.6 E101.949
G1 X96.59 Y92.85 E102.008
G1 X94.07 Y93.45 E102.137
G1 X92.98 Y93.68 E102.192
G1 X92.05 Y93.89 E102.24
G1 X91.18 Y94.12 E102.285
G1 X90.31 Y94.38 E102.33
G1 X89.07 Y94.82 E102.396
G1 X87.89 Y95.32 E102.46
G1 X86.67 Y95.92 E102.528
G1 X85.46 Y96.6 E102.597
G1 X84.63 Y97.12 E102.646
G1 X83.77 Y97.72 E102.698
G1 X83.86 Y98 E102.713
G1 X101.23 Y98.01 E103.579
G1 Y115.2 E104.437
G1 X90.67 E104.963
G1 X90.63
G1 X92.11 Y117.81
G1 X89.94 Y114.8 F9000
; TYPE:WALL-INNER
G1 X95.35 Y124.33 E105.51 F1080
G1 X132.6 E107.369
G1 X137.94 Y115.41 E107.887
G1 X137.6 Y114.8 E107.922
G1 X127.17 E108.443
G1 Y98.41 E109.26
G1 X144.44 E110.122
G1 X144.71 Y97.58 E110.165
G1 X144 Y97.07 E110.209
G1 X143.25 Y96.56 E110.254
G1 X142.18 Y95.92 E110.316
G1 X140.99 Y95.3 E110.383
G1 X139.75 Y94.72 E110.451
G1 X139.07 Y94.45 E110.488
G1 X137.86 Y94.02 E110.552
G1 X137.05 Y93.77 E110.595
G1 X136.18 Y93.54 E110.64
G1 X135.25 Y93.32 E110.687
G1 X134.26 Y93.12 E110.737
G1 X130.49 Y92.24 E110.931
G1 X129.34 Y92.01 E110.989
G1 X127.53 Y91.71 E111.081
G1 X126.22 Y91.54 E111.146
G1 X124.78 Y91.41 E111.219
G1 X122.73 Y91.28 E111.321
G1 X120.08 Y91.17 E111.453
G1 X116.84 Y91.09 E111.615
G1 X111.23 Y91.09 E111.895
G1 X108.07 Y91.16 E112.053
G1 X105.43 Y91.27 E112.185
G1 X103.31 Y91.41 E112.291
G1 X101.86 Y91.54 E112.363
G1 X100.55 Y91.7 E112.429
G1 X98.79 Y91.98 E112.518
G1 X97.65 Y92.21 E112.576
G1 X96.5 Y92.46 E112.635
G1 X93.99 Y93.06 E112.764
G1 X92.89 Y93.29 E112.819
G1 X91.96 Y93.5 E112.867
G1 X91.07 Y93.74 E112.913
G1 X90.19 Y94 E112.959
G1 X88.92 Y94.45 E113.026
G1 X87.72 Y94.96 E113.091
G1 X86.48 Y95.56 E113.16
G1 X85.25 Y96.25 E113.23
G1 X84.4 Y96.79 E113.28
G1 X83.3 Y97.57 E113.348
G1 X83.57 Y98.4 E113.391
G1 X100.83 Y98.41 E114.253
G1 Y114.8 E115.07
G1 X89.98 E115.611
G1 X89.94
G1 X98.24 Y112.02 F9000
; TYPE:WALL-OUTER
G1 Y111.58 E115.633 F1080
G1 X84.53 Y111.58 E116.317
G1 X84.41 Y111.78 E116.329
G1 X84.55 Y112.02 E116.343
G1 X98.2 E117.024
G1 X98.24 Y112.02
G1 Y111.58
G1 X95.68
G1 X98.64 Y112.42 F9000
; TYPE:WALL-INNER
G1 Y111.18 E117.086 F1080
G1 X84.3 Y111.18 E117.802
G1 X83.95 Y111.78 E117.836
G1 X84.32 Y112.42 E117.873
G1 X98.6 E118.586
G1 X98.64 Y112.42
G1 E115.586 F1800
G1 Z0.8
G1 X92.74 Y114.41 F9000
G1 X90.52 Y114.95
G1 X91.32 Y117.66
G1 X95.25 Y124.18
G1 X96.6 Y125.31
G1 X105.61 Y141.11
G1 X105.76 Y142.61
G1 X113.42 Y155.63
G1 X114.02 Y155.86
; TYPE:WALL-OUTER
G1 Z0.3
G1 E118.586 F1800
G1 X122.43 Y141.53 E119.414 F1080
G1 X122.31 Y141.33 E119.426
G1 X105.86 E120.246
G1 X105.75 Y141.53 E120.258
G1 X114 Y155.82 E121.081
G1 X114.02 Y155.86
G1 X115.54 Y153.27
G1 X114.02 Y156.65 F9000
; TYPE:WALL-INNER
G1 X122.89 Y141.53 E121.956 F1080
G1 X122.54 Y140.93 E121.991
G1 X105.63 E122.834
G1 X105.29 Y141.53 E122.869
G1 X114 Y156.62 E123.738
G1 X114.02 Y156.65
G1 E120.738 F1800
G1 Z0.8
G1 X147.39 Y150.67 F9000
G1 X148.58 Y150.14
; TYPE:WALL-OUTER
G1 Z0.3
G1 E123.738 F1800
G1 Y144.06 E124.042 F1080
G1 X148.29 Y143.97 E124.057
G1 X144.63 Y149.94 E124.406
G1 X144.74 Y150.14 E124.418
G1 X148.54 E124.608
G1 X148.58
G1 Y147.14
G1 X148.98 Y150.54 F9000
; TYPE:WALL-INNER
G1 Y143.75 E124.947 F1080
G1 X148.11 Y143.51 E124.992
G1 X144.16 Y149.93 E125.368
G1 X144.51 Y150.54 E125.403
G1 X148.94 E125.624
G1 X148.98
G1 E122.624 F1800
G1 Z0.8
G1 X149.19 Y144.84 F9000
G1 X147.07 Y140.82
G1 X137.62 Y116.11
G1 X138 Y115.4
G1 X136.1 Y114.43
G1 X132.64 Y113.32
G1 X129.76 Y112.02
; TYPE:WALL-OUTER
G1 Z0.3
G1 E125.624 F1800
G1 X143.84 E126.327 F1080
G1 X143.98 Y111.8 E126.34
G1 X143.87 Y111.59 E126.352
G1 X129.76 Y111.62 E127.055
G1 Y111.98 E127.073
G1 Y112.02
G1 X132.76
G1 X129.36 Y112.42 F9000
; TYPE:WALL-INNER
G1 X144.07 E127.807 F1080
G1 X144.44 Y111.8 E127.843
G1 X144.1 Y111.19 E127.878
G1 X129.36 Y111.22 E128.614
G1 X129.36 Y112.38 E128.671
G1 X129.36 Y112.42
G1 E125.671 F1800
G1 Z0.8
G1 X135.56 Y114.46 F9000
G1 X136.69 Y114.44
G1 X138 Y115.4
G1 X133.02 Y123.66
G1 X131.19 Y124.6
G1 X83.83 Y149.66
G1 X82.52 Y150.73
G1 X80.04 Y150.71
G1 X79.42 Y150.14
; TYPE:WALL-OUTER
G1 Z0.3
G1 E128.671 F1800
G1 X83.26 E128.863 F1080
G1 X83.37 Y149.94 E128.875
G1 X79.71 Y143.97 E129.224
G1 X79.42 Y144.06 E129.239
G1 Y150.1 E129.541
G1 Y150.14
G1 X82.42
G1 X79.02 Y150.54 F9000
; TYPE:WALL-INNER
G1 X83.49 E129.764 F1080
G1 X83.84 Y149.93 E129.799
G1 X79.89 Y143.51 E130.175
G1 X79.02 Y143.75 E130.221
G1 Y150.5 E130.557
G1 Y150.54
G1 X78.68 Y150.42 F9000
; TYPE:FILL
	G1 X62.46 Y166.65 E131.702 F1080
	G1 X61.89 F9000
	G1 X78.68 Y149.86 E132.886 F1080
	G1 Y149.29 F9000
	G1 X61.32 Y166.65 E134.111 F1080
	G1 X60.76 F9000
	G1 X78.68 Y148.73 E135.375 F1080
	G1 Y148.16 F9000
	G1 X60.19 Y166.65 E136.679 F1080
	G1 X59.63 F9000
	G1 X78.68 Y147.6 E138.024 F1080
	G1 Y147.03 F9000
	G1 X59.06 Y166.65 E139.408 F1080
	G1 X58.5 F9000
	G1 X78.68 Y146.46 E140.832 F1080
	G1 Y145.9 F9000
	G1 X57.93 Y166.65 E142.295 F1080
	G1 X57.36 F9000
	G1 X78.68 Y145.33 E143.799 F1080
	G1 Y144.77 F9000
	G1 X56.8 Y166.65 E145.343 F1080
	G1 X56.23 F9000
	G1 X78.68 Y144.2 E146.926 F1080
	G1 Y143.64 F9000
	G1 X55.67 Y166.65 E148.55 F1080
	G1 X55.1 F9000
	G1 X97.08 Y124.67 E151.512 F1080
	G1 X97.65 F9000
	G1 X78.88 Y143.44 E152.836 F1080
	G1 X79.66 Y143.22 F9000
	G1 X98.21 Y124.67 E154.145 F1080
	G1 X98.78 F9000
	G1 X80.16 Y143.29 E155.458 F1080
	G1 X80.37 Y143.64 F9000
	G1 X99.34 Y124.67 E156.797 F1080
	G1 X99.91 F9000
	G1 X80.59 Y143.99 E158.16 F1080
	G1 X80.8 Y144.34 F9000
	G1 X100.47 Y124.67 E159.548 F1080
	G1 X101.04 F9000
	G1 X81.02 Y144.69 E160.96 F1080
	G1 X81.23 Y145.04 F9000
	G1 X101.61 Y124.67 E162.398 F1080
	G1 X102.17 F9000
	G1 X81.45 Y145.39 E163.86 F1080
	G1 X81.66 Y145.74 F9000
	G1 X102.74 Y124.67 E165.346 F1080
	G1 X103.3 F9000
	G1 X81.88 Y146.09 E166.858 F1080
	G1 X82.1 Y146.44 F9000
	G1 X103.87 Y124.67 E168.394 F1080
	G1 X104.43 F9000
	G1 X82.31 Y146.79 E169.955 F1080
	G1 X82.53 Y147.14 F9000
	G1 X105 Y124.67 E171.541 F1080
	G1 X105.57 F9000
	G1 X82.74 Y147.49 E173.151 F1080
	G1 X82.96 Y147.84 F9000
	G1 X106.13 Y124.67 E174.786 F1080
	G1 X106.7 F9000
	G1 X83.17 Y148.19 E176.446 F1080
	G1 X83.39 Y148.54 F9000
	G1 X107.26 Y124.67 E178.131 F1080
	G1 X107.83 F9000
	G1 X83.6 Y148.89 E179.84 F1080
	G1 X83.82 Y149.25 F9000
	G1 X108.39 Y124.67 E181.574 F1080
	G1 X108.96 F9000
	G1 X84.03 Y149.6 E183.333 F1080
	G1 X84.17 Y150.02 F9000
	G1 X109.53 Y124.67 E185.122 F1080
	G1 X110.09 F9000
	G1 X68.11 Y166.65 E188.083 F1080
	G1 X67.55 F9000
	G1 X83.31 Y150.88 E189.196 F1080
	G1 X82.75 F9000
	G1 X66.98 Y166.65 E190.308 F1080
	G1 X66.42 F9000
	G1 X82.18 Y150.88 E191.42 F1080
	G1 X81.62 F9000
	G1 X65.85 Y166.65 E192.533 F1080
	G1 X65.28 F9000
	G1 X81.05 Y150.88 E193.645 F1080
	G1 X80.48 F9000
	G1 X64.72 Y166.65 E194.757 F1080
	G1 X64.15 F9000
	G1 X79.92 Y150.88 E195.87 F1080
	G1 X79.35 F9000
	G1 X63.59 Y166.65 E196.982 F1080
	G1 X63.02 F9000
	G1 X78.79 Y150.88 E198.094 F1080
	G1 X87.88 Y159.89 F9000
	G1 X81.12 Y166.65 E198.571 F1080
	G1 X81.69 F9000
	G1 X87.88 Y160.46 E199.008 F1080
	G1 X87.88 Y161.02 F9000
	G1 X82.26 Y166.65 E199.404 F1080
	G1 X82.82 F9000
	G1 X87.88 Y161.59 E199.761 F1080
	G1 X87.87 Y162.16 F9000
	G1 X83.39 Y166.65 E200.077 F1080
	G1 X83.95 F9000
	G1 X87.87 Y162.73 E200.354 F1080
	G1 X87.87 Y163.29 F9000
	G1 X84.52 Y166.65 E200.591 F1080
	G1 X85.08 F9000
	G1 X87.87 Y163.86 E200.787 F1080
	G1 X87.87 Y164.43 F9000
	G1 X85.65 Y166.65 E200.944 F1080
	G1 X86.22 F9000
	G1 X87.87 Y164.99 E201.061 F1080
	G1 X87.87 Y165.56 F9000
	G1 X86.78 Y166.65 E201.137 F1080
	G1 X87.35 F9000
	G1 X87.87 Y166.13 E201.174 F1080
	G1 X87.72 F9000
	G1 X88.27 Y160.32
	G1 X89.72 Y160.23
	G1 X91.96 Y163.72
	G1 X108.29 Y147.4 E202.326 F1080
	G1 X108.49 Y147.76 F9000
	G1 X92.17 Y164.08 E203.477 F1080
	G1 X92.38 Y164.44 F9000
	G1 X108.7 Y148.12 E204.629 F1080
	G1 X108.91 Y148.48 F9000
	G1 X92.59 Y164.8 E205.78 F1080
	G1 X92.8 Y165.16 F9000
	G1 X109.11 Y148.84 E206.931 F1080
	G1 X109.32 Y149.2 F9000
	G1 X93 Y165.51 E208.083 F1080
	G1 X93.21 Y165.87 F9000
	G1 X109.53 Y149.56 E209.234 F1080
	G1 X109.74 Y149.91 F9000
	G1 X93.42 Y166.23 E210.385 F1080
	G1 X93.63 Y166.59 F9000
	G1 X109.94 Y150.27 E211.536 F1080
	G1 X110.15 Y150.63 F9000
	G1 X93.83 Y166.95 E212.688 F1080
	G1 X94.04 Y167.3 F9000
	G1 X110.36 Y150.99 E213.839 F1080
	G1 X110.56 Y151.35 F9000
	G1 X94.25 Y167.66 E214.99 F1080
	G1 X94.46 Y168.02 F9000
	G1 X110.77 Y151.71 E216.141 F1080
	G1 X110.98 Y152.07 F9000
	G1 X94.67 Y168.38 E217.292 F1080
	G1 X94.87 Y168.74 F9000
	G1 X111.19 Y152.42 E218.443 F1080
	G1 X111.39 Y152.78 F9000
	G1 X95.08 Y169.09 E219.593 F1080
	G1 X95.29 Y169.45 F9000
	G1 X111.6 Y153.14 E220.744 F1080
	G1 X111.81 Y153.5 F9000
	G1 X95.5 Y169.81 E221.895 F1080
	G1 X95.7 Y170.17 F9000
	G1 X112.01 Y153.86 E223.046 F1080
	G1 X112.22 Y154.22 F9000
	G1 X95.91 Y170.53 E224.196 F1080
	G1 X96.12 Y170.88 F9000
	G1 X112.43 Y154.58 E225.347 F1080
	G1 X112.64 Y154.93 F9000
	G1 X96.33 Y171.24 E226.498 F1080
	G1 X96.53 Y171.6 F9000
	G1 X112.84 Y155.29 E227.648 F1080
	G1 X113.05 Y155.65 F9000
	G1 X96.74 Y171.96 E228.799 F1080
	G1 X96.95 Y172.32 F9000
	G1 X113.26 Y156.01 E229.949 F1080
	G1 X113.46 Y156.37 F9000
	G1 X97.16 Y172.67 E231.1 F1080
	G1 X97.37 Y173.03 F9000
	G1 X113.67 Y156.73 E232.25 F1080
	G1 X113.88 Y157.09 F9000
	G1 X97.57 Y173.39 E233.4 F1080
	G1 X97.78 Y173.75 F9000
	G1 X172.78 Y98.75 E238.692 F1080
	G1 X173.34 F9000
	G1 X97.99 Y174.11 E244.008 F1080
	G1 X98.2 Y174.46 F9000
	G1 X173.91 Y98.75 E249.35 F1080
	G1 X174.47 F9000
	G1 X98.4 Y174.82 E254.717 F1080
	G1 X98.61 Y175.18 F9000
	G1 X175.04 Y98.75 E260.11 F1080
	G1 X175.61 F9000
	G1 X98.82 Y175.54 E265.527 F1080
	G1 X99.03 Y175.9 F9000
	G1 X176.17 Y98.75 E270.97 F1080
	G1 X176.74 F9000
	G1 X99.24 Y176.25 E276.438 F1080
	G1 X99.44 Y176.61 F9000
	G1 X177.3 Y98.75 E281.932 F1080
	G1 X177.87 F9000
	G1 X99.65 Y176.97 E287.45 F1080
	G1 X99.86 Y177.33 F9000
	G1 X177.94 Y99.24 E292.96 F1080
	G1 Y99.81 F9000
	G1 X100.07 Y177.69 E298.454 F1080
	G1 X100.27 Y178.04 F9000
	G1 X177.94 Y100.37 E303.934 F1080
	G1 Y100.94 F9000
	G1 X100.48 Y178.4 E309.4 F1080
	G1 X100.69 Y178.76 F9000
	G1 X177.94 Y101.5 E314.85 F1080
	G1 Y102.07 F9000
	G1 X100.9 Y179.12 E320.287 F1080
	G1 X101.1 Y179.48 F9000
	G1 X177.94 Y102.64 E325.708 F1080
	G1 Y103.2 F9000
	G1 X101.31 Y179.83 E331.115 F1080
	G1 X101.52 Y180.19 F9000
	G1 X177.94 Y103.77 E336.507 F1080
	G1 Y104.33 F9000
	G1 X101.73 Y180.55 E341.884 F1080
	G1 X101.94 Y180.91 F9000
	G1 X177.94 Y104.9 E347.247 F1080
	G1 Y105.46 F9000
	G1 X102.44 Y180.97 E352.574 F1080
	G1 X103.01 F9000
	G1 X177.94 Y106.03 E357.862 F1080
	G1 Y106.6 F9000
	G1 X103.57 Y180.97 E363.109 F1080
	G1 X104.14 F9000
	G1 X170.33 Y114.77 E367.78 F1080
	G1 X170.65 Y114.46 F9000
	G1 X177.94 Y107.16 E368.294 F1080
	G1 Y107.73 F9000
	G1 X171.21 Y114.46 E368.769 F1080
	G1 X171.78 F9000
	G1 X177.94 Y108.29 E369.204 F1080
	G1 Y108.86 F9000
	G1 X172.34 Y114.46 E369.599 F1080
	G1 X172.91 F9000
	G1 X177.94 Y109.42 E369.955 F1080
	G1 Y109.99 F9000
	G1 X173.48 Y114.46 E370.27 F1080
	G1 X174.04 F9000
	G1 X177.94 Y110.55 E370.545 F1080
	G1 Y111.12 F9000
	G1 X174.61 Y114.46 E370.781 F1080
	G1 X175.17 F9000
	G1 X177.94 Y111.69 E370.976 F1080
	G1 Y112.25 F9000
	G1 X175.74 Y114.46 E371.132 F1080
	G1 X176.3 F9000
	G1 X177.94 Y112.82 E371.248 F1080
	G1 Y113.38 F9000
	G1 X176.87 Y114.46 E371.323 F1080
	G1 X177.44 F9000
	G1 X177.94 Y113.95 E371.359 F1080
	G1 X171.6 Y114.36 F9000
	G1 X170.33 Y115.34
	G1 X104.7 Y180.97 E375.99 F1080
	G1 X105.27 F9000
	G1 X170.33 Y115.9 E380.58 F1080
	G1 Y116.47 F9000
	G1 X105.83 Y180.97 E385.131 F1080
	G1 X106.4 F9000
	G1 X170.33 Y117.03 E389.642 F1080
	G1 Y117.6 F9000
	G1 X106.97 Y180.97 E394.113 F1080
	G1 X107.53 F9000
	G1 X170.33 Y118.17 E398.544 F1080
	G1 Y118.73 F9000
	G1 X108.1 Y180.97 E402.935 F1080
	G1 X108.66 F9000
	G1 X170.33 Y119.3 E407.286 F1080
	G1 Y119.86 F9000
	G1 X109.23 Y180.97 E411.597 F1080
	G1 X109.79 F9000
	G1 X170.33 Y120.43 E415.869 F1080
	G1 Y120.99 F9000
	G1 X148.16 Y143.17 E417.433 F1080
	G1 X148.6 Y143.29 F9000
	G1 X170.33 Y121.56 E418.966 F1080
	G1 Y122.13 F9000
	G1 X149.04 Y143.42 E420.469 F1080
	G1 X149.32 Y143.7 F9000
	G1 X170.33 Y122.69 E421.951 F1080
	G1 Y123.26 F9000
	G1 X149.32 Y144.27 E423.434 F1080
	G1 Y144.84 F9000
	G1 X170.33 Y123.82 E424.916 F1080
	G1 Y124.39 F9000
	G1 X149.32 Y145.4 E426.399 F1080
	G1 Y145.97 F9000
	G1 X170.33 Y124.95 E427.882 F1080
	G1 Y125.52 F9000
	G1 X149.32 Y146.53 E429.364 F1080
	G1 Y147.1 F9000
	G1 X170.33 Y126.09 E430.847 F1080
	G1 Y126.65 F9000
	G1 X149.32 Y147.66 E432.329 F1080
	G1 Y148.23 F9000
	G1 X170.33 Y127.22 E433.812 F1080
	G1 Y127.78 F9000
	G1 X149.32 Y148.8 E435.294 F1080
	G1 Y149.36 F9000
	G1 X170.33 Y128.35 E436.777 F1080
	G1 Y128.91 F9000
	G1 X149.32 Y149.93 E438.259 F1080
	G1 Y150.49 F9000
	G1 X170.33 Y129.48 E439.742 F1080
	G1 Y130.05 F9000
	G1 X140.12 Y160.26 E441.874 F1080
	G1 X140.12 Y160.82 F9000
	G1 X170.33 Y130.61 E444.005 F1080
	G1 Y131.18 F9000
	G1 X140.12 Y161.39 E446.137 F1080
	G1 X140.12 Y161.95 F9000
	G1 X170.33 Y131.74 E448.268 F1080
	G1 Y132.31 F9000
	G1 X140.12 Y162.52 E450.4 F1080
	G1 X140.13 Y163.08 F9000
	G1 X170.33 Y132.87 E452.531 F1080
	G1 Y133.44 F9000
	G1 X140.13 Y163.65 E454.662 F1080
	G1 X140.13 Y164.21 F9000
	G1 X170.33 Y134.01 E456.793 F1080
	G1 Y134.57 F9000
	G1 X140.13 Y164.77 E458.925 F1080
	G1 X140.13 Y165.34 F9000
	G1 X170.33 Y135.14 E461.055 F1080
	G1 Y135.7 F9000
	G1 X140.13 Y165.9 E463.186 F1080
	G1 X140.13 Y166.47 F9000
	G1 X170.33 Y136.27 E465.317 F1080
	G1 Y136.83 F9000
	G1 X140.52 Y166.65 E467.421 F1080
	G1 X141.09 F9000
	G1 X170.33 Y137.4 E469.484 F1080
	G1 Y137.97 F9000
	G1 X141.65 Y166.65 E471.508 F1080
	G1 X142.22 F9000
	G1 X170.33 Y138.53 E473.492 F1080
	G1 Y139.1 F9000
	G1 X142.78 Y166.65 E475.435 F1080
	G1 X143.35 F9000
	G1 X170.33 Y139.66 E477.339 F1080
	G1 Y140.23 F9000
	G1 X143.91 Y166.65 E479.203 F1080
	G1 X144.48 F9000
	G1 X170.33 Y140.79 E481.027 F1080
	G1 Y141.36 F9000
	G1 X145.05 Y166.65 E482.812 F1080
	G1 X145.61 F9000
	G1 X170.33 Y141.92 E484.556 F1080
	G1 Y142.49 F9000
	G1 X146.18 Y166.65 E486.26 F1080
	G1 X146.74 F9000
	G1 X170.33 Y143.06 E487.925 F1080
	G1 Y143.62 F9000
	G1 X147.31 Y166.65 E489.549 F1080
	G1 X147.87 F9000
	G1 X170.33 Y144.19 E491.134 F1080
	G1 Y144.75 F9000
	G1 X148.44 Y166.65 E492.678 F1080
	G1 X149.01 F9000
	G1 X170.33 Y145.32 E494.183 F1080
	G1 Y145.88 F9000
	G1 X149.57 Y166.65 E495.648 F1080
	G1 X150.14 F9000
	G1 X170.33 Y146.45 E497.073 F1080
	G1 Y147.02 F9000
	G1 X150.7 Y166.65 E498.458 F1080
	G1 X151.27 F9000
	G1 X170.33 Y147.58 E499.803 F1080
	G1 Y148.15 F9000
	G1 X151.83 Y166.65 E501.108 F1080
	G1 X152.4 F9000
	G1 X170.33 Y148.71 E502.374 F1080
	G1 Y149.28 F9000
	G1 X152.97 Y166.65 E503.599 F1080
	G1 X153.53 F9000
	G1 X170.33 Y149.84 E504.785 F1080
	G1 Y150.41 F9000
	G1 X154.1 Y166.65 E505.93 F1080
	G1 X154.66 F9000
	G1 X170.43 Y150.88 E507.042 F1080
	G1 X170.99 F9000
	G1 X155.23 Y166.65 E508.155 F1080
	G1 X155.79 F9000
	G1 X171.56 Y150.88 E509.267 F1080
	G1 X172.12 F9000
	G1 X156.36 Y166.65 E510.379 F1080
	G1 X156.93 F9000
	G1 X172.69 Y150.88 E511.491 F1080
	G1 X173.26 F9000
	G1 X157.49 Y166.65 E512.604 F1080
	G1 X158.06 F9000
	G1 X173.82 Y150.88 E513.716 F1080
	G1 X174.39 F9000
	G1 X158.62 Y166.65 E514.828 F1080
	G1 X159.19 F9000
	G1 X174.95 Y150.88 E515.94 F1080
	G1 X175.52 F9000
	G1 X159.75 Y166.65 E517.053 F1080
	G1 X160.32 F9000
	G1 X176.08 Y150.88 E518.165 F1080
	G1 X176.65 F9000
	G1 X160.89 Y166.65 E519.277 F1080
	G1 X161.45 F9000
	G1 X177.22 Y150.88 E520.389 F1080
	G1 X177.78 F9000
	G1 X162.02 Y166.65 E521.502 F1080
	G1 X162.58 F9000
	G1 X178.35 Y150.88 E522.614 F1080
	G1 X178.44 Y151.36 F9000
	G1 X163.15 Y166.65 E523.693 F1080
	G1 X163.71 F9000
	G1 X178.44 Y151.92 E524.732 F1080
	G1 Y152.49 F9000
	G1 X164.28 Y166.65 E525.731 F1080
	G1 X164.84 F9000
	G1 X178.44 Y153.05 E526.69 F1080
	G1 Y153.62 F9000
	G1 X165.41 Y166.65 E527.609 F1080
	G1 X165.98 F9000
	G1 X178.44 Y154.18 E528.488 F1080
	G1 Y154.75 F9000
	G1 X166.54 Y166.65 E529.327 F1080
	G1 X167.11 F9000
	G1 X178.44 Y155.32 E530.127 F1080
	G1 Y155.88 F9000
	G1 X167.67 Y166.65 E530.886 F1080
	G1 X168.24 F9000
	G1 X178.44 Y156.45 E531.606 F1080
	G1 Y157.01 F9000
	G1 X168.8 Y166.65 E532.286 F1080
	G1 X169.37 F9000
	G1 X178.44 Y157.58 E532.925 F1080
	G1 Y158.14 F9000
	G1 X169.94 Y166.65 E533.525 F1080
	G1 X170.5 F9000
	G1 X178.44 Y158.71 E534.085 F1080
	G1 Y159.28 F9000
	G1 X171.07 Y166.65 E534.605 F1080
	G1 X171.63 F9000
	G1 X178.44 Y159.84 E535.086 F1080
	G1 Y160.41 F9000
	G1 X172.2 Y166.65 E535.526 F1080
	G1 X172.76 F9000
	G1 X178.44 Y160.97 E535.926 F1080
	G1 Y161.54 F9000
	G1 X173.33 Y166.65 E536.286 F1080
	G1 X173.9 F9000
	G1 X178.44 Y162.1 E536.607 F1080
	G1 Y162.67 F9000
	G1 X174.46 Y166.65 E536.888 F1080
	G1 X175.03 F9000
	G1 X178.44 Y163.24 E537.128 F1080
	G1 Y163.8 F9000
	G1 X175.59 Y166.65 E537.329 F1080
	G1 X176.16 F9000
	G1 X178.44 Y164.37 E537.49 F1080
	G1 Y164.93 F9000
	G1 X176.72 Y166.65 E537.611 F1080
	G1 X177.29 F9000
	G1 X178.44 Y165.5 E537.692 F1080
	G1 Y166.06 F9000
	G1 X177.86 Y166.65 E537.733 F1080
	G1 X178.42 F9000
	G1 X178.44 Y166.63 E537.734 F1080
	G1 E534.734 F1800
	G1 Z0.8
	G1 X178.29 Y166.48 F9000
	G1 X148.93 Y150.88
	G1 Z0.3
	G1 E537.734 F1800
	G1 X140.12 Y159.69 E538.356 F1080
	G1 X139.86 Y159.38 F9000
	G1 X148.37 Y150.88 E538.956 F1080
	G1 X147.8 F9000
	G1 X139.42 Y159.26 E539.547 F1080
	G1 X138.97 Y159.15 F9000
	G1 X147.24 Y150.88 E540.13 F1080
	G1 X146.67 F9000
	G1 X116.58 Y180.97 E542.253 F1080
	G1 X117.15 F9000
	G1 X138.31 Y159.81 E543.746 F1080
	G1 X137.52 Y161.16 F9000
	G1 X117.71 Y180.97 E545.144 F1080
	G1 X118.28 F9000
	G1 X136.74 Y162.51 E546.446 F1080
	G1 X135.96 Y163.85 F9000
	G1 X118.85 Y180.97 E547.654 F1080
	G1 X119.41 F9000
	G1 X135.18 Y165.2 E548.766 F1080
	G1 X134.39 Y166.55 F9000
	G1 X119.98 Y180.97 E549.783 F1080
	G1 X120.54 F9000
	G1 X133.61 Y167.9 E550.705 F1080
	G1 X132.83 Y169.25 F9000
	G1 X121.11 Y180.97 E551.532 F1080
	G1 X121.67 F9000
	G1 X132.05 Y170.59 E552.264 F1080
	G1 X131.27 Y171.94 F9000
	G1 X122.24 Y180.97 E552.901 F1080
	G1 X122.81 F9000
	G1 X130.48 Y173.29 E553.443 F1080
	G1 X129.7 Y174.64 F9000
	G1 X123.37 Y180.97 E553.889 F1080
	G1 X123.94 F9000
	G1 X128.92 Y175.99 E554.241 F1080
	G1 X128.14 Y177.33 F9000
	G1 X124.5 Y180.97 E554.497 F1080
	G1 X125.07 F9000
	G1 X127.35 Y178.68 E554.658 F1080
	G1 X126.57 Y180.03 F9000
	G1 X125.63 Y180.97 E554.725 F1080
	G1 Y180.82 F9000
	G1 X116.02 Y180.97
	G1 X146.1 Y150.88 E556.847 F1080
	G1 X145.54 F9000
	G1 X115.45 Y180.97 E558.97 F1080
	G1 X114.89 F9000
	G1 X144.97 Y150.88 E561.093 F1080
	G1 X144.41 F9000
	G1 X114.32 Y180.97 E563.215 F1080
	G1 X113.75 F9000
	G1 X144.14 Y150.58 E565.359 F1080
	G1 X143.94 Y150.22 F9000
	G1 X113.19 Y180.97 E567.529 F1080
	G1 X112.62 F9000
	G1 X143.92 Y149.67 E569.737 F1080
	G1 X144.82 Y148.2 F9000
	G1 X112.06 Y180.97 E572.049 F1080
	G1 X111.49 F9000
	G1 X145.72 Y146.74 E574.464 F1080
	G1 X146.62 Y145.27 F9000
	G1 X110.93 Y180.97 E576.982 F1080
	G1 X110.36 F9000
	G1 X147.52 Y143.8 E579.604 F1080
	G1 E576.604 F1800
	G1 Z0.8
	G1 X132.72 Y124.67 F9000
	G1 Z0.3
	G1 E579.604 F1800
	G1 X116.8 Y140.59 E580.727 F1080
	G1 X116.23 F9000
	G1 X132.15 Y124.67 E581.85 F1080
	G1 X131.59 F9000
	G1 X115.67 Y140.59 E582.973 F1080
	G1 X115.1 F9000
	G1 X131.02 Y124.67 E584.096 F1080
	G1 X130.45 F9000
	G1 X114.54 Y140.59 E585.219 F1080
	G1 X113.97 F9000
	G1 X129.89 Y124.67 E586.343 F1080
	G1 X129.32 F9000
	G1 X113.41 Y140.59 E587.466 F1080
	G1 X112.84 F9000
	G1 X128.76 Y124.67 E588.589 F1080
	G1 X128.19 F9000
	G1 X112.28 Y140.59 E589.712 F1080
	G1 X111.71 F9000
	G1 X127.63 Y124.67 E590.835 F1080
	G1 X127.06 F9000
	G1 X111.14 Y140.59 E591.958 F1080
	G1 X110.58 F9000
	G1 X126.5 Y124.67 E593.081 F1080
	G1 X125.93 F9000
	G1 X110.01 Y140.59 E594.204 F1080
	G1 X109.45 F9000
	G1 X125.36 Y124.67 E595.327 F1080
	G1 X124.8 F9000
	G1 X108.88 Y140.59 E596.45 F1080
	G1 X108.32 F9000
	G1 X124.23 Y124.67 E597.573 F1080
	G1 X123.67 F9000
	G1 X107.75 Y140.59 E598.696 F1080
	G1 X107.18 F9000
	G1 X123.1 Y124.67 E599.819 F1080
	G1 X122.54 F9000
	G1 X106.62 Y140.59 E600.942 F1080
	G1 X106.05 F9000
	G1 X121.97 Y124.67 E602.065 F1080
	G1 X121.4 F9000
	G1 X105.49 Y140.59 E603.188 F1080
	G1 X105.37 Y140.71 F9000
	G1 X79.43 Y166.65 E605.018 F1080
	G1 X79.99 F9000
	G1 X104.97 Y141.67 E606.78 F1080
	G1 X105.18 Y142.02 F9000
	G1 X80.56 Y166.65 E608.518 F1080
	G1 X78.86 F9000
	G1 X120.84 Y124.67 E611.479 F1080
	G1 X120.27 F9000
	G1 X78.3 Y166.65 E614.441 F1080
	G1 X77.73 F9000
	G1 X119.71 Y124.67 E617.403 F1080
	G1 X119.14 F9000
	G1 X77.16 Y166.65 E620.364 F1080
	G1 X76.6 F9000
	G1 X118.58 Y124.67 E623.326 F1080
	G1 X118.01 F9000
	G1 X76.03 Y166.65 E626.288 F1080
	G1 X75.47 F9000
	G1 X117.44 Y124.67 E629.249 F1080
	G1 X116.88 F9000
	G1 X74.9 Y166.65 E632.211 F1080
	G1 X74.34 F9000
	G1 X116.31 Y124.67 E635.173 F1080
	G1 X115.75 F9000
	G1 X73.77 Y166.65 E638.134 F1080
	G1 X73.2 F9000
	G1 X115.18 Y124.67 E641.096 F1080
	G1 X114.62 F9000
	G1 X72.64 Y166.65 E644.058 F1080
	G1 X72.07 F9000
	G1 X114.05 Y124.67 E647.019 F1080
	G1 X113.48 Y124.67 F9000
	G1 X71.51 Y166.65 E649.981 F1080
	G1 X70.94 F9000
	G1 X112.92 Y124.67 E652.943 F1080
	G1 X112.35 F9000
	G1 X70.38 Y166.65 E655.904 F1080
	G1 X69.81 F9000
	G1 X111.79 Y124.67 E658.866 F1080
	G1 X111.22 F9000
	G1 X69.24 Y166.65 E661.828 F1080
	G1 X68.68 Y166.65 F9000
	G1 X110.66 Y124.67 E664.79 F1080
	G1 X96.51 F9000
	G1 X54.54 Y166.65 E667.751 F1080
	G1 X53.97 F9000
	G1 X95.95 Y124.67 E670.713 F1080
	G1 X95.38 F9000
	G1 X53.4 Y166.65 E673.675 F1080
	G1 X52.84 F9000
	G1 X95.03 Y124.46 E676.652 F1080
	G1 X94.82 Y124.1 F9000
	G1 X52.27 Y166.65 E679.654 F1080
	G1 X51.71 F9000
	G1 X94.62 Y123.74 E682.681 F1080
	G1 X94.41 Y123.37 F9000
	G1 X51.14 Y166.65 E685.734 F1080
	G1 X50.58 F9000
	G1 X94.21 Y123.01 E688.813 F1080
	G1 X94.01 Y122.65 F9000
	G1 X50.01 Y166.65 E691.917 F1080
	G1 X49.56 Y166.53 F9000
	G1 X93.8 Y122.29 E695.038 F1080
	G1 X93.6 Y121.93 F9000
	G1 X49.56 Y165.97 E698.146 F1080
	G1 Y165.4 F9000
	G1 X93.39 Y121.57 E701.238 F1080
	G1 X93.19 Y121.21 F9000
	G1 X49.56 Y164.84 E704.316 F1080
	G1 Y164.27 F9000
	G1 X92.98 Y120.85 E707.38 F1080
	G1 X92.78 Y120.49 F9000
	G1 X49.56 Y163.7 E710.429 F1080
	G1 Y163.14 F9000
	G1 X92.57 Y120.12 E713.464 F1080
	G1 X92.37 Y119.76 F9000
	G1 X49.56 Y162.57 E716.484 F1080
	G1 Y162.01 F9000
	G1 X92.16 Y119.4 E719.49 F1080
	G1 X91.96 Y119.04 F9000
	G1 X49.56 Y161.44 E722.482 F1080
	G1 Y160.88 F9000
	G1 X91.75 Y118.68 E725.459 F1080
	G1 X91.55 Y118.32 F9000
	G1 X49.56 Y160.31 E728.422 F1080
	G1 Y159.74 F9000
	G1 X91.34 Y117.96 E731.37 F1080
	G1 X91.14 Y117.6 F9000
	G1 X49.56 Y159.18 E734.303 F1080
	G1 Y158.61 F9000
	G1 X57.29 Y150.88 E734.849 F1080
	G1 X57.66 Y150.51 F9000
	G1 X90.94 Y117.24 E737.196 F1080
	G1 X90.73 Y116.88 F9000
	G1 X57.66 Y149.94 E739.529 F1080
	G1 Y149.38 F9000
	G1 X90.53 Y116.51 E741.848 F1080
	G1 X90.32 Y116.15 F9000
	G1 X57.66 Y148.81 E744.152 F1080
	G1 Y148.24 F9000
	G1 X90.12 Y115.79 E746.442 F1080
	G1 X89.91 Y115.43 F9000
	G1 X57.66 Y147.68 E748.717 F1080
	G1 Y147.11 F9000
	G1 X89.71 Y115.07 E750.978 F1080
	G1 X89.5 Y114.71 F9000
	G1 X57.66 Y146.55 E753.224 F1080
	G1 Y145.98 F9000
	G1 X90.89 Y112.76 E755.568 F1080
	G1 X90.32 F9000
	G1 X57.66 Y145.42 E757.873 F1080
	G1 Y144.85 F9000
	G1 X89.76 Y112.76 E760.137 F1080
	G1 X89.19 F9000
	G1 X57.66 Y144.29 E762.361 F1080
	G1 Y143.72 F9000
	G1 X88.63 Y112.76 E764.546 F1080
	G1 X88.06 F9000
	G1 X57.66 Y143.15 E766.69 F1080
	G1 Y142.59 F9000
	G1 X87.49 Y112.76 E768.795 F1080
	G1 X86.93 F9000
	G1 X57.66 Y142.02 E770.86 F1080
	G1 Y141.46 F9000
	G1 X86.36 Y112.76 E772.884 F1080
	G1 X85.8 F9000
	G1 X57.66 Y140.89 E774.869 F1080
	G1 Y140.33 F9000
	G1 X85.23 Y112.76 E776.814 F1080
	G1 X84.66 F9000
	G1 X57.66 Y139.76 E778.719 F1080
	G1 Y139.19 F9000
	G1 X84.12 Y112.74 E780.585 F1080
	G1 X83.91 Y112.38 F9000
	G1 X57.66 Y138.63 E782.437 F1080
	G1 Y138.06 F9000
	G1 X83.7 Y112.03 E784.274 F1080
	G1 X83.79 Y111.37 F9000
	G1 X57.66 Y137.5 E786.117 F1080
	G1 Y136.93 F9000
	G1 X95.85 Y98.75 E788.811 F1080
	G1 X95.28 F9000
	G1 X57.66 Y136.37 E791.466 F1080
	G1 Y135.8 F9000
	G1 X94.72 Y98.75 E794.08 F1080
	G1 X94.15 F9000
	G1 X57.66 Y135.23 E796.654 F1080
	G1 Y134.67 F9000
	G1 X93.58 Y98.75 E799.188 F1080
	G1 X93.02 Y98.75 F9000
	G1 X57.66 Y134.1 E801.683 F1080
	G1 Y133.54 F9000
	G1 X92.45 Y98.75 E804.137 F1080
	G1 X91.89 Y98.75 F9000
	G1 X57.66 Y132.97 E806.552 F1080
	G1 X57.67 Y132.41 F9000
	G1 X91.32 Y98.75 E808.927 F1080
	G1 X90.76 F9000
	G1 X57.67 Y131.84 E811.262 F1080
	G1 Y131.27 F9000
	G1 X90.19 Y98.75 E813.557 F1080
	G1 X89.63 F9000
	G1 X57.67 Y130.71 E815.812 F1080
	G1 Y130.14 F9000
	G1 X89.06 Y98.75 E818.027 F1080
	G1 X88.5 F9000
	G1 X57.67 Y129.58 E820.202 F1080
	G1 Y129.01 F9000
	G1 X87.93 Y98.74 E822.338 F1080
	G1 X87.37 F9000
	G1 X57.67 Y128.45 E824.433 F1080
	G1 Y127.88 F9000
	G1 X86.8 Y98.74 E826.489 F1080
	G1 X86.24 Y98.74 F9000
	G1 X57.67 Y127.31 E828.505 F1080
	G1 Y126.75 F9000
	G1 X85.67 Y98.74 E830.481 F1080
	G1 X85.1 F9000
	G1 X57.67 Y126.18 E832.417 F1080
	G1 Y125.62 F9000
	G1 X84.54 Y98.74 E834.313 F1080
	G1 X83.97 Y98.74 F9000
	G1 X57.67 Y125.05 E836.169 F1080
	G1 Y124.49 F9000
	G1 X83.41 Y98.74 E837.985 F1080
	G1 X83.2 Y98.38 F9000
	G1 X57.67 Y123.92 E839.787 F1080
	G1 Y123.35 F9000
	G1 X83.07 Y97.95 E841.579 F1080
	G1 X82.93 Y97.52 F9000
	G1 X57.67 Y122.79 E843.362 F1080
	G1 Y122.22 F9000
	G1 X106.58 Y73.31 E846.813 F1080
	G1 X107.17 Y73.28 F9000
	G1 X83.31 Y97.14 E848.497 F1080
	G1 X85.03 Y95.99 F9000
	G1 X107.76 Y73.25 E850.101 F1080
	G1 X108.36 Y73.23 F9000
	G1 X86.32 Y95.26 E851.655 F1080
	G1 X87.43 Y94.72 F9000
	G1 X108.95 Y73.2 E853.173 F1080
	G1 X109.54 Y73.18 F9000
	G1 X88.43 Y94.29 E854.662 F1080
	G1 X89.35 Y93.94 F9000
	G1 X110.13 Y73.15 E856.129 F1080
	G1 X110.72 Y73.13 F9000
	G1 X90.21 Y93.64 E857.576 F1080
	G1 X91.01 Y93.4 F9000
	G1 X111.31 Y73.1 E859.008 F1080
	G1 X111.89 Y73.09 F9000
	G1 X91.78 Y93.2 E860.427 F1080
	G1 X92.52 Y93.03 F9000
	G1 X112.47 Y73.07 E861.834 F1080
	G1 X113.05 Y73.06 F9000
	G1 X93.24 Y92.87 E863.232 F1080
	G1 X93.95 Y92.72 F9000
	G1 X113.64 Y73.04 E864.621 F1080
	G1 X114.21 Y73.04 F9000
	G1 X94.7 Y92.54 E865.997 F1080
	G1 X95.44 Y92.37 F9000
	G1 X114.76 Y73.05 E867.36 F1080
	G1 X115.31 Y73.06 F9000
	G1 X96.18 Y92.19 E868.71 F1080
	G1 X96.92 Y92.02 F9000
	G1 X115.86 Y73.08 E870.047 F1080
	G1 X116.41 Y73.1 F9000
	G1 X97.64 Y91.86 E871.371 F1080
	G1 X98.35 Y91.72 F9000
	G1 X116.95 Y73.12 E872.683 F1080
	G1 X117.49 Y73.14 F9000
	G1 X99.04 Y91.6 E873.985 F1080
	G1 X99.72 Y91.49 F9000
	G1 X118.04 Y73.17 E875.278 F1080
	G1 X118.58 Y73.19 F9000
	G1 X100.39 Y91.38 E876.561 F1080
	G1 X101.04 Y91.29 F9000
	G1 X119.12 Y73.21 E877.837 F1080
	G1 X119.67 Y73.23 F9000
	G1 X101.68 Y91.21 E879.106 F1080
	G1 X102.31 Y91.15 F9000
	G1 X120.21 Y73.25 E880.369 F1080
	G1 X120.75 Y73.28 F9000
	G1 X102.93 Y91.1 E881.627 F1080
	G1 X103.55 Y91.05 F9000
	G1 X121.3 Y73.3 E882.879 F1080
	G1 X121.84 Y73.32 F9000
	G1 X104.15 Y91.01 E884.127 F1080
	G1 X104.75 Y90.97 F9000
	G1 X122.39 Y73.34 E885.372 F1080
	G1 X122.93 Y73.36 F9000
	G1 X105.36 Y90.94 E886.611 F1080
	G1 X105.95 Y90.91 F9000
	G1 X123.47 Y73.39 E887.848 F1080
	G1 X124.02 Y73.41 F9000
	G1 X106.54 Y90.89 E889.081 F1080
	G1 X107.13 Y90.86 F9000
	G1 X124.56 Y73.43 E890.311 F1080
	G1 X125.1 Y73.45 F9000
	G1 X107.72 Y90.84 E891.538 F1080
	G1 X108.3 Y90.82 F9000
	G1 X125.65 Y73.47 E892.761 F1080
	G1 X126.19 Y73.5 F9000
	G1 X108.88 Y90.8 E893.982 F1080
	G1 X109.46 Y90.79 F9000
	G1 X126.74 Y73.52 E895.201 F1080
	G1 X127.27 Y73.55 F9000
	G1 X110.04 Y90.78 E896.417 F1080
	G1 X110.62 Y90.77 F9000
	G1 X127.8 Y73.58 E897.629 F1080
	G1 X128.34 Y73.61 F9000
	G1 X111.2 Y90.75 E898.839 F1080
	G1 X111.76 Y90.75 F9000
	G1 X128.87 Y73.65 E900.046 F1080
	G1 X129.39 Y73.69 F9000
	G1 X112.33 Y90.75 E901.249 F1080
	G1 X112.89 F9000
	G1 X129.91 Y73.74 E902.45 F1080
	G1 X130.42 Y73.79 F9000
	G1 X113.46 Y90.75 E903.646 F1080
	G1 X114.03 F9000
	G1 X130.93 Y73.85 E904.839 F1080
	G1 X131.43 Y73.91 F9000
	G1 X114.59 Y90.75 E906.027 F1080
	G1 X115.16 F9000
	G1 X131.93 Y73.98 E907.211 F1080
	G1 X132.42 Y74.05 F9000
	G1 X115.72 Y90.75 E908.389 F1080
	G1 X116.29 F9000
	G1 X132.92 Y74.12 E909.563 F1080
	G1 X133.4 Y74.2 F9000
	G1 X116.85 Y90.75 E910.73 F1080
	G1 X117.41 Y90.77 F9000
	G1 X133.88 Y74.29 E911.893 F1080
	G1 X134.36 Y74.37 F9000
	G1 X117.96 Y90.78 E913.051 F1080
	G1 X118.51 Y90.79 F9000
	G1 X134.85 Y74.46 E914.203 F1080
	G1 X135.33 Y74.54 F9000
	G1 X119.07 Y90.8 E915.35 F1080
	G1 X119.62 Y90.82 F9000
	G1 X135.82 Y74.62 E916.494 F1080
	G1 X136.31 Y74.69 F9000
	G1 X120.17 Y90.83 E917.632 F1080
	G1 X120.71 Y90.85 F9000
	G1 X136.79 Y74.77 E918.767 F1080
	G1 X137.27 Y74.86 F9000
	G1 X121.25 Y90.88 E919.897 F1080
	G1 X121.8 Y90.9 F9000
	G1 X137.75 Y74.94 E921.023 F1080
	G1 X138.23 Y75.03 F9000
	G1 X122.34 Y90.92 E922.144 F1080
	G1 X122.88 Y90.95 F9000
	G1 X138.7 Y75.13 E923.261 F1080
	G1 X139.17 Y75.22 F9000
	G1 X123.41 Y90.98 E924.373 F1080
	G1 X123.94 Y91.02 F9000
	G1 X139.64 Y75.32 E925.481 F1080
	G1 X140.11 Y75.42 F9000
	G1 X124.47 Y91.05 E926.584 F1080
	G1 X125 Y91.09 F9000
	G1 X140.58 Y75.52 E927.683 F1080
	G1 X141.04 Y75.62 F9000
	G1 X125.52 Y91.14 E928.778 F1080
	G1 X126.04 Y91.19 F9000
	G1 X141.5 Y75.72 E929.869 F1080
	G1 X141.96 Y75.83 F9000
	G1 X126.55 Y91.24 E930.956 F1080
	G1 X127.05 Y91.3 F9000
	G1 X142.42 Y75.94 E932.041 F1080
	G1 X142.87 Y76.05 F9000
	G1 X127.55 Y91.37 E933.122 F1080
	G1 X128.04 Y91.45 F9000
	G1 X143.33 Y76.16 E934.2 F1080
	G1 X143.78 Y76.27 F9000
	G1 X128.53 Y91.53 E935.277 F1080
	G1 X129.01 Y91.61 F9000
	G1 X144.23 Y76.38 E936.351 F1080
	G1 X144.68 Y76.5 F9000
	G1 X129.49 Y91.69 E937.422 F1080
	G1 X129.96 Y91.79 F9000
	G1 X145.13 Y76.62 E938.493 F1080
	G1 X145.58 Y76.74 F9000
	G1 X130.43 Y91.88 E939.561 F1080
	G1 X130.9 Y91.98 F9000
	G1 X146.02 Y76.86 E940.628 F1080
	G1 X146.46 Y76.99 F9000
	G1 X131.35 Y92.09 E941.693 F1080
	G1 X131.81 Y92.2 F9000
	G1 X146.9 Y77.11 E942.758 F1080
	G1 X147.33 Y77.24 F9000
	G1 X132.27 Y92.3 E943.82 F1080
	G1 X132.73 Y92.41 F9000
	G1 X147.76 Y77.38 E944.881 F1080
	G1 X148.19 Y77.51 F9000
	G1 X133.19 Y92.52 E945.939 F1080
	G1 X133.65 Y92.63 F9000
	G1 X148.63 Y77.65 E946.996 F1080
	G1 X149.05 Y77.79 F9000
	G1 X134.11 Y92.73 E948.05 F1080
	G1 X134.57 Y92.83 F9000
	G1 X149.47 Y77.93 E949.102 F1080
	G1 X149.89 Y78.08 F9000
	G1 X135.04 Y92.93 E950.15 F1080
	G1 X135.51 Y93.03 F9000
	G1 X150.31 Y78.22 E951.194 F1080
	G1 X150.73 Y78.38 F9000
	G1 X135.96 Y93.14 E952.236 F1080
	G1 X136.42 Y93.25 F9000
	G1 X151.14 Y78.53 E953.274 F1080
	G1 X151.54 Y78.69 F9000
	G1 X136.86 Y93.37 E954.31 F1080
	G1 X137.31 Y93.49 F9000
	G1 X151.95 Y78.85 E955.344 F1080
	G1 X152.36 Y79.01 F9000
	G1 X137.74 Y93.62 E956.375 F1080
	G1 X138.17 Y93.76 F9000
	G1 X152.75 Y79.18 E957.404 F1080
	G1 X153.15 Y79.35 F9000
	G1 X138.58 Y93.91 E958.431 F1080
	G1 X139 Y94.06 F9000
	G1 X153.54 Y79.52 E959.457 F1080
	G1 X153.93 Y79.7 F9000
	G1 X139.41 Y94.22 E960.481 F1080
	G1 X139.81 Y94.38 F9000
	G1 X154.31 Y79.88 E961.504 F1080
	G1 X154.69 Y80.06 F9000
	G1 X140.2 Y94.56 E962.527 F1080
	G1 X140.59 Y94.74 F9000
	G1 X155.07 Y80.25 E963.549 F1080
	G1 X155.44 Y80.45 F9000
	G1 X140.98 Y94.91 E964.569 F1080
	G1 X141.35 Y95.1 F9000
	G1 X155.81 Y80.65 E965.589 F1080
	G1 X156.18 Y80.84 F9000
	G1 X141.72 Y95.3 E966.609 F1080
	G1 X142.09 Y95.49 F9000
	G1 X156.53 Y81.05 E967.628 F1080
	G1 X156.89 Y81.26 F9000
	G1 X142.46 Y95.7 E968.646 F1080
	G1 X142.81 Y95.91 F9000
	G1 X157.25 Y81.47 E969.665 F1080
	G1 X157.59 Y81.69 F9000
	G1 X143.17 Y96.12 E970.682 F1080
	G1 X143.52 Y96.33 F9000
	G1 X157.94 Y81.91 E971.7 F1080
	G1 X158.28 Y82.13 F9000
	G1 X143.86 Y96.56 E972.718 F1080
	G1 X144.19 Y96.79 F9000
	G1 X158.62 Y82.36 E973.736 F1080
	G1 X158.96 Y82.59 F9000
	G1 X144.52 Y97.03 E974.754 F1080
	G1 X144.85 Y97.26 F9000
	G1 X159.29 Y82.82 E975.773 F1080
	G1 X159.62 Y83.06 F9000
	G1 X145.05 Y97.63 E976.801 F1080
	G1 X144.78 Y98.46 F9000
	G1 X159.94 Y83.3 E977.87 F1080
	G1 X160.27 Y83.55 F9000
	G1 X132.94 Y110.87 E979.798 F1080
	G1 X133.5 Y110.87 F9000
	G1 X160.59 Y83.79 E981.709 F1080
	G1 X160.9 Y84.04 F9000
	G1 X134.07 Y110.87 E983.602 F1080
	G1 X134.64 Y110.87 F9000
	G1 X161.21 Y84.3 E985.477 F1080
	G1 X161.52 Y84.55 F9000
	G1 X135.2 Y110.87 E987.334 F1080
	G1 X135.77 Y110.87 F9000
	G1 X161.83 Y84.81 E989.172 F1080
	G1 X162.13 Y85.07 F9000
	G1 X136.34 Y110.87 E990.992 F1080
	G1 X136.9 Y110.87 F9000
	G1 X162.43 Y85.34 E992.793 F1080
	G1 X162.73 Y85.61 F9000
	G1 X137.47 Y110.86 E994.575 F1080
	G1 X138.04 Y110.86 F9000
	G1 X163.02 Y85.88 E996.338 F1080
	G1 X163.31 Y86.16 F9000
	G1 X138.6 Y110.86 E998.08 F1080
	G1 X139.17 Y110.86 F9000
	G1 X163.59 Y86.44 E999.803 F1080
	G1 X163.87 Y86.73 F9000
	G1 X139.74 Y110.86 E1001.506 F1080
	G1 X140.31 Y110.86 F9000
	G1 X164.14 Y87.02 E1003.188 F1080
	G1 X164.42 Y87.31 F9000
	G1 X140.87 Y110.86 E1004.849 F1080
	G1 X141.44 Y110.86 F9000
	G1 X164.68 Y87.61 E1006.489 F1080
	G1 X164.95 Y87.91 F9000
	G1 X142.01 Y110.86 E1008.108 F1080
	G1 X142.57 Y110.85 F9000
	G1 X165.21 Y88.22 E1009.705 F1080
	G1 X165.46 Y88.53 F9000
	G1 X143.14 Y110.85 E1011.28 F1080
	G1 X143.71 Y110.85 F9000
	G1 X165.72 Y88.84 E1012.833 F1080
	G1 X165.96 Y89.16 F9000
	G1 X144.27 Y110.85 E1014.363 F1080
	G1 X144.49 Y111.2 F9000
	G1 X166.2 Y89.49 E1015.895 F1080
	G1 X166.44 Y89.82 F9000
	G1 X144.7 Y111.56 E1017.429 F1080
	G1 X144.57 Y112.25 F9000
	G1 X166.67 Y90.16 E1018.988 F1080
	G1 X166.89 Y90.49 F9000
	G1 X132.9 Y124.48 E1021.386 F1080
	G1 X133.75 Y123.07 F9000
	G1 X144.06 Y112.76 E1022.114 F1080
	G1 X143.5 F9000
	G1 X134.59 Y121.66 E1022.742 F1080
	G1 X135.44 Y120.25 F9000
	G1 X142.93 Y112.76 E1023.27 F1080
	G1 X142.36 F9000
	G1 X136.28 Y118.84 E1023.7 F1080
	G1 X137.13 Y117.43 F9000
	G1 X141.8 Y112.76 E1024.029 F1080
	G1 X141.23 F9000
	G1 X137.97 Y116.02 E1024.259 F1080
	G1 X138.22 Y115.21 F9000
	G1 X140.67 Y112.76 E1024.432 F1080
	G1 X140.1 F9000
	G1 X138.02 Y114.85 E1024.579 F1080
	G1 X137.81 Y114.48 F9000
	G1 X139.54 Y112.76 E1024.701 F1080
	G1 X138.97 F9000
	G1 X137.27 Y114.46 E1024.82 F1080
	G1 X136.71 F9000
	G1 X138.4 Y112.76 E1024.94 F1080
	G1 X137.84 F9000
	G1 X136.14 Y114.46 E1025.06 F1080
	G1 X135.57 F9000
	G1 X137.27 Y112.76 E1025.18 F1080
	G1 X136.71 F9000
	G1 X135.01 Y114.46 E1025.299 F1080
	G1 X134.44 F9000
	G1 X136.14 Y112.76 E1025.419 F1080
	G1 X135.58 F9000
	G1 X133.88 Y114.46 E1025.539 F1080
	G1 X133.31 F9000
	G1 X135.01 Y112.76 E1025.659 F1080
	G1 X134.44 F9000
	G1 X132.75 Y114.46 E1025.778 F1080
	G1 X132.18 F9000
	G1 X133.88 Y112.76 E1025.898 F1080
	G1 X133.31 F9000
	G1 X131.62 Y114.46 E1026.018 F1080
	G1 X131.05 F9000
	G1 X132.75 Y112.76 E1026.138 F1080
	G1 X132.18 F9000
	G1 X130.48 Y114.46 E1026.257 F1080
	G1 X129.92 F9000
	G1 X131.62 Y112.76 E1026.377 F1080
	G1 X131.05 F9000
	G1 X129.35 Y114.46 E1026.497 F1080
	G1 X128.79 F9000
	G1 X130.48 Y112.76 E1026.617 F1080
	G1 X129.92 F9000
	G1 X128.22 Y114.46 E1026.736 F1080
	G1 X127.66 F9000
	G1 X129.35 Y112.76 E1026.856 F1080
	G1 X129.02 Y112.53 F9000
	G1 X127.51 Y114.04 E1026.963 F1080
	G1 Y113.47 F9000
	G1 X129.02 Y111.96 E1027.069 F1080
	G1 X129.02 Y111.4 F9000
	G1 X127.51 Y112.91 E1027.176 F1080
	G1 Y112.34 F9000
	G1 X141.1 Y98.75 E1028.135 F1080
	G1 X140.53 F9000
	G1 X127.51 Y111.78 E1029.053 F1080
	G1 Y111.21 F9000
	G1 X139.97 Y98.75 E1029.932 F1080
	G1 X139.4 F9000
	G1 X127.51 Y110.64 E1030.771 F1080
	G1 Y110.08 F9000
	G1 X138.84 Y98.75 E1031.571 F1080
	G1 X138.27 F9000
	G1 X127.51 Y109.51 E1032.33 F1080
	G1 Y108.95 F9000
	G1 X137.7 Y98.75 E1033.049 F1080
	G1 X137.14 F9000
	G1 X127.51 Y108.38 E1033.729 F1080
	G1 Y107.82 F9000
	G1 X136.57 Y98.75 E1034.368 F1080
	G1 X136.01 Y98.75 F9000
	G1 X127.51 Y107.25 E1034.968 F1080
	G1 Y106.68 F9000
	G1 X135.44 Y98.75 E1035.527 F1080
	G1 X134.88 F9000
	G1 X127.51 Y106.12 E1036.047 F1080
	G1 Y105.55 F9000
	G1 X134.31 Y98.75 E1036.527 F1080
	G1 X133.74 F9000
	G1 X127.51 Y104.99 E1036.967 F1080
	G1 Y104.42 F9000
	G1 X133.18 Y98.75 E1037.367 F1080
	G1 X132.61 F9000
	G1 X127.51 Y103.86 E1037.727 F1080
	G1 Y103.29 F9000
	G1 X132.05 Y98.75 E1038.047 F1080
	G1 X131.48 F9000
	G1 X127.51 Y102.72 E1038.327 F1080
	G1 Y102.16 F9000
	G1 X130.92 Y98.75 E1038.568 F1080
	G1 X130.35 F9000
	G1 X127.51 Y101.59 E1038.768 F1080
	G1 Y101.03 F9000
	G1 X129.78 Y98.75 E1038.929 F1080
	G1 X129.22 F9000
	G1 X127.51 Y100.46 E1039.049 F1080
	G1 Y99.9 F9000
	G1 X128.65 Y98.75 E1039.13 F1080
	G1 X128.09 F9000
	G1 X127.51 Y99.33 E1039.171 F1080
	G1 Y98.77 F9000
	G1 X127.52 Y98.75 E1039.172 F1080
	G1 X129.54 Y110.88 F9000
	G1 X141.66 Y98.75 E1040.027 F1080
	G1 X142.23 F9000
	G1 X130.1 Y110.88 E1040.883 F1080
	G1 X130.67 Y110.88 F9000
	G1 X142.8 Y98.75 E1041.739 F1080
	G1 X143.36 F9000
	G1 X131.24 Y110.88 E1042.594 F1080
	G1 X131.8 Y110.88 F9000
	G1 X143.93 Y98.75 E1043.45 F1080
	G1 X144.49 F9000
	G1 X132.37 Y110.88 E1044.305 F1080
	G1 E1041.305 F1800
	G1 Z0.8
	G1 X130.86 Y114.5 F9000
	G1 X136.61
	G1 X138 Y115.4
	G1 X132.62 Y124.09
	G1 X130.47 Y126.94
	G1 X122.46 Y140.59
	G1 Z0.3
	G1 E1044.305 F1800
	G1 X168.87 Y94.18 E1047.58 F1080
	G1 X168.69 Y93.78 F9000
	G1 X121.89 Y140.59 E1050.882 F1080
	G1 X121.33 F9000
	G1 X168.52 Y93.4 E1054.211 F1080
	G1 X168.33 Y93.02 F9000
	G1 X120.76 Y140.59 E1057.568 F1080
	G1 X120.19 F9000
	G1 X168.14 Y92.65 E1060.95 F1080
	G1 X167.94 Y92.28 F9000
	G1 X119.63 Y140.59 E1064.358 F1080
	G1 X119.06 F9000
	G1 X167.74 Y91.91 E1067.793 F1080
	G1 X167.54 Y91.55 F9000
	G1 X118.5 Y140.59 E1071.253 F1080
	G1 X117.93 F9000
	G1 X167.33 Y91.19 E1074.738 F1080
	G1 X167.11 Y90.84 F9000
	G1 X117.37 Y140.59 E1078.248 F1080
	G1 Y140.44 F9000
	G1 X122.84 Y140.77
	G1 X169.03 Y94.58 E1081.506 F1080
	G1 X169.18 Y95 F9000
	G1 X123.05 Y141.13 E1084.761 F1080
	G1 X123.26 Y141.49 F9000
	G1 X169.32 Y95.42 E1088.011 F1080
	G1 X169.44 Y95.86 F9000
	G1 X122.58 Y142.72 E1091.317 F1080
	G1 X121.78 Y144.09 F9000
	G1 X169.54 Y96.33 E1094.687 F1080
	G1 X169.63 Y96.81 F9000
	G1 X120.98 Y145.46 E1098.12 F1080
	G1 X120.17 Y146.83 F9000
	G1 X169.71 Y97.29 E1101.615 F1080
	G1 X169.72 Y97.85 F9000
	G1 X119.37 Y148.2 E1105.167 F1080
	G1 X118.57 Y149.57 F9000
	G1 X169.71 Y98.43 E1108.776 F1080
	G1 X169.95 Y98.75 F9000
	G1 X117.77 Y150.93 E1112.457 F1080
	G1 X116.96 Y152.3 F9000
	G1 X170.51 Y98.75 E1116.236 F1080
	G1 X171.08 F9000
	G1 X116.16 Y153.67 E1120.111 F1080
	G1 X115.36 Y155.04 F9000
	G1 X171.65 Y98.75 E1124.082 F1080
	G1 X172.21 F9000
	G1 X114.55 Y156.41 E1128.15 F1080
	G1 X112.31 Y154.26 F9000
	G1 X108.08 Y147.04
	G1 X91.76 Y163.37 E1129.302 F1080
	G1 X91.55 Y163.01 F9000
	G1 X107.87 Y146.69 E1130.454 F1080
	G1 X107.66 Y146.33 F9000
	G1 X91.34 Y162.65 E1131.605 F1080
	G1 X91.13 Y162.29 F9000
	G1 X107.46 Y145.97 E1132.757 F1080
	G1 X107.25 Y145.61 F9000
	G1 X90.93 Y161.94 E1133.909 F1080
	G1 X90.72 Y161.58 F9000
	G1 X107.04 Y145.25 E1135.061 F1080
	G1 X106.84 Y144.89 F9000
	G1 X90.51 Y161.22 E1136.212 F1080
	G1 X90.3 Y160.86 F9000
	G1 X106.63 Y144.53 E1137.364 F1080
	G1 X106.42 Y144.18 F9000
	G1 X90.1 Y160.5 E1138.516 F1080
	G1 X89.89 Y160.15 F9000
	G1 X106.22 Y143.82 E1139.668 F1080
	G1 X106.01 Y143.46 F9000
	G1 X89.68 Y159.79 E1140.82 F1080
	G1 X89.47 Y159.43 F9000
	G1 X105.8 Y143.1 E1141.972 F1080
	G1 X105.59 Y142.74 F9000
	G1 X89.25 Y159.09 E1143.126 F1080
	G1 X88.48 Y159.29 F9000
	G1 X105.39 Y142.38 E1144.319 F1080
	G1 E1141.319 F1800
	G1 Z0.8
	G1 X95.88 Y124.57 F9000
	G1 X93.55 Y121.94
	G1 X90.66 Y116.54
	G1 X90.52 Y114.95
	G1 X92.77 Y114.46
	G1 X99.94 Y114.46
	G1 Z0.3
	G1 E1144.319 F1800
	G1 X100.49 Y113.91 E1144.358 F1080
	G1 Y113.34 F9000
	G1 X99.37 Y114.46 E1144.437 F1080
	G1 X98.81 F9000
	G1 X100.49 Y112.77 E1144.555 F1080
	G1 Y112.21 F9000
	G1 X98.24 Y114.46 E1144.714 F1080
	G1 X97.67 F9000
	G1 X100.49 Y111.64 E1144.913 F1080
	G1 Y111.08 F9000
	G1 X98.98 Y112.59 E1145.019 F1080
	G1 X98.81 Y112.76 F9000
	G1 X97.11 Y114.46 E1145.139 F1080
	G1 X96.54 F9000
	G1 X98.24 Y112.76 E1145.259 F1080
	G1 X97.68 F9000
	G1 X95.98 Y114.46 E1145.379 F1080
	G1 X95.41 F9000
	G1 X97.11 Y112.76 E1145.499 F1080
	G1 X96.55 F9000
	G1 X94.85 Y114.46 E1145.619 F1080
	G1 X94.28 F9000
	G1 X95.98 Y112.76 E1145.738 F1080
	G1 X95.41 F9000
	G1 X93.71 Y114.46 E1145.858 F1080
	G1 X93.15 F9000
	G1 X94.85 Y112.76 E1145.978 F1080
	G1 X94.28 F9000
	G1 X92.58 Y114.46 E1146.098 F1080
	G1 X92.02 F9000
	G1 X93.72 Y112.76 E1146.218 F1080
	G1 X93.15 F9000
	G1 X91.45 Y114.46 E1146.338 F1080
	G1 X90.89 F9000
	G1 X92.59 Y112.76 E1146.458 F1080
	G1 X92.02 F9000
	G1 X90.32 Y114.46 E1146.578 F1080
	G1 X89.76 F9000
	G1 X91.45 Y112.76 E1146.697 F1080
	G1 X91.68 Y110.84 F9000
	G1 X100.49 Y102.03 E1147.319 F1080
	G1 Y102.59 F9000
	G1 X92.25 Y110.84 E1147.9 F1080
	G1 X92.81 F9000
	G1 X100.49 Y103.16 E1148.442 F1080
	G1 Y103.72 F9000
	G1 X93.38 Y110.84 E1148.944 F1080
	G1 X93.94 F9000
	G1 X100.49 Y104.29 E1149.406 F1080
	G1 Y104.86 F9000
	G1 X94.51 Y110.84 E1149.828 F1080
	G1 X95.07 F9000
	G1 X100.49 Y105.42 E1150.21 F1080
	G1 Y105.99 F9000
	G1 X95.64 Y110.84 E1150.552 F1080
	G1 X96.21 F9000
	G1 X100.49 Y106.55 E1150.854 F1080
	G1 X100.49 Y107.12 F9000
	G1 X96.77 Y110.84 E1151.116 F1080
	G1 X97.34 F9000
	G1 X100.49 Y107.68 E1151.339 F1080
	G1 Y108.25 F9000
	G1 X97.9 Y110.84 E1151.521 F1080
	G1 X98.47 F9000
	G1 X100.49 Y108.81 E1151.664 F1080
	G1 Y109.38 F9000
	G1 X98.98 Y110.89 E1151.77 F1080
	G1 Y111.46 F9000
	G1 X100.49 Y109.95 E1151.877 F1080
	G1 Y110.51 F9000
	G1 X98.98 Y112.02 E1151.984 F1080
	G1 X91.11 Y110.84 F9000
	G1 X100.49 Y101.46 E1152.645 F1080
	G1 Y100.9 F9000
	G1 X90.55 Y110.84 E1153.346 F1080
	G1 X89.98 F9000
	G1 X100.49 Y100.33 E1154.088 F1080
	G1 Y99.76 F9000
	G1 X89.42 Y110.84 E1154.869 F1080
	G1 X88.85 F9000
	G1 X100.49 Y99.2 E1155.69 F1080
	G1 X100.37 Y98.75 F9000
	G1 X88.29 Y110.84 E1156.543 F1080
	G1 X87.72 F9000
	G1 X99.8 Y98.75 E1157.395 F1080
	G1 X99.24 F9000
	G1 X87.15 Y110.84 E1158.248 F1080
	G1 X86.59 F9000
	G1 X98.67 Y98.75 E1159.101 F1080
	G1 X98.11 F9000
	G1 X86.02 Y110.84 E1159.953 F1080
	G1 X85.46 F9000
	G1 X97.54 Y98.75 E1160.806 F1080
	G1 X96.98 Y98.75 F9000
	G1 X84.89 Y110.84 E1161.659 F1080
	G1 X84.33 F9000
	G1 X96.41 Y98.75 E1162.512 F1080
	G1 E1159.512 F1800
	G1 Z0.8
	G1 X84.63 Y98.6 F9000
	G1 X83.71 Y98.1
	G1 X92.28 Y74.6
	G1 Z0.3
	G1 E1162.512 F1800
	G1 X52.42 Y114.46 E1165.324 F1080
	G1 X51.85 F9000
	G1 X91.61 Y74.7 E1168.129 F1080
	G1 X90.92 Y74.82 F9000
	G1 X51.29 Y114.46 E1170.925 F1080
	G1 X50.72 F9000
	G1 X90.23 Y74.95 E1173.713 F1080
	G1 X89.54 Y75.08 F9000
	G1 X50.16 Y114.46 E1176.491 F1080
	G1 X50.05 Y113.99 F9000
	G1 X88.83 Y75.22 E1179.227 F1080
	G1 X88.11 Y75.38 F9000
	G1 X50.05 Y113.43 E1181.912 F1080
	G1 Y112.86 F9000
	G1 X87.38 Y75.53 E1184.546 F1080
	G1 X86.66 Y75.69 F9000
	G1 X50.05 Y112.3 E1187.128 F1080
	G1 Y111.73 F9000
	G1 X85.94 Y75.85 E1189.66 F1080
	G1 X85.19 Y76.03 F9000
	G1 X50.05 Y111.17 E1192.139 F1080
	G1 Y110.6 F9000
	G1 X84.44 Y76.21 E1194.566 F1080
	G1 X83.68 Y76.41 F9000
	G1 X50.05 Y110.04 E1196.938 F1080
	G1 Y109.47 F9000
	G1 X82.92 Y76.61 E1199.257 F1080
	G1 X82.14 Y76.82 F9000
	G1 X50.05 Y108.9 E1201.521 F1080
	G1 Y108.34 F9000
	G1 X81.35 Y77.04 E1203.729 F1080
	G1 X80.55 Y77.28 F9000
	G1 X50.05 Y107.77 E1205.88 F1080
	G1 Y107.21 F9000
	G1 X79.72 Y77.54 E1207.974 F1080
	G1 X78.89 Y77.81 F9000
	G1 X58.29 Y98.41 E1209.427 F1080
	G1 X57.94 Y98.75 F9000
	G1 X50.05 Y106.64 E1209.984 F1080
	G1 Y106.08 F9000
	G1 X57.38 Y98.75 E1210.5 F1080
	G1 X56.81 F9000
	G1 X50.05 Y105.51 E1210.977 F1080
	G1 Y104.94 F9000
	G1 X56.25 Y98.75 E1211.414 F1080
	G1 X55.68 F9000
	G1 X50.05 Y104.38 E1211.811 F1080
	G1 Y103.81 F9000
	G1 X55.11 Y98.75 E1212.168 F1080
	G1 X54.55 F9000
	G1 X50.05 Y103.25 E1212.485 F1080
	G1 Y102.68 F9000
	G1 X53.98 Y98.75 E1212.763 F1080
	G1 X53.42 F9000
	G1 X50.05 Y102.12 E1213 F1080
	G1 Y101.55 F9000
	G1 X52.85 Y98.75 E1213.198 F1080
	G1 X52.29 F9000
	G1 X50.05 Y100.98 E1213.355 F1080
	G1 Y100.42 F9000
	G1 X51.72 Y98.75 E1213.473 F1080
	G1 X51.16 F9000
	G1 X50.05 Y99.85 E1213.551 F1080
	G1 Y99.29 F9000
	G1 X50.59 Y98.75 E1213.588 F1080
	G1 X57 Y98.6 F9000
	G1 X58.28 Y97.85
	G1 X78.02 Y78.11 E1214.981 F1080
	G1 X77.14 Y78.43 F9000
	G1 X58.28 Y97.28 E1216.311 F1080
	G1 X58.41 Y96.59 F9000
	G1 X76.22 Y78.78 E1217.568 F1080
	G1 X75.26 Y79.18 F9000
	G1 X58.55 Y95.88 E1218.746 F1080
	G1 X58.79 Y95.07 F9000
	G1 X74.26 Y79.61 E1219.837 F1080
	G1 X73.17 Y80.13 F9000
	G1 X59.13 Y94.17 E1220.828 F1080
	G1 X59.62 Y93.12 F9000
	G1 X71.97 Y80.76 E1221.699 F1080
	G1 X70.61 Y81.56 F9000
	G1 X60.25 Y91.91 E1222.43 F1080
	G1 X61.09 Y90.51 F9000
	G1 X68.94 Y82.67 E1222.984 F1080
	G1 X66.55 Y84.48 F9000
	G1 X62.65 Y88.39 E1223.259 F1080
	G1 E1220.259 F1800
	G1 Z0.8
	G1 X57.51 Y114.46 F9000
	G1 Z0.3
	G1 E1223.259 F1800
	G1 X98.25 Y73.72 E1226.133 F1080
	G1 X98.87 Y73.67 F9000
	G1 X57.67 Y114.87 E1229.04 F1080
	G1 Y115.43 F9000
	G1 X99.47 Y73.63 E1231.99 F1080
	G1 X100.08 Y73.59 F9000
	G1 X57.67 Y116 E1234.982 F1080
	G1 Y116.57 F9000
	G1 X100.68 Y73.55 E1238.017 F1080
	G1 X101.28 Y73.52 F9000
	G1 X57.67 Y117.13 E1241.094 F1080
	G1 Y117.7 F9000
	G1 X101.87 Y73.5 E1244.213 F1080
	G1 X102.45 Y73.48 F9000
	G1 X57.67 Y118.26 E1247.373 F1080
	G1 Y118.83 F9000
	G1 X103.04 Y73.46 E1250.574 F1080
	G1 X103.63 Y73.43 F9000
	G1 X57.67 Y119.39 E1253.817 F1080
	G1 Y119.96 F9000
	G1 X104.22 Y73.41 E1257.101 F1080
	G1 X104.81 Y73.38 F9000
	G1 X57.67 Y120.53 E1260.428 F1080
	G1 Y121.09 F9000
	G1 X105.4 Y73.36 E1263.796 F1080
	G1 X105.99 Y73.33 F9000
	G1 X57.67 Y121.66 E1267.205 F1080
	G1 Y115.66 F9000
	G1 X56.95 Y114.46
	G1 X97.61 Y73.79 E1270.075 F1080
	G1 X96.97 Y73.86 F9000
	G1 X56.38 Y114.46 E1272.939 F1080
	G1 X55.81 F9000
	G1 X96.33 Y73.94 E1275.798 F1080
	G1 X95.67 Y74.04 F9000
	G1 X55.25 Y114.46 E1278.65 F1080
	G1 X54.68 F9000
	G1 X95 Y74.14 E1281.494 F1080
	G1 X94.33 Y74.24 F9000
	G1 X54.12 Y114.46 E1284.332 F1080
	G1 X53.55 F9000
	G1 X93.64 Y74.37 E1287.161 F1080
	G1 X92.95 Y74.49 F9000
	G1 X52.99 Y114.46 E1289.98 F1080
	G1 E1286.98 F1800
	G1 Z0.8
	G1 X56.1 Y114.34 F9000
	G1 X57.18 Y114.95
	G1 X57.63 Y117.82
	G1 Y149.34
	G1 X56.07 Y150.7
	G1 X52.77 Y150.88
	G1 Z0.3
	G1 E1289.98 F1800
	G1 X49.56 Y154.09 E1290.206 F1080
	G1 Y154.65 F9000
	G1 X53.33 Y150.88 E1290.472 F1080
	G1 X53.9 F9000
	G1 X49.56 Y155.22 E1290.779 F1080
	G1 Y155.78 F9000
	G1 X54.46 Y150.88 E1291.124 F1080
	G1 X55.03 F9000
	G1 X49.56 Y156.35 E1291.51 F1080
	G1 Y156.92 F9000
	G1 X55.59 Y150.88 E1291.936 F1080
	G1 X56.16 F9000
	G1 X49.56 Y157.48 E1292.402 F1080
	G1 Y158.05 F9000
	G1 X56.73 Y150.88 E1292.907 F1080
	G1 X52.2 F9000
	G1 X49.56 Y153.52 E1293.094 F1080
	G1 Y152.96 F9000
	G1 X51.63 Y150.88 E1293.24 F1080
	G1 X51.07 F9000
	G1 X49.56 Y152.39 E1293.346 F1080
	G1 Y151.82 F9000
	G1 X50.5 Y150.88 E1293.413 F1080
	G1 X49.94 F9000
	G1 X49.56 Y151.26 E1293.44 F1080
; Layer Change GCode
; LAYER:1
; LAYER_HEIGHT:0.3
; TYPE:FILL
	G1 Z0.6 F9000
	G1 X57.33 Y150.54
	; TYPE:WALL-INNER
	G1 Y146.07 E1293.663 F3600
	G1 Y141.61 E1293.886
	G1 Y137.14 E1294.109
	G1 Y132.67 E1294.332
	G1 Y128.2 E1294.554
	G1 Y123.74 E1294.777
	G1 Y119.27 E1295
	G1 Y114.8 E1295.223
	G1 X53.52 E1295.413
	G1 X49.71 E1295.603
	G1 Y110.7 E1295.807
	G1 Y106.61 E1296.012
	G1 Y102.51 E1296.216
	G1 Y98.41 E1296.42
	G1 X53.83 E1296.626
	G1 X57.95 E1296.831
	G1 X57.93 Y97.43 E1296.88
	G1 X57.96 Y97.1 E1296.896
	G1 X58.21 Y95.85 E1296.96
	G1 X58.37 Y95.28 E1296.989
	G1 X58.58 Y94.65 E1297.023
	G1 X58.81 Y94.06 E1297.054
	G1 X59.09 Y93.42 E1297.089
	G1 X59.39 Y92.82 E1297.123
	G1 X60.11 Y91.47 E1297.199
	G1 X60.66 Y90.55 E1297.252
	G1 X61.27 Y89.64 E1297.307
	G1 X61.9 Y88.78 E1297.36
	G1 X62.59 Y87.93 E1297.415
	G1 X63.26 Y87.15 E1297.466
	G1 X63.98 Y86.39 E1297.518
	G1 X64.68 Y85.7 E1297.567
	G1 X65.36 Y85.07 E1297.613
	G1 X66.29 Y84.26 E1297.675
	G1 X67.25 Y83.49 E1297.737
	G1 X68.27 Y82.72 E1297.8
	G1 X69.33 Y81.98 E1297.865
	G1 X70.46 Y81.25 E1297.932
	G1 X71.61 Y80.58 E1297.998
	G1 X72.78 Y79.95 E1298.065
	G1 X74.07 Y79.32 E1298.136
	G1 X75.65 Y78.64 E1298.222
	G1 X77.25 Y78.02 E1298.308
	G1 X78.96 Y77.42 E1298.398
	G1 X80.65 Y76.89 E1298.487
	G1 X82.39 Y76.39 E1298.577
	G1 X84.11 Y75.94 E1298.665
	G1 X85.85 Y75.52 E1298.755
	G1 X87.55 Y75.14 E1298.842
	G1 X88.92 Y74.85 E1298.911
	G1 X90.23 Y74.6 E1298.978
	G1 X91.51 Y74.38 E1299.043
	G1 X92.76 Y74.18 E1299.106
	G1 X94.18 Y73.92 E1299.178
	G1 X96.12 Y73.62 E1299.276
	G1 X97.9 Y73.41 E1299.365
	G1 X99.05 Y73.31 E1299.423
	G1 X101.2 Y73.18 E1299.53
	G1 X103.15 Y73.11 E1299.628
	G1 X107.19 Y72.94 E1299.83
	G1 X111.23 Y72.77 E1300.031
	G1 X113.96 Y72.69 E1300.168
	G1 X115.72 Y72.73 E1300.256
	G1 X119.4 Y72.88 E1300.439
	G1 X123.07 Y73.03 E1300.623
	G1 X126.75 Y73.18 E1300.806
	G1 X128.85 Y73.3 E1300.911
	G1 X130 Y73.4 E1300.969
	G1 X131.17 Y73.53 E1301.027
	G1 X133.08 Y73.8 E1301.124
	G1 X135.15 Y74.17 E1301.229
	G1 X136.38 Y74.36 E1301.291
	G1 X137.65 Y74.58 E1301.355
	G1 X138.96 Y74.83 E1301.421
	G1 X140.3 Y75.11 E1301.49
	G1 X142.01 Y75.49 E1301.577
	G1 X143.73 Y75.9 E1301.665
	G1 X145.47 Y76.36 E1301.755
	G1 X147.18 Y76.84 E1301.844
	G1 X148.91 Y77.38 E1301.934
	G1 X150.59 Y77.96 E1302.023
	G1 X152.32 Y78.62 E1302.115
	G1 X153.88 Y79.3 E1302.2
	G1 X155.12 Y79.89 E1302.269
	G1 X156.29 Y80.52 E1302.335
	G1 X157.44 Y81.19 E1302.401
	G1 X158.57 Y81.91 E1302.468
	G1 X159.62 Y82.64 E1302.532
	G1 X160.66 Y83.42 E1302.597
	G1 X161.63 Y84.19 E1302.659
	G1 X162.56 Y84.99 E1302.72
	G1 X163.26 Y85.64 E1302.768
	G1 X163.98 Y86.34 E1302.818
	G1 X164.66 Y87.07 E1302.867
	G1 X165.37 Y87.87 E1302.921
	G1 X166.04 Y88.7 E1302.974
	G1 X166.67 Y89.55 E1303.027
	G1 X167.29 Y90.47 E1303.082
	G1 X167.85 Y91.4 E1303.136
	G1 X168.58 Y92.76 E1303.213
	G1 X168.89 Y93.39 E1303.248
	G1 X169.16 Y93.99 E1303.281
	G1 X169.41 Y94.62 E1303.315
	G1 X169.61 Y95.22 E1303.346
	G1 X169.78 Y95.82 E1303.377
	G1 X169.91 Y96.42 E1303.408
	G1 X170.03 Y97.08 E1303.442
	G1 X170.07 Y97.4 E1303.458
	G1 X170.05 Y98.41 E1303.508
	G1 X174.17 E1303.714
	G1 X178.29 E1303.919
	G1 Y102.51 E1304.123
	G1 Y106.61 E1304.328
	G1 Y110.7 E1304.532
	G1 Y114.8 E1304.736
	G1 X174.48 E1304.926
	G1 X170.67 E1305.116
	G1 Y119.27 E1305.339
	G1 Y123.74 E1305.562
	G1 Y128.2 E1305.785
	G1 Y132.67 E1306.008
	G1 Y137.14 E1306.23
	G1 Y141.61 E1306.453
	G1 Y146.07 E1306.676
	G1 Y150.54 E1306.899
	G1 X174.73 E1307.102
	G1 X178.78 E1307.304
	G1 Y154.65 E1307.509
	G1 Y158.77 E1307.714
	G1 Y162.88 E1307.919
	G1 Y166.99 E1308.124
	G1 X173.91 E1308.367
	G1 X169.03 E1308.61
	G1 X164.16 E1308.853
	G1 X159.29 E1309.097
	G1 X154.41 E1309.34
	G1 X149.54 E1309.583
	G1 X144.66 E1309.826
	G1 X139.79 E1310.069
	G1 X139.79 Y163.35 E1310.251
	G1 X139.78 Y159.71 E1310.432
	G1 X138.89 Y159.48 E1310.478
	G1 X136.78 Y163.12 E1310.688
	G1 X134.67 Y166.76 E1310.898
	G1 X132.56 Y170.4 E1311.108
	G1 X130.44 Y174.03 E1311.317
	G1 X128.33 Y177.67 E1311.527
	G1 X126.22 Y181.31 E1311.737
	G1 X121.33 E1311.981
	G1 X116.44 E1312.225
	G1 X111.56 E1312.469
	G1 X106.67 E1312.713
	G1 X101.78 E1312.957
	G1 X99.67 Y177.67 E1313.167
	G1 X97.56 Y174.03 E1313.377
	G1 X95.45 Y170.4 E1313.587
	G1 X93.33 Y166.76 E1313.796
	G1 X91.22 Y163.12 E1314.006
	G1 X89.11 Y159.48 E1314.216
	G1 X88.22 Y159.71 E1314.262
	G1 X88.22 Y163.35 E1314.444
	G1 X88.21 Y166.99 E1314.625
	G1 X83.34 E1314.868
	G1 X78.46 E1315.111
	G1 X73.59 E1315.354
	G1 X68.72 E1315.598
	G1 X63.84 E1315.841
	G1 X58.97 E1316.084
	G1 X54.09 E1316.327
	G1 X49.22 E1316.57
	G1 Y162.88 E1316.775
	G1 Y158.77 E1316.98
	G1 Y154.65 E1317.185
	G1 Y150.54 E1317.39
	G1 X53.26 E1317.592
	G1 X57.29 E1317.793
	G1 X57.33
	G1 X56.93 Y150.14 F9000
	; TYPE:WALL-OUTER
	G1 Y145.15 E1318.042 F600
	G1 Y140.16 E1318.291
	G1 Y135.17 E1318.54
	G1 Y130.17 E1318.789
	G1 Y125.18 E1319.038
	G1 Y120.19 E1319.287
	G1 Y115.2 E1319.536
	G1 X53.12 E1319.726
	G1 X49.31 E1319.916
	G1 Y110.9 E1320.13
	G1 Y106.61 E1320.345
	G1 Y102.31 E1320.559
	G1 Y98.01 E1320.773
	G1 X53.43 E1320.979
	G1 X57.54 E1321.184
	G1 X57.53 Y97.42 E1321.213
	G1 X57.56 Y97.05 E1321.231
	G1 X57.82 Y95.77 E1321.297
	G1 X57.99 Y95.15 E1321.329
	G1 X58.2 Y94.52 E1321.362
	G1 X58.44 Y93.9 E1321.395
	G1 X58.72 Y93.27 E1321.43
	G1 X59.04 Y92.62 E1321.466
	G1 X59.75 Y91.29 E1321.541
	G1 X60.33 Y90.33 E1321.597
	G1 X60.94 Y89.42 E1321.652
	G1 X61.6 Y88.52 E1321.707
	G1 X62.27 Y87.68 E1321.761
	G1 X62.97 Y86.88 E1321.814
	G1 X63.68 Y86.12 E1321.866
	G1 X64.39 Y85.42 E1321.915
	G1 X65.1 Y84.76 E1321.964
	G1 X66.02 Y83.96 E1322.025
	G1 X67.01 Y83.17 E1322.088
	G1 X68.04 Y82.39 E1322.152
	G1 X69.12 Y81.64 E1322.218
	G1 X70.24 Y80.92 E1322.284
	G1 X71.4 Y80.23 E1322.351
	G1 X72.61 Y79.58 E1322.42
	G1 X73.9 Y78.96 E1322.492
	G1 X75.49 Y78.27 E1322.578
	G1 X77.13 Y77.64 E1322.666
	G1 X78.82 Y77.05 E1322.755
	G1 X80.55 Y76.51 E1322.845
	G1 X82.28 Y76.01 E1322.935
	G1 X84.01 Y75.55 E1323.025
	G1 X85.75 Y75.14 E1323.114
	G1 X87.47 Y74.75 E1323.202
	G1 X88.84 Y74.46 E1323.272
	G1 X90.16 Y74.21 E1323.339
	G1 X91.45 Y73.98 E1323.404
	G1 X92.7 Y73.79 E1323.467
	G1 X94.11 Y73.53 E1323.539
	G1 X96.07 Y73.23 E1323.638
	G1 X97.87 Y73.02 E1323.728
	G1 X99.01 Y72.91 E1323.785
	G1 X101.19 Y72.78 E1323.894
	G1 X103.14 Y72.71 E1323.991
	G1 X107.18 Y72.54 E1324.193
	G1 X111.22 Y72.37 E1324.395
	G1 X113.96 Y72.29 E1324.532
	G1 X115.73 Y72.33 E1324.62
	G1 X119.41 Y72.48 E1324.804
	G1 X123.08 Y72.63 E1324.987
	G1 X126.76 Y72.78 E1325.171
	G1 X128.89 Y72.91 E1325.277
	G1 X130.03 Y73.01 E1325.334
	G1 X131.23 Y73.14 E1325.394
	G1 X133.15 Y73.41 E1325.491
	G1 X135.22 Y73.77 E1325.596
	G1 X136.44 Y73.96 E1325.658
	G1 X137.72 Y74.19 E1325.723
	G1 X139.04 Y74.44 E1325.789
	G1 X140.39 Y74.72 E1325.859
	G1 X142.1 Y75.1 E1325.946
	G1 X143.83 Y75.51 E1326.035
	G1 X145.57 Y75.97 E1326.124
	G1 X147.3 Y76.46 E1326.214
	G1 X149.03 Y77 E1326.304
	G1 X150.72 Y77.58 E1326.394
	G1 X152.47 Y78.26 E1326.487
	G1 X154.06 Y78.94 E1326.574
	G1 X155.29 Y79.53 E1326.642
	G1 X156.49 Y80.17 E1326.709
	G1 X157.66 Y80.85 E1326.777
	G1 X158.79 Y81.58 E1326.844
	G1 X159.86 Y82.32 E1326.909
	G1 X160.9 Y83.09 E1326.974
	G1 X161.89 Y83.89 E1327.037
	G1 X162.83 Y84.7 E1327.099
	G1 X163.54 Y85.35 E1327.147
	G1 X164.26 Y86.06 E1327.197
	G1 X164.96 Y86.8 E1327.248
	G1 X165.66 Y87.6 E1327.301
	G1 X166.34 Y88.44 E1327.355
	G1 X167 Y89.33 E1327.41
	G1 X167.63 Y90.26 E1327.466
	G1 X168.2 Y91.21 E1327.522
	G1 X168.93 Y92.56 E1327.598
	G1 X169.25 Y93.21 E1327.634
	G1 X169.53 Y93.84 E1327.669
	G1 X169.78 Y94.47 E1327.703
	G1 X169.99 Y95.09 E1327.736
	G1 X170.17 Y95.71 E1327.768
	G1 X170.31 Y96.35 E1327.8
	G1 X170.43 Y97.03 E1327.835
	G1 X170.47 Y97.38 E1327.852
	G1 X170.46 Y98.01 E1327.884
	G1 X174.58 E1328.089
	G1 X178.69 E1328.294
	G1 Y102.31 E1328.509
	G1 Y106.61 E1328.723
	G1 Y110.9 E1328.938
	G1 Y115.2 E1329.152
	G1 X174.88 E1329.342
	G1 X171.07 E1329.531
	G1 Y120.19 E1329.78
	G1 Y125.18 E1330.029
	G1 Y130.17 E1330.278
	G1 Y135.17 E1330.528
	G1 Y140.16 E1330.777
	G1 Y145.15 E1331.026
	G1 Y150.14 E1331.275
	G1 X175.13 E1331.477
	G1 X179.18 E1331.679
	G1 Y154.45 E1331.894
	G1 Y158.77 E1332.109
	G1 Y163.08 E1332.324
	G1 Y167.39 E1332.539
	G1 X174.21 E1332.787
	G1 X169.24 E1333.035
	G1 X164.26 E1333.283
	G1 X159.29 E1333.532
	G1 X154.32 E1333.78
	G1 X149.35 E1334.028
	G1 X144.37 E1334.276
	G1 X139.4 E1334.524
	G1 X139.39 Y163.71 E1334.708
	G1 X139.38 Y160.02 E1334.892
	G1 X139.08 Y159.94 E1334.907
	G1 X136.98 Y163.57 E1335.116
	G1 X134.87 Y167.2 E1335.325
	G1 X132.77 Y170.83 E1335.535
	G1 X130.67 Y174.45 E1335.744
	G1 X128.56 Y178.08 E1335.953
	G1 X126.46 Y181.71 E1336.162
	G1 X121.48 E1336.411
	G1 X116.49 E1336.659
	G1 X111.51 E1336.908
	G1 X106.52 E1337.156
	G1 X101.54 E1337.405
	G1 X99.44 Y178.08 E1337.614
	G1 X97.33 Y174.45 E1337.824
	G1 X95.23 Y170.83 E1338.033
	G1 X93.13 Y167.2 E1338.242
	G1 X91.02 Y163.57 E1338.452
	G1 X88.92 Y159.94 E1338.661
	G1 X88.62 Y160.02 E1338.676
	G1 X88.61 Y163.71 E1338.86
	G1 X88.6 Y167.39 E1339.043
	G1 X83.63 E1339.291
	G1 X78.66 E1339.539
	G1 X73.68 E1339.787
	G1 X68.71 E1340.036
	G1 X63.74 E1340.284
	G1 X58.77 E1340.532
	G1 X53.79 E1340.78
	G1 X48.82 E1341.028
	G1 Y163.08 E1341.243
	G1 Y158.77 E1341.459
	G1 Y154.45 E1341.674
	G1 Y150.14 E1341.889
	G1 X52.86 E1342.09
	G1 X56.89 E1342.291
	G1 X56.93
	G1 Y147.14
	G1 X57.33 Y150.54 F9000
	G1 E1339.291 F1800
	G1 Z1.1
	G1 X68.18 F9000
	G1 X79.02
	; TYPE:WALL-INNER
	G1 Z0.6
	G1 E1342.291 F1800
	G1 X83.49 E1342.514 F3600
	G1 X83.84 Y149.93 E1342.549
	G1 X81.87 Y146.72 E1342.737
	G1 X79.89 Y143.51 E1342.925
	G1 X79.02 Y143.75 E1342.971
	G1 Y147.13 E1343.14
	G1 Y150.5 E1343.308
	G1 Y150.54
	G1 X79.42 Y150.14 F9000
	; TYPE:WALL-OUTER
	G1 X83.26 E1343.499 F600
	G1 X83.37 Y149.94 E1343.511
	G1 X81.54 Y146.96 E1343.686
	G1 X79.71 Y143.97 E1343.86
	G1 X79.42 Y144.06 E1343.875
	G1 Y147.08 E1344.026
	G1 Y150.1 E1344.177
	G1 Y150.14
	G1 X82.42
	G1 X79.02 Y150.54 F9000
	G1 E1341.177 F1800
	G1 Z1.1
	G1 X87.77 Y152.07 F9000
	G1 X96.52 Y153.6
	G1 X105.27 Y155.12
	G1 X114.02 Y156.65
	; TYPE:WALL-INNER
	G1 Z0.6
	G1 E1344.177 F1800
	G1 X116.24 Y152.87 E1344.396 F3600
	G1 X118.46 Y149.09 E1344.615
	G1 X120.67 Y145.31 E1344.833
	G1 X122.89 Y141.53 E1345.052
	G1 X122.54 Y140.93 E1345.086
	G1 X118.31 E1345.297
	G1 X114.09 E1345.508
	G1 X109.86 E1345.719
	G1 X105.63 E1345.93
	G1 X105.29 Y141.53 E1345.965
	G1 X107.47 Y145.3 E1346.182
	G1 X109.65 Y149.08 E1346.4
	G1 X111.82 Y152.85 E1346.617
	G1 X114 Y156.62 E1346.834
	G1 X114.02 Y156.65
	G1 X114.02 Y155.86 F9000
	; TYPE:WALL-OUTER
	G1 X116.12 Y152.28 E1347.041 F600
	G1 X118.23 Y148.7 E1347.249
	G1 X120.33 Y145.11 E1347.456
	G1 X122.43 Y141.53 E1347.663
	G1 X122.31 Y141.33 E1347.674
	G1 X118.2 E1347.879
	G1 X114.09 E1348.085
	G1 X109.97 E1348.29
	G1 X105.86 E1348.495
	G1 X105.75 Y141.53 E1348.506
	G1 X107.81 Y145.1 E1348.712
	G1 X109.88 Y148.68 E1348.918
	G1 X111.94 Y152.25 E1349.124
	G1 X114 Y155.82 E1349.33
	G1 X114.02 Y155.86
	G1 X115.54 Y153.27
	G1 X114.02 Y156.65 F9000
	G1 E1346.33 F1800
	G1 Z1.1
	G1 X122.76 Y155.12 F9000
	G1 X131.5 Y153.6
	G1 X140.24 Y152.07
	G1 X148.98 Y150.54
	; TYPE:WALL-INNER
	G1 Z0.6
	G1 E1349.33 F1800
	G1 Y147.15 E1349.5 F3600
	G1 Y143.75 E1349.669
	G1 X148.11 Y143.51 E1349.714
	G1 X146.14 Y146.72 E1349.902
	G1 X144.16 Y149.93 E1350.09
	G1 X144.51 Y150.54 E1350.125
	G1 X148.94 E1350.346
	G1 X148.98
	G1 X148.58 Y150.14 F9000
	; TYPE:WALL-OUTER
	G1 Y147.1 E1350.498 F600
	G1 Y144.06 E1350.65
	G1 X148.29 Y143.97 E1350.665
	G1 X146.46 Y146.96 E1350.84
	G1 X144.63 Y149.94 E1351.014
	G1 X144.74 Y150.14 E1351.026
	G1 X148.54 E1351.216
	G1 X148.58
	G1 Y147.14
	G1 X148.98 Y150.54 F9000
	G1 E1348.216 F1800
	G1 Z1.1
	G1 X149.19 Y144.84 F9000
	G1 X147.07 Y140.82
	G1 X143.92 Y132.58
	G1 X140.77 Y124.35
	G1 X137.62 Y116.11
	G1 X138 Y115.4
	G1 X136.12 Y114.37
	G1 X132.74 Y113.7
	G1 X129.36 Y112.42
	; TYPE:WALL-INNER
	G1 Z0.6
	G1 E1351.216 F1800
	G1 X134.26 E1351.461 F3600
	G1 X139.17 E1351.705
	G1 X144.07 E1351.95
	G1 X144.44 Y111.8 E1351.986
	G1 X144.1 Y111.19 E1352.021
	G1 X139.19 Y111.2 E1352.266
	G1 X134.27 Y111.21 E1352.511
	G1 X129.36 Y111.22 E1352.756
	G1 X129.36 Y112.38 E1352.814
	G1 X129.36 Y112.42
	G1 X129.76 Y112.02 F9000
	; TYPE:WALL-OUTER
	G1 X134.45 E1353.048 F600
	G1 X139.15 E1353.282
	G1 X143.84 E1353.516
	G1 X143.98 Y111.8 E1353.529
	G1 X143.87 Y111.59 E1353.541
	G1 X139.17 Y111.6 E1353.776
	G1 X134.46 Y111.61 E1354.01
	G1 X129.76 Y111.62 E1354.245
	G1 Y111.98 E1354.263
	G1 Y112.02
	G1 X132.76
	G1 X129.36 Y112.42 F9000
	G1 E1351.263 F1800
	G1 Z1.1
	G1 X135.56 Y114.46 F9000
	G1 X136.69 Y114.44
	G1 X138 Y115.4
	G1 X133.02 Y123.66
	G1 X131.04 Y124.63
	G1 X122.36
	G1 X113.68
	G1 X104.99
	G1 X96.31
	G1 X94.47 Y123.22
	G1 X90.69 Y116.55
	G1 X90.52 Y114.95
	G1 X93.33 Y114.33
	G1 X98.64 Y112.42
	; TYPE:WALL-INNER
	G1 Z0.6
	G1 E1354.263 F1800
	G1 Y111.18 E1354.325 F3600
	G1 X94.88 E1354.513
	G1 X91.13 E1354.7
	G1 X87.37 E1354.888
	G1 X83.61 E1355.075
	G1 X84.32 Y112.42 E1355.146
	G1 X89.08 E1355.383
	G1 X93.84 E1355.621
	G1 X98.6 E1355.858
	G1 X98.64 Y112.42
	G1 X98.24 Y112.02 F9000
	; TYPE:WALL-OUTER
	G1 Y111.58 E1355.881 F600
	G1 X93.59 E1356.113
	G1 X88.95 E1356.344
	G1 X84.3 E1356.576
	G1 X84.55 Y112.02 E1356.601
	G1 X89.1 E1356.828
	G1 X93.65 E1357.055
	G1 X98.2 E1357.282
	G1 X98.24 Y112.02
	G1 Y111.58
	G1 X95.68
	G1 X98.64 Y112.42 F9000
	G1 X89.94 Y114.8
	; TYPE:WALL-INNER
	G1 X91.74 Y117.98 E1357.464 F3600
	G1 X93.55 Y121.15 E1357.647
	G1 X95.35 Y124.33 E1357.829
	G1 X100.01 E1358.061
	G1 X104.66 E1358.294
	G1 X109.32 E1358.526
	G1 X113.98 E1358.759
	G1 X118.63 E1358.991
	G1 X123.29 E1359.223
	G1 X127.94 E1359.456
	G1 X132.6 E1359.688
	G1 X134.38 Y121.36 E1359.861
	G1 X136.16 Y118.38 E1360.033
	G1 X137.94 Y115.41 E1360.206
	G1 X137.6 Y114.8 E1360.241
	G1 X134.12 E1360.415
	G1 X130.65 E1360.588
	G1 X127.17 E1360.762
	G1 Y110.7 E1360.966
	G1 Y106.61 E1361.171
	G1 Y102.51 E1361.375
	G1 Y98.41 E1361.579
	G1 X131.49 E1361.795
	G1 X135.81 E1362.01
	G1 X140.12 E1362.226
	G1 X144.44 E1362.441
	G1 X144.71 Y97.58 E1362.484
	G1 X144 Y97.07 E1362.528
	G1 X143.22 Y96.54 E1362.575
	G1 X142.18 Y95.92 E1362.635
	G1 X140.95 Y95.27 E1362.705
	G1 X139.84 Y94.76 E1362.766
	G1 X139.07 Y94.45 E1362.807
	G1 X137.95 Y94.05 E1362.866
	G1 X137.17 Y93.81 E1362.907
	G1 X136.31 Y93.57 E1362.952
	G1 X135.38 Y93.35 E1362.999
	G1 X134.05 Y93.07 E1363.067
	G1 X130.62 Y92.27 E1363.243
	G1 X129.48 Y92.03 E1363.301
	G1 X128.31 Y91.83 E1363.36
	G1 X126.85 Y91.62 E1363.434
	G1 X124.87 Y91.42 E1363.533
	G1 X122.88 Y91.29 E1363.633
	G1 X120.24 Y91.17 E1363.765
	G1 X116.92 Y91.1 E1363.93
	G1 X111.79 Y91.09 E1364.186
	G1 X108.23 Y91.16 E1364.364
	G1 X105.58 Y91.27 E1364.496
	G1 X103.4 Y91.4 E1364.605
	G1 X101.94 Y91.53 E1364.678
	G1 X100.51 Y91.7 E1364.75
	G1 X98.93 Y91.96 E1364.83
	G1 X97.78 Y92.18 E1364.888
	G1 X96.64 Y92.43 E1364.947
	G1 X94.06 Y93.05 E1365.079
	G1 X92.09 Y93.47 E1365.179
	G1 X91.2 Y93.7 E1365.225
	G1 X90.37 Y93.94 E1365.269
	G1 X89.55 Y94.21 E1365.311
	G1 X88.44 Y94.64 E1365.371
	G1 X87.67 Y94.98 E1365.413
	G1 X86.57 Y95.52 E1365.474
	G1 X85.34 Y96.2 E1365.544
	G1 X84.46 Y96.75 E1365.596
	G1 X83.29 Y97.57 E1365.667
	G1 X83.55 Y98.41 E1365.711
	G1 X87.87 E1365.927
	G1 X92.19 E1366.142
	G1 X96.51 E1366.358
	G1 X100.83 E1366.573
	G1 Y102.51 E1366.778
	G1 Y106.61 E1366.982
	G1 Y110.7 E1367.187
	G1 Y114.8 E1367.391
	G1 X97.21 E1367.571
	G1 X93.6 E1367.752
	G1 X89.98 E1367.932
	G1 X89.94
	G1 X90.63 Y115.2 F9000
	; TYPE:WALL-OUTER
	G1 X92.28 Y118.11 E1368.099 F600
	G1 X93.93 Y121.02 E1368.265
	G1 X95.58 Y123.93 E1368.432
	G1 X100.18 E1368.662
	G1 X104.78 E1368.891
	G1 X109.38 E1369.121
	G1 X113.98 E1369.35
	G1 X118.57 E1369.58
	G1 X123.17 E1369.809
	G1 X127.77 E1370.039
	G1 X132.37 E1370.268
	G1 X134.93 Y119.67 E1370.516
	G1 X137.48 Y115.4 E1370.764
	G1 X137.37 Y115.2 E1370.776
	G1 X133.84 E1370.952
	G1 X130.3 E1371.128
	G1 X126.77 E1371.304
	G1 Y110.9 E1371.519
	G1 Y106.61 E1371.733
	G1 Y102.31 E1371.948
	G1 Y98.01 E1372.162
	G1 X131.12 E1372.379
	G1 X135.46 E1372.596
	G1 X139.81 E1372.812
	G1 X144.15 E1373.029
	G1 X144.24 Y97.74 E1373.043
	G1 X143.77 Y97.4 E1373.072
	G1 X143.01 Y96.88 E1373.118
	G1 X141.98 Y96.27 E1373.178
	G1 X140.77 Y95.63 E1373.246
	G1 X139.68 Y95.13 E1373.306
	G1 X138.93 Y94.82 E1373.346
	G1 X137.83 Y94.43 E1373.405
	G1 X137.06 Y94.19 E1373.445
	G1 X136.21 Y93.96 E1373.489
	G1 X135.3 Y93.74 E1373.536
	G1 X133.97 Y93.46 E1373.603
	G1 X130.54 Y92.66 E1373.779
	G1 X129.41 Y92.43 E1373.837
	G1 X128.25 Y92.22 E1373.896
	G1 X126.8 Y92.01 E1373.968
	G1 X124.84 Y91.82 E1374.067
	G1 X122.86 Y91.69 E1374.166
	G1 X120.23 Y91.57 E1374.297
	G1 X116.91 Y91.5 E1374.463
	G1 X114.35 Y91.5 E1374.591
	G1 X111.79 Y91.49 E1374.718
	G1 X108.24 Y91.56 E1374.895
	G1 X105.6 Y91.67 E1375.027
	G1 X103.43 Y91.8 E1375.135
	G1 X101.98 Y91.93 E1375.208
	G1 X100.56 Y92.1 E1375.279
	G1 X99 Y92.35 E1375.358
	G1 X97.86 Y92.57 E1375.416
	G1 X96.73 Y92.82 E1375.474
	G1 X94.15 Y93.44 E1375.607
	G1 X92.19 Y93.86 E1375.707
	G1 X91.31 Y94.09 E1375.752
	G1 X90.49 Y94.33 E1375.795
	G1 X89.69 Y94.59 E1375.837
	G1 X88.59 Y95.01 E1375.895
	G1 X87.84 Y95.34 E1375.936
	G1 X86.76 Y95.87 E1375.996
	G1 X85.55 Y96.54 E1376.065
	G1 X84.69 Y97.08 E1376.116
	G1 X83.76 Y97.73 E1376.173
	G1 X83.85 Y98.01 E1376.187
	G1 X88.2 E1376.404
	G1 X92.54 E1376.621
	G1 X96.89 E1376.837
	G1 X101.23 E1377.054
	G1 Y102.31 E1377.269
	G1 Y106.61 E1377.483
	G1 Y110.9 E1377.698
	G1 Y115.2 E1377.912
	G1 X97.71 E1378.088
	G1 X94.19 E1378.263
	G1 X90.67 E1378.439
	G1 X90.63
	G1 X92.11 Y117.81
	G1 X89.94 Y114.8 F9000
	G1 X90.13 Y114.46
	; TYPE:FILL
		G1 X88.43 Y112.76 E1378.558 F3600
		G1 X87.87 F9000
		G1 X89.57 Y114.46 E1378.678 F3600
		G1 X89.83 Y115.29 F9000
		G1 X87.3 Y112.76 E1378.857 F3600
		G1 X86.74 F9000
		G1 X90.57 Y116.59 E1379.127 F3600
		G1 X91.31 Y117.9 F9000
		G1 X88.74 Y115.33 E1379.309 F3600
		G1 X86.17 Y112.76 E1379.49
		G1 X85.61 F9000
		G1 X88.83 Y115.98 E1379.718 F3600
		G1 X92.05 Y119.2 E1379.945
		G1 X92.79 Y120.51 F9000
		G1 X90.21 Y117.93 E1380.127 F3600
		G1 X87.62 Y115.34 E1380.309
		G1 X85.04 Y112.76 E1380.491
		G1 X84.48 F9000
		G1 X87.5 Y115.78 E1380.704 F3600
		G1 X90.51 Y118.8 E1380.917
		G1 X93.53 Y121.82 E1381.13
		G1 X94.27 Y123.12 F9000
		G1 X90.98 Y119.83 E1381.363 F3600
		G1 X87.68 Y116.53 E1381.595
		G1 X84.39 Y113.24 E1381.828
		G1 X81.09 Y109.94 E1382.06
		G1 X77.8 Y106.65 E1382.293
		G1 X74.5 Y103.35 E1382.525
		G1 X71.21 Y100.06 E1382.758
		G1 X67.91 Y96.76 E1382.99
		G1 X64.62 Y93.47 E1383.223
		G1 X61.32 Y90.17 E1383.455
		G1 X61.1 Y90.51 F9000
		G1 X64.49 Y93.9 E1383.694 F3600
		G1 X67.88 Y97.29 E1383.934
		G1 X71.27 Y100.69 E1384.173
		G1 X74.66 Y104.08 E1384.412
		G1 X78.06 Y107.47 E1384.652
		G1 X81.45 Y110.86 E1384.891
		G1 X84.84 Y114.25 E1385.13
		G1 X88.23 Y117.65 E1385.369
		G1 X91.62 Y121.04 E1385.609
		G1 X95.01 Y124.43 E1385.848
		G1 X95.25 Y124.67 F9000
		G1 X98.43 Y127.85 E1386.073 F3600
		G1 X101.62 Y131.04 E1386.297
		G1 X104.8 Y134.22 E1386.522
		G1 X107.99 Y137.41 E1386.746
		G1 X111.17 Y140.59 E1386.971
		G1 X111.74 F9000
		G1 X108.56 Y137.41 E1387.196 F3600
		G1 X105.37 Y134.22 E1387.42
		G1 X102.19 Y131.04 E1387.645
		G1 X99 Y127.85 E1387.869
		G1 X95.82 Y124.67 E1388.094
		G1 X96.38 F9000
		G1 X99.56 Y127.85 E1388.319 F3600
		G1 X102.75 Y131.04 E1388.543
		G1 X105.93 Y134.22 E1388.768
		G1 X109.12 Y137.41 E1388.992
		G1 X112.3 Y140.59 E1389.217
		G1 X112.87 F9000
		G1 X109.69 Y137.41 E1389.442 F3600
		G1 X106.5 Y134.22 E1389.666
		G1 X103.32 Y131.04 E1389.891
		G1 X100.13 Y127.85 E1390.115
		G1 X96.95 Y124.67 E1390.34
		G1 X97.52 F9000
		G1 X100.7 Y127.85 E1390.565 F3600
		G1 X103.88 Y131.04 E1390.79
		G1 X107.07 Y134.22 E1391.014
		G1 X110.25 Y137.41 E1391.239
		G1 X113.43 Y140.59 E1391.464
		G1 X114 F9000
		G1 X110.82 Y137.41 E1391.689 F3600
		G1 X107.63 Y134.22 E1391.913
		G1 X104.45 Y131.04 E1392.138
		G1 X101.26 Y127.85 E1392.362
		G1 X98.08 Y124.67 E1392.587
		G1 X98.65 F9000
		G1 X101.83 Y127.85 E1392.812 F3600
		G1 X105.01 Y131.04 E1393.036
		G1 X108.2 Y134.22 E1393.261
		G1 X111.38 Y137.41 E1393.485
		G1 X114.56 Y140.59 E1393.71
		G1 X115.13 F9000
		G1 X111.95 Y137.41 E1393.935 F3600
		G1 X108.76 Y134.22 E1394.159
		G1 X105.58 Y131.04 E1394.384
		G1 X102.39 Y127.85 E1394.608
		G1 X99.21 Y124.67 E1394.833
		G1 X99.78 F9000
		G1 X102.96 Y127.85 E1395.058 F3600
		G1 X106.15 Y131.04 E1395.282
		G1 X109.33 Y134.22 E1395.507
		G1 X112.52 Y137.41 E1395.731
		G1 X115.7 Y140.59 E1395.956
		G1 X116.26 F9000
		G1 X113.08 Y137.41 E1396.181 F3600
		G1 X109.89 Y134.22 E1396.405
		G1 X106.71 Y131.04 E1396.63
		G1 X103.52 Y127.85 E1396.854
		G1 X100.34 Y124.67 E1397.079
		G1 X100.91 F9000
		G1 X104.09 Y127.85 E1397.304 F3600
		G1 X107.28 Y131.04 E1397.528
		G1 X110.46 Y134.22 E1397.753
		G1 X113.65 Y137.41 E1397.977
		G1 X116.83 Y140.59 E1398.202
		G1 X117.39 F9000
		G1 X114.21 Y137.41 E1398.427 F3600
		G1 X111.03 Y134.22 E1398.651
		G1 X107.84 Y131.04 E1398.876
		G1 X104.66 Y127.85 E1399.1
		G1 X101.48 Y124.67 E1399.325
		G1 X102.04 F9000
		G1 X105.22 Y127.85 E1399.55 F3600
		G1 X108.41 Y131.04 E1399.774
		G1 X111.59 Y134.22 E1399.999
		G1 X114.78 Y137.41 E1400.223
		G1 X117.96 Y140.59 E1400.448
		G1 X118.52 F9000
		G1 X115.34 Y137.41 E1400.673 F3600
		G1 X112.16 Y134.22 E1400.897
		G1 X108.97 Y131.04 E1401.122
		G1 X105.79 Y127.85 E1401.346
		G1 X102.61 Y124.67 E1401.571
		G1 X103.17 F9000
		G1 X106.35 Y127.85 E1401.796 F3600
		G1 X109.54 Y131.04 E1402.02
		G1 X112.72 Y134.22 E1402.245
		G1 X115.91 Y137.41 E1402.469
		G1 X119.09 Y140.59 E1402.694
		G1 X119.66 F9000
		G1 X116.48 Y137.41 E1402.919 F3600
		G1 X113.29 Y134.22 E1403.143
		G1 X110.11 Y131.04 E1403.368
		G1 X106.92 Y127.85 E1403.592
		G1 X103.74 Y124.67 E1403.817
		G1 X104.3 F9000
		G1 X107.48 Y127.85 E1404.042 F3600
		G1 X110.67 Y131.04 E1404.267
		G1 X113.85 Y134.22 E1404.491
		G1 X117.04 Y137.41 E1404.716
		G1 X120.22 Y140.59 E1404.941
		G1 X120.79 F9000
		G1 X117.61 Y137.41 E1405.166 F3600
		G1 X114.42 Y134.22 E1405.39
		G1 X111.24 Y131.04 E1405.615
		G1 X108.05 Y127.85 E1405.839
		G1 X104.87 Y124.67 E1406.064
		G1 X105.44 F9000
		G1 X108.62 Y127.85 E1406.289 F3600
		G1 X111.8 Y131.04 E1406.513
		G1 X114.99 Y134.22 E1406.738
		G1 X118.17 Y137.41 E1406.962
		G1 X121.35 Y140.59 E1407.187
		G1 X121.92 F9000
		G1 X118.74 Y137.41 E1407.412 F3600
		G1 X115.55 Y134.22 E1407.636
		G1 X112.37 Y131.04 E1407.861
		G1 X109.18 Y127.85 E1408.085
		G1 X106 Y124.67 E1408.31
		G1 X106.57 F9000
		G1 X109.75 Y127.85 E1408.535 F3600
		G1 X112.93 Y131.04 E1408.759
		G1 X116.12 Y134.22 E1408.984
		G1 X119.3 Y137.41 E1409.208
		G1 X122.48 Y140.59 E1409.433
		G1 X123.08 Y141.19 F9000
		G1 X126.26 Y144.37 E1409.658 F3600
		G1 X129.45 Y147.56 E1409.882
		G1 X132.63 Y150.74 E1410.107
		G1 X135.81 Y153.92 E1410.331
		G1 X138.99 Y157.1 E1410.556
		G1 X142.18 Y160.29 E1410.78
		G1 X145.36 Y163.47 E1411.005
		G1 X148.54 Y166.65 E1411.229
		G1 X147.98 F9000
		G1 X144.87 Y163.54 E1411.448 F3600
		G1 X141.77 Y160.44 E1411.668
		G1 X138.66 Y157.33 E1411.887
		G1 X135.56 Y154.23 E1412.106
		G1 X132.45 Y151.12 E1412.325
		G1 X129.34 Y148.01 E1412.545
		G1 X126.24 Y144.91 E1412.764
		G1 X123.13 Y141.8 E1412.983
		G1 X122.92 Y142.15 F9000
		G1 X126.42 Y145.65 E1413.23 F3600
		G1 X129.92 Y149.15 E1413.477
		G1 X133.42 Y152.65 E1413.724
		G1 X136.91 Y156.15 E1413.97
		G1 X140.41 Y159.65 E1414.217
		G1 X143.91 Y163.15 E1414.464
		G1 X147.41 Y166.65 E1414.711
		G1 X146.85 F9000
		G1 X143.49 Y163.29 E1414.949 F3600
		G1 X140.12 Y159.92 E1415.186
		G1 X140.12 Y160.48 F9000
		G1 X143.2 Y163.57 E1415.404 F3600
		G1 X146.28 Y166.65 E1415.621
		G1 X145.72 F9000
		G1 X142.92 Y163.85 E1415.818 F3600
		G1 X140.12 Y161.05 E1416.015
		G1 X140.12 Y161.62 F9000
		G1 X142.64 Y164.14 E1416.193 F3600
		G1 X145.15 Y166.65 E1416.37
		G1 X144.58 F9000
		G1 X142.35 Y164.42 E1416.528 F3600
		G1 X140.12 Y162.19 E1416.685
		G1 X140.13 Y162.75 F9000
		G1 X144.02 Y166.65 E1416.96 F3600
		G1 X143.45 F9000
		G1 X140.13 Y163.32 E1417.194 F3600
		G1 X140.13 Y163.89 F9000
		G1 X142.89 Y166.65 E1417.389 F3600
		G1 X142.32 F9000
		G1 X140.13 Y164.45 E1417.544 F3600
		G1 X140.13 Y165.02 F9000
		G1 X141.76 Y166.65 E1417.659 F3600
		G1 X141.19 F9000
		G1 X140.13 Y165.59 E1417.733 F3600
		G1 X140.13 Y166.15 F9000
		G1 X140.63 Y166.65 E1417.768 F3600
		G1 X139.33 Y160.03 F9000
		G1 X137.83 Y160.74
		G1 X136.02 Y163.74
		G1 X132.77 Y160.49 E1417.997 F3600
		G1 X129.52 Y157.24 E1418.226
		G1 X126.28 Y154 E1418.456
		G1 X123.03 Y150.75 E1418.685
		G1 X119.78 Y147.5 E1418.914
		G1 X119.99 Y147.14 F9000
		G1 X123.24 Y150.39 E1419.143 F3600
		G1 X126.49 Y153.64 E1419.372
		G1 X129.73 Y156.88 E1419.602
		G1 X132.98 Y160.13 E1419.831
		G1 X136.23 Y163.38 E1420.06
		G1 X136.44 Y163.03 F9000
		G1 X133.19 Y159.78 E1420.289 F3600
		G1 X129.94 Y156.53 E1420.518
		G1 X126.7 Y153.29 E1420.748
		G1 X123.45 Y150.04 E1420.977
		G1 X120.2 Y146.79 E1421.206
		G1 X120.41 Y146.43 F9000
		G1 X123.66 Y149.68 E1421.435 F3600
		G1 X126.91 Y152.93 E1421.664
		G1 X130.15 Y156.17 E1421.894
		G1 X133.4 Y159.42 E1422.123
		G1 X136.65 Y162.67 E1422.352
		G1 X136.85 Y162.31 F9000
		G1 X133.6 Y159.06 E1422.581 F3600
		G1 X130.36 Y155.81 E1422.81
		G1 X127.11 Y152.57 E1423.039
		G1 X123.87 Y149.32 E1423.268
		G1 X120.62 Y146.07 E1423.497
		G1 X120.83 Y145.72 F9000
		G1 X124.08 Y148.97 E1423.726 F3600
		G1 X127.32 Y152.21 E1423.955
		G1 X130.57 Y155.46 E1424.185
		G1 X133.81 Y158.7 E1424.414
		G1 X137.06 Y161.95 E1424.643
		G1 X137.27 Y161.6 F9000
		G1 X134.02 Y158.35 E1424.872 F3600
		G1 X130.78 Y155.1 E1425.101
		G1 X127.53 Y151.86 E1425.33
		G1 X124.29 Y148.61 E1425.559
		G1 X121.04 Y145.36 E1425.788
		G1 X121.25 Y145 F9000
		G1 X124.5 Y148.25 E1426.017 F3600
		G1 X127.74 Y151.5 E1426.246
		G1 X130.99 Y154.74 E1426.476
		G1 X134.23 Y157.99 E1426.705
		G1 X137.48 Y161.24 E1426.934
		G1 X137.69 Y160.88 F9000
		G1 X134.44 Y157.63 E1427.163 F3600
		G1 X131.19 Y154.39 E1427.392
		G1 X127.95 Y151.14 E1427.621
		G1 X124.7 Y147.9 E1427.85
		G1 X121.45 Y144.65 E1428.079
		G1 X121.66 Y144.29 F9000
		G1 X124.91 Y147.54 E1428.308 F3600
		G1 X128.15 Y150.78 E1428.537
		G1 X131.4 Y154.03 E1428.766
		G1 X134.64 Y157.27 E1428.995
		G1 X137.89 Y160.52 E1429.224
		G1 X138.1 Y160.16 F9000
		G1 X134.85 Y156.91 E1429.453 F3600
		G1 X131.61 Y153.67 E1429.682
		G1 X128.36 Y150.42 E1429.911
		G1 X125.12 Y147.18 E1430.14
		G1 X121.87 Y143.93 E1430.369
		G1 X122.08 Y143.58 F9000
		G1 X125.33 Y146.83 E1430.598 F3600
		G1 X128.57 Y150.07 E1430.827
		G1 X131.82 Y153.32 E1431.056
		G1 X135.06 Y156.56 E1431.285
		G1 X138.31 Y159.81 E1431.514
		G1 X138.52 Y159.45 F9000
		G1 X135.27 Y156.2 E1431.743 F3600
		G1 X132.03 Y152.96 E1431.972
		G1 X128.78 Y149.71 E1432.201
		G1 X125.54 Y146.47 E1432.43
		G1 X122.29 Y143.22 E1432.659
		G1 X122.5 Y142.86 F9000
		G1 X125.74 Y146.11 E1432.888 F3600
		G1 X128.99 Y149.35 E1433.117
		G1 X132.23 Y152.6 E1433.345
		G1 X135.48 Y155.84 E1433.574
		G1 X138.72 Y159.09 E1433.803
		G1 X139.48 Y159.28 F9000
		G1 X136.13 Y155.93 E1434.04 F3600
		G1 X132.77 Y152.57 E1434.277
		G1 X129.42 Y149.22 E1434.513
		G1 X126.06 Y145.86 E1434.75
		G1 X122.71 Y142.51 E1434.987
		G1 X119.57 Y147.86 F9000
		G1 X122.82 Y151.11 E1435.216 F3600
		G1 X126.07 Y154.36 E1435.445
		G1 X129.32 Y157.6 E1435.675
		G1 X132.57 Y160.85 E1435.904
		G1 X135.82 Y164.1 E1436.133
		G1 X135.61 Y164.46 F9000
		G1 X132.36 Y161.21 E1436.362 F3600
		G1 X129.11 Y157.96 E1436.591
		G1 X125.86 Y154.71 E1436.821
		G1 X122.61 Y151.46 E1437.05
		G1 X119.36 Y148.21 E1437.279
		G1 X119.15 Y148.57 F9000
		G1 X122.4 Y151.82 E1437.508 F3600
		G1 X125.65 Y155.07 E1437.738
		G1 X128.9 Y158.32 E1437.967
		G1 X132.15 Y161.57 E1438.197
		G1 X135.4 Y164.82 E1438.426
		G1 X135.19 Y165.17 F9000
		G1 X131.94 Y161.92 E1438.655 F3600
		G1 X128.69 Y158.67 E1438.884
		G1 X125.44 Y155.43 E1439.114
		G1 X122.19 Y152.18 E1439.343
		G1 X118.94 Y148.93 E1439.572
		G1 X118.74 Y149.28 F9000
		G1 X121.99 Y152.53 E1439.801 F3600
		G1 X125.24 Y155.78 E1440.031
		G1 X128.49 Y159.03 E1440.26
		G1 X131.74 Y162.28 E1440.49
		G1 X134.99 Y165.53 E1440.719
		G1 X134.78 Y165.89 F9000
		G1 X131.53 Y162.64 E1440.948 F3600
		G1 X128.28 Y159.39 E1441.177
		G1 X125.03 Y156.14 E1441.407
		G1 X121.78 Y152.89 E1441.636
		G1 X118.53 Y149.64 E1441.865
		G1 X118.32 Y150 F9000
		G1 X121.57 Y153.25 E1442.094 F3600
		G1 X124.82 Y156.5 E1442.324
		G1 X128.07 Y159.75 E1442.553
		G1 X131.32 Y163 E1442.783
		G1 X134.57 Y166.25 E1443.012
		G1 X134.36 Y166.61 F9000
		G1 X131.11 Y163.36 E1443.241 F3600
		G1 X127.86 Y160.11 E1443.471
		G1 X124.61 Y156.85 E1443.7
		G1 X121.36 Y153.6 E1443.93
		G1 X118.11 Y150.35 E1444.159
		G1 X117.9 Y150.71 F9000
		G1 X121.15 Y153.96 E1444.388 F3600
		G1 X124.4 Y157.21 E1444.618
		G1 X127.65 Y160.46 E1444.847
		G1 X130.9 Y163.71 E1445.077
		G1 X134.15 Y166.96 E1445.306
		G1 X133.95 Y167.32 F9000
		G1 X130.7 Y164.07 E1445.535 F3600
		G1 X127.45 Y160.82 E1445.765
		G1 X124.19 Y157.56 E1445.994
		G1 X120.94 Y154.31 E1446.224
		G1 X117.69 Y151.06 E1446.453
		G1 X117.48 Y151.42 F9000
		G1 X120.73 Y154.67 E1446.682 F3600
		G1 X123.98 Y157.92 E1446.912
		G1 X127.24 Y161.18 E1447.141
		G1 X130.49 Y164.43 E1447.371
		G1 X133.74 Y167.68 E1447.6
		G1 X133.53 Y168.04 F9000
		G1 X130.28 Y164.79 E1447.829 F3600
		G1 X127.03 Y161.54 E1448.059
		G1 X123.77 Y158.28 E1448.288
		G1 X120.52 Y155.03 E1448.518
		G1 X117.27 Y151.78 E1448.747
		G1 X117.06 Y152.13 F9000
		G1 X120.31 Y155.38 E1448.977 F3600
		G1 X123.56 Y158.64 E1449.206
		G1 X126.82 Y161.89 E1449.436
		G1 X130.07 Y165.15 E1449.665
		G1 X133.32 Y168.4 E1449.895
		G1 X133.12 Y168.75 F9000
		G1 X129.87 Y165.5 E1450.124 F3600
		G1 X126.61 Y162.25 E1450.354
		G1 X123.36 Y158.99 E1450.583
		G1 X120.1 Y155.74 E1450.813
		G1 X116.85 Y152.49 E1451.042
		G1 X116.64 Y152.85 F9000
		G1 X119.89 Y156.1 E1451.271 F3600
		G1 X123.15 Y159.35 E1451.501
		G1 X126.4 Y162.61 E1451.73
		G1 X129.66 Y165.86 E1451.96
		G1 X132.91 Y169.11 E1452.189
		G1 X132.7 Y169.47 F9000
		G1 X129.45 Y166.22 E1452.419 F3600
		G1 X126.19 Y162.96 E1452.648
		G1 X122.94 Y159.71 E1452.878
		G1 X119.68 Y156.45 E1453.107
		G1 X116.43 Y153.2 E1453.337
		G1 X116.23 Y153.56 F9000
		G1 X119.48 Y156.81 E1453.567 F3600
		G1 X122.73 Y160.07 E1453.796
		G1 X125.99 Y163.32 E1454.026
		G1 X129.24 Y166.58 E1454.255
		G1 X132.49 Y169.83 E1454.485
		G1 X132.28 Y170.19 F9000
		G1 X129.03 Y166.94 E1454.715 F3600
		G1 X125.78 Y163.68 E1454.944
		G1 X122.52 Y160.43 E1455.174
		G1 X119.27 Y157.17 E1455.403
		G1 X116.02 Y153.92 E1455.633
		G1 X115.81 Y154.27 F9000
		G1 X119.06 Y157.52 E1455.863 F3600
		G1 X122.32 Y160.78 E1456.092
		G1 X125.57 Y164.03 E1456.322
		G1 X128.83 Y167.29 E1456.551
		G1 X132.08 Y170.54 E1456.781
		G1 X131.87 Y170.9 F9000
		G1 X128.62 Y167.65 E1457.011 F3600
		G1 X125.36 Y164.39 E1457.24
		G1 X122.11 Y161.14 E1457.47
		G1 X118.85 Y157.88 E1457.699
		G1 X115.6 Y154.63 E1457.929
		G1 X115.39 Y154.99 F9000
		G1 X118.64 Y158.24 E1458.159 F3600
		G1 X121.9 Y161.5 E1458.388
		G1 X125.15 Y164.75 E1458.618
		G1 X128.41 Y168.01 E1458.847
		G1 X131.66 Y171.26 E1459.077
		G1 X131.45 Y171.62 F9000
		G1 X128.2 Y168.36 E1459.307 F3600
		G1 X124.94 Y165.11 E1459.536
		G1 X121.69 Y161.85 E1459.766
		G1 X118.43 Y158.6 E1459.995
		G1 X115.18 Y155.34 E1460.225
		G1 X114.97 Y155.7 F9000
		G1 X118.23 Y158.96 E1460.455 F3600
		G1 X121.48 Y162.21 E1460.684
		G1 X124.74 Y165.47 E1460.914
		G1 X127.99 Y168.72 E1461.143
		G1 X131.25 Y171.98 E1461.373
		G1 X131.04 Y172.33 F9000
		G1 X127.78 Y169.08 E1461.603 F3600
		G1 X124.53 Y165.82 E1461.833
		G1 X121.27 Y162.57 E1462.062
		G1 X118.02 Y159.31 E1462.292
		G1 X114.76 Y156.06 E1462.522
		G1 X114.55 Y156.41 F9000
		G1 X117.81 Y159.67 E1462.752 F3600
		G1 X121.06 Y162.92 E1462.981
		G1 X124.32 Y166.18 E1463.211
		G1 X127.57 Y169.43 E1463.44
		G1 X130.83 Y172.69 E1463.67
		G1 X130.62 Y173.05 F9000
		G1 X127.36 Y169.79 E1463.9 F3600
		G1 X124.11 Y166.54 E1464.13
		G1 X120.85 Y163.28 E1464.359
		G1 X117.6 Y160.03 E1464.589
		G1 X114.34 Y156.77 E1464.819
		G1 X114.13 Y157.13 F9000
		G1 X117.39 Y160.39 E1465.049 F3600
		G1 X120.65 Y163.64 E1465.279
		G1 X123.9 Y166.9 E1465.508
		G1 X127.16 Y170.15 E1465.738
		G1 X130.42 Y173.41 E1465.968
		G1 X130.21 Y173.77 F9000
		G1 X126.8 Y170.36 E1466.209 F3600
		G1 X123.39 Y166.95 E1466.449
		G1 X119.98 Y163.54 E1466.69
		G1 X116.57 Y160.13 E1466.93
		G1 X113.16 Y156.72 E1467.171
		G1 X109.75 Y153.31 E1467.412
		G1 X106.34 Y149.9 E1467.652
		G1 X102.93 Y146.49 E1467.893
		G1 X99.52 Y143.08 E1468.133
		G1 X96.11 Y139.67 E1468.374
		G1 X92.7 Y136.26 E1468.615
		G1 X89.29 Y132.85 E1468.855
		G1 X85.88 Y129.44 E1469.096
		G1 X82.47 Y126.03 E1469.336
		G1 X79.06 Y122.62 E1469.577
		G1 X75.65 Y119.21 E1469.817
		G1 X72.24 Y115.8 E1470.058
		G1 X68.83 Y112.39 E1470.299
		G1 X65.42 Y108.98 E1470.539
		G1 X62.01 Y105.57 E1470.78
		G1 X58.6 Y102.16 E1471.02
		G1 X55.19 Y98.75 E1471.261
		G1 X55.76 F9000
		G1 X59.16 Y102.15 E1471.501 F3600
		G1 X62.56 Y105.55 E1471.741
		G1 X65.96 Y108.95 E1471.981
		G1 X69.36 Y112.35 E1472.221
		G1 X72.77 Y115.76 E1472.461
		G1 X76.17 Y119.16 E1472.701
		G1 X79.57 Y122.56 E1472.941
		G1 X82.97 Y125.96 E1473.181
		G1 X86.37 Y129.36 E1473.42
		G1 X89.77 Y132.76 E1473.66
		G1 X93.17 Y136.16 E1473.9
		G1 X96.57 Y139.56 E1474.14
		G1 X99.98 Y142.97 E1474.38
		G1 X103.38 Y146.37 E1474.62
		G1 X106.78 Y149.77 E1474.86
		G1 X110.18 Y153.17 E1475.1
		G1 X113.58 Y156.57 E1475.34
		G1 X112.81 Y155.23 F9000
		G1 X109.28 Y151.7 E1475.589 F3600
		G1 X105.75 Y148.17 E1475.838
		G1 X102.22 Y144.64 E1476.087
		G1 X98.69 Y141.11 E1476.336
		G1 X95.16 Y137.58 E1476.585
		G1 X91.63 Y134.05 E1476.834
		G1 X88.1 Y130.52 E1477.083
		G1 X84.57 Y126.99 E1477.333
		G1 X81.03 Y123.46 E1477.582
		G1 X77.5 Y119.93 E1477.831
		G1 X73.97 Y116.4 E1478.08
		G1 X70.44 Y112.87 E1478.329
		G1 X66.91 Y109.34 E1478.578
		G1 X63.38 Y105.81 E1478.827
		G1 X59.85 Y102.28 E1479.076
		G1 X56.32 Y98.75 E1479.325
		G1 X56.89 F9000
		G1 X60.34 Y102.2 E1479.568 F3600
		G1 X63.78 Y105.64 E1479.811
		G1 X67.23 Y109.09 E1480.055
		G1 X70.68 Y112.54 E1480.298
		G1 X74.12 Y115.98 E1480.541
		G1 X77.57 Y119.43 E1480.784
		G1 X81.02 Y122.88 E1481.027
		G1 X84.47 Y126.33 E1481.271
		G1 X87.91 Y129.77 E1481.514
		G1 X91.36 Y133.22 E1481.757
		G1 X94.81 Y136.67 E1482
		G1 X98.25 Y140.11 E1482.243
		G1 X101.7 Y143.56 E1482.486
		G1 X105.15 Y147.01 E1482.73
		G1 X108.59 Y150.45 E1482.973
		G1 X112.04 Y153.9 E1483.216
		G1 X111.26 Y152.56 F9000
		G1 X107.9 Y149.2 E1483.453 F3600
		G1 X104.54 Y145.83 E1483.691
		G1 X101.17 Y142.47 E1483.928
		G1 X97.81 Y139.11 E1484.165
		G1 X94.45 Y135.74 E1484.403
		G1 X91.09 Y132.38 E1484.64
		G1 X87.72 Y129.02 E1484.877
		G1 X84.36 Y125.66 E1485.115
		G1 X81 Y122.29 E1485.352
		G1 X77.64 Y118.93 E1485.589
		G1 X74.27 Y115.57 E1485.826
		G1 X70.91 Y112.2 E1486.064
		G1 X67.55 Y108.84 E1486.301
		G1 X64.19 Y105.48 E1486.538
		G1 X60.82 Y102.11 E1486.776
		G1 X57.46 Y98.75 E1487.013
		G1 X58.02 F9000
		G1 X61.52 Y102.25 E1487.26 F3600
		G1 X65.02 Y105.75 E1487.506
		G1 X68.51 Y109.24 E1487.753
		G1 X72.01 Y112.74 E1488
		G1 X75.51 Y116.24 E1488.247
		G1 X79.01 Y119.74 E1488.493
		G1 X82.51 Y123.24 E1488.74
		G1 X86 Y126.73 E1488.987
		G1 X89.5 Y130.23 E1489.234
		G1 X93 Y133.73 E1489.48
		G1 X96.5 Y137.23 E1489.727
		G1 X100 Y140.73 E1489.974
		G1 X103.49 Y144.22 E1490.221
		G1 X106.99 Y147.72 E1490.467
		G1 X110.49 Y151.22 E1490.714
		G1 X109.72 Y149.88 F9000
		G1 X106.29 Y146.45 E1490.956 F3600
		G1 X102.86 Y143.02 E1491.198
		G1 X99.43 Y139.59 E1491.44
		G1 X96.01 Y136.17 E1491.682
		G1 X92.58 Y132.74 E1491.924
		G1 X89.15 Y129.31 E1492.166
		G1 X85.72 Y125.88 E1492.408
		G1 X82.29 Y122.45 E1492.649
		G1 X78.86 Y119.02 E1492.891
		G1 X75.43 Y115.59 E1493.133
		G1 X72 Y112.16 E1493.375
		G1 X68.58 Y108.74 E1493.617
		G1 X65.15 Y105.31 E1493.859
		G1 X61.72 Y101.88 E1494.101
		G1 X58.29 Y98.45 E1494.343
		G1 X58.28 Y97.88 F9000
		G1 X61.66 Y101.26 E1494.581 F3600
		G1 X65.03 Y104.63 E1494.82
		G1 X68.41 Y108.01 E1495.058
		G1 X71.79 Y111.39 E1495.296
		G1 X75.17 Y114.77 E1495.535
		G1 X78.54 Y118.14 E1495.773
		G1 X81.92 Y121.52 E1496.011
		G1 X85.3 Y124.9 E1496.25
		G1 X88.68 Y128.28 E1496.488
		G1 X92.05 Y131.65 E1496.726
		G1 X95.43 Y135.03 E1496.965
		G1 X98.81 Y138.41 E1497.203
		G1 X102.19 Y141.79 E1497.441
		G1 X105.56 Y145.16 E1497.68
		G1 X108.94 Y148.54 E1497.918
		G1 X108.17 Y147.2 F9000
		G1 X104.84 Y143.87 E1498.153 F3600
		G1 X101.52 Y140.55 E1498.387
		G1 X98.19 Y137.22 E1498.622
		G1 X94.87 Y133.9 E1498.856
		G1 X91.54 Y130.57 E1499.091
		G1 X88.21 Y127.25 E1499.326
		G1 X84.89 Y123.92 E1499.56
		G1 X81.56 Y120.6 E1499.795
		G1 X78.24 Y117.27 E1500.029
		G1 X74.91 Y113.95 E1500.264
		G1 X71.58 Y110.62 E1500.499
		G1 X68.26 Y107.3 E1500.733
		G1 X64.93 Y103.97 E1500.968
		G1 X61.61 Y100.65 E1501.202
		G1 X58.28 Y97.32 E1501.437
		G1 X58.36 Y96.83 F9000
		G1 X61.86 Y100.33 E1501.684 F3600
		G1 X65.37 Y103.83 E1501.931
		G1 X68.87 Y107.34 E1502.178
		G1 X72.37 Y110.84 E1502.426
		G1 X75.87 Y114.34 E1502.673
		G1 X79.38 Y117.84 E1502.92
		G1 X82.88 Y121.35 E1503.167
		G1 X86.38 Y124.85 E1503.414
		G1 X89.89 Y128.35 E1503.661
		G1 X93.39 Y131.85 E1503.908
		G1 X96.89 Y135.35 E1504.156
		G1 X100.39 Y138.86 E1504.403
		G1 X103.9 Y142.36 E1504.65
		G1 X107.4 Y145.86 E1504.897
		G1 X106.62 Y144.52 F9000
		G1 X103.18 Y141.08 E1505.14 F3600
		G1 X99.74 Y137.64 E1505.382
		G1 X96.3 Y134.2 E1505.625
		G1 X92.86 Y130.76 E1505.868
		G1 X89.42 Y127.32 E1506.111
		G1 X85.98 Y123.88 E1506.353
		G1 X82.54 Y120.44 E1506.596
		G1 X79.1 Y117 E1506.839
		G1 X75.66 Y113.56 E1507.081
		G1 X72.22 Y110.12 E1507.324
		G1 X68.78 Y106.68 E1507.567
		G1 X65.34 Y103.24 E1507.81
		G1 X61.9 Y99.8 E1508.052
		G1 X58.46 Y96.36 E1508.295
		G1 X58.55 Y95.89 F9000
		G1 X61.93 Y99.27 E1508.533 F3600
		G1 X65.31 Y102.65 E1508.772
		G1 X68.69 Y106.03 E1509.01
		G1 X72.06 Y109.4 E1509.249
		G1 X75.44 Y112.78 E1509.487
		G1 X78.82 Y116.16 E1509.726
		G1 X82.2 Y119.54 E1509.964
		G1 X85.58 Y122.92 E1510.202
		G1 X88.96 Y126.3 E1510.441
		G1 X92.34 Y129.68 E1510.679
		G1 X95.71 Y133.05 E1510.918
		G1 X99.09 Y136.43 E1511.156
		G1 X102.47 Y139.81 E1511.395
		G1 X105.85 Y143.19 E1511.633
		G1 X105.08 Y141.85 F9000
		G1 X101.77 Y138.54 E1511.867 F3600
		G1 X98.45 Y135.22 E1512.101
		G1 X95.14 Y131.91 E1512.335
		G1 X91.82 Y128.59 E1512.568
		G1 X88.51 Y125.28 E1512.802
		G1 X85.19 Y121.96 E1513.036
		G1 X81.88 Y118.65 E1513.27
		G1 X78.56 Y115.33 E1513.504
		G1 X75.25 Y112.02 E1513.738
		G1 X71.93 Y108.7 E1513.972
		G1 X68.62 Y105.39 E1514.205
		G1 X65.3 Y102.07 E1514.439
		G1 X61.99 Y98.76 E1514.673
		G1 X58.67 Y95.44 E1514.907
		G1 X58.81 Y95.02 F9000
		G1 X62.11 Y98.32 E1515.14 F3600
		G1 X65.42 Y101.62 E1515.373
		G1 X68.72 Y104.93 E1515.606
		G1 X72.02 Y108.23 E1515.839
		G1 X75.32 Y111.53 E1516.072
		G1 X78.63 Y114.83 E1516.305
		G1 X81.93 Y118.14 E1516.538
		G1 X85.23 Y121.44 E1516.771
		G1 X88.54 Y124.74 E1517.004
		G1 X91.84 Y128.04 E1517.237
		G1 X95.14 Y131.34 E1517.47
		G1 X98.44 Y134.65 E1517.703
		G1 X101.75 Y137.95 E1517.936
		G1 X105.05 Y141.25 E1518.169
		G1 X105.26 Y140.9 F9000
		G1 X101.95 Y137.59 E1518.402 F3600
		G1 X98.65 Y134.29 E1518.636
		G1 X95.34 Y130.98 E1518.869
		G1 X92.03 Y127.67 E1519.102
		G1 X88.72 Y124.36 E1519.335
		G1 X85.42 Y121.06 E1519.569
		G1 X82.11 Y117.75 E1519.802
		G1 X78.8 Y114.44 E1520.035
		G1 X75.5 Y111.14 E1520.269
		G1 X72.19 Y107.83 E1520.502
		G1 X68.88 Y104.52 E1520.735
		G1 X65.57 Y101.21 E1520.968
		G1 X62.27 Y97.91 E1521.202
		G1 X58.96 Y94.6 E1521.435
		G1 X59.12 Y94.2 F9000
		G1 X62.43 Y97.51 E1521.669 F3600
		G1 X65.75 Y100.83 E1521.903
		G1 X69.06 Y104.14 E1522.136
		G1 X72.37 Y107.45 E1522.37
		G1 X75.69 Y110.77 E1522.604
		G1 X79 Y114.08 E1522.838
		G1 X82.32 Y117.4 E1523.072
		G1 X85.63 Y120.71 E1523.305
		G1 X88.94 Y124.02 E1523.539
		G1 X92.26 Y127.34 E1523.773
		G1 X95.57 Y130.65 E1524.007
		G1 X98.88 Y133.96 E1524.24
		G1 X102.2 Y137.28 E1524.474
		G1 X105.51 Y140.59 E1524.708
		G1 X106.08 F9000
		G1 X102.74 Y137.25 E1524.944 F3600
		G1 X99.4 Y133.91 E1525.18
		G1 X96.06 Y130.56 E1525.415
		G1 X92.71 Y127.22 E1525.651
		G1 X89.37 Y123.88 E1525.887
		G1 X86.03 Y120.54 E1526.123
		G1 X82.69 Y117.2 E1526.359
		G1 X79.35 Y113.85 E1526.594
		G1 X76.01 Y110.51 E1526.83
		G1 X72.67 Y107.17 E1527.066
		G1 X69.32 Y103.83 E1527.302
		G1 X65.98 Y100.48 E1527.537
		G1 X62.64 Y97.14 E1527.773
		G1 X59.3 Y93.8 E1528.009
		G1 X59.47 Y93.42 F9000
		G1 X62.84 Y96.79 E1528.247 F3600
		G1 X66.21 Y100.16 E1528.484
		G1 X69.58 Y103.53 E1528.722
		G1 X72.95 Y106.9 E1528.96
		G1 X76.32 Y110.27 E1529.198
		G1 X79.69 Y113.64 E1529.435
		G1 X83.06 Y117.01 E1529.673
		G1 X86.43 Y120.37 E1529.911
		G1 X89.8 Y123.74 E1530.148
		G1 X93.17 Y127.11 E1530.386
		G1 X96.54 Y130.48 E1530.624
		G1 X99.91 Y133.85 E1530.862
		G1 X103.28 Y137.22 E1531.099
		G1 X106.65 Y140.59 E1531.337
		G1 X107.21 F9000
		G1 X103.81 Y137.19 E1531.577 F3600
		G1 X100.42 Y133.8 E1531.816
		G1 X97.02 Y130.4 E1532.056
		G1 X93.62 Y127 E1532.296
		G1 X90.23 Y123.6 E1532.535
		G1 X86.83 Y120.21 E1532.775
		G1 X83.44 Y116.81 E1533.015
		G1 X80.04 Y113.41 E1533.254
		G1 X76.64 Y110.02 E1533.494
		G1 X73.25 Y106.62 E1533.733
		G1 X69.85 Y103.22 E1533.973
		G1 X66.45 Y99.82 E1534.213
		G1 X63.06 Y96.43 E1534.452
		G1 X59.66 Y93.03 E1534.692
		G1 X59.85 Y92.66 F9000
		G1 X63.27 Y96.08 E1534.934 F3600
		G1 X66.7 Y99.51 E1535.175
		G1 X70.12 Y102.93 E1535.417
		G1 X73.54 Y106.35 E1535.658
		G1 X76.97 Y109.78 E1535.9
		G1 X80.39 Y113.2 E1536.141
		G1 X83.82 Y116.63 E1536.383
		G1 X87.24 Y120.05 E1536.625
		G1 X90.66 Y123.47 E1536.866
		G1 X94.09 Y126.9 E1537.108
		G1 X97.51 Y130.32 E1537.349
		G1 X100.93 Y133.74 E1537.591
		G1 X104.36 Y137.17 E1537.832
		G1 X107.78 Y140.59 E1538.074
		G1 X108.34 F9000
		G1 X104.89 Y137.14 E1538.317 F3600
		G1 X101.44 Y133.69 E1538.561
		G1 X97.99 Y130.24 E1538.804
		G1 X94.54 Y126.79 E1539.047
		G1 X91.09 Y123.34 E1539.291
		G1 X87.64 Y119.89 E1539.534
		G1 X84.2 Y116.45 E1539.778
		G1 X80.75 Y113 E1540.021
		G1 X77.3 Y109.55 E1540.264
		G1 X73.85 Y106.1 E1540.508
		G1 X70.4 Y102.65 E1540.751
		G1 X66.95 Y99.2 E1540.994
		G1 X63.5 Y95.75 E1541.238
		G1 X60.05 Y92.3 E1541.481
		G1 X60.25 Y91.93 F9000
		G1 X63.73 Y95.41 E1541.726 F3600
		G1 X67.2 Y98.88 E1541.971
		G1 X70.68 Y102.36 E1542.217
		G1 X74.15 Y105.83 E1542.462
		G1 X77.63 Y109.31 E1542.707
		G1 X81.1 Y112.78 E1542.952
		G1 X84.58 Y116.26 E1543.198
		G1 X88.06 Y119.74 E1543.443
		G1 X91.53 Y123.21 E1543.688
		G1 X95.01 Y126.69 E1543.933
		G1 X98.48 Y130.16 E1544.178
		G1 X101.96 Y133.64 E1544.424
		G1 X105.43 Y137.11 E1544.669
		G1 X108.91 Y140.59 E1544.914
		G1 X109.47 F9000
		G1 X105.97 Y137.09 E1545.161 F3600
		G1 X102.47 Y133.59 E1545.408
		G1 X98.97 Y130.08 E1545.655
		G1 X95.46 Y126.58 E1545.902
		G1 X91.96 Y123.08 E1546.149
		G1 X88.46 Y119.58 E1546.396
		G1 X84.96 Y116.08 E1546.644
		G1 X81.46 Y112.57 E1546.891
		G1 X77.96 Y109.07 E1547.138
		G1 X74.46 Y105.57 E1547.385
		G1 X70.95 Y102.07 E1547.632
		G1 X67.45 Y98.56 E1547.879
		G1 X63.95 Y95.06 E1548.126
		G1 X60.45 Y91.56 E1548.373
		G1 X60.66 Y91.21 F9000
		G1 X64.19 Y94.74 E1548.622 F3600
		G1 X67.71 Y98.26 E1548.871
		G1 X71.24 Y101.79 E1549.12
		G1 X74.77 Y105.32 E1549.368
		G1 X78.3 Y108.85 E1549.617
		G1 X81.82 Y112.37 E1549.866
		G1 X85.35 Y115.9 E1550.115
		G1 X88.88 Y119.43 E1550.364
		G1 X92.4 Y122.95 E1550.613
		G1 X95.93 Y126.48 E1550.862
