; Generated with MatterSlice 2.20.4
; filamentDiameter = 1.75
; extrusionWidth = 0.4
; firstLayerExtrusionWidth = 0.4
; layerThickness = 0.3
; firstLayerThickness = 0.3
; automatic settings before start_gcode
G21 ; set units to millimeters
M107 ; fan off
M140 S25 ; start heating the bed
M104 T0 S210 ; start heating T0
M190 S25 ; wait for bed temperature to be reached
T0 ; set the active extruder to 0
; settings from start_gcode
G28 X0 Y0 Z0 ; home all axes
G1 Z5 F5000
M109 S210 ; set the extruder temp and wait
G28 X0 Y0 Z0 ; Home Z again in case there was filament on nozzle
G29 ; probe the bed
; automatic settings after start_gcode
T0 ; set the active extruder to 0
G90 ; use absolute coordinates
G92 E0 ; reset the expected extruder position
M82 ; use absolute distance for extrusion
; Layer count: 68
; Layer Change GCode
; LAYER:0
; LAYER_HEIGHT:0.3
; TYPE:FILL
M400
M107
G1 X0 Y0 Z0.8 F9000
G1 X45.69 Y68.98
G1 X63.35 Y78.41
; TYPE:SKIRT
G1 Z0.3
G1 F1800
G1 X64.56 Y77.51 E0.075 F1080
G1 X65.81 Y76.63 E0.151
G1 X67.13 Y75.79 E0.229
G1 X68.5 Y74.98 E0.308
G1 X69.92 Y74.22 E0.389
G1 X71.39 Y73.51 E0.47
G1 X73.25 Y72.7 E0.572
G1 X75.11 Y71.99 E0.671
G1 X76.99 Y71.33 E0.77
G1 X78.87 Y70.74 E0.869
G1 X80.75 Y70.21 E0.966
G1 X82.61 Y69.72 E1.062
G1 X84.44 Y69.28 E1.156
G1 X86.25 Y68.87 E1.249
G1 X87.7 Y68.57 E1.323
G1 X89.12 Y68.3 E1.395
G1 X90.47 Y68.06 E1.463
G1 X93.17 Y67.6 E1.6
G1 X95.3 Y67.27 E1.707
G1 X97.29 Y67.04 E1.807
G1 X98.61 Y66.93 E1.873
G1 X100.91 Y66.79 E1.988
G1 X111.05 Y66.37 E2.494
G1 X113.97 Y66.29 E2.64
G1 X115.96 Y66.34 E2.74
G1 X127.05 Y66.79 E3.293
G1 X129.36 Y66.92 E3.409
G1 X130.65 Y67.04 E3.474
G1 X132.01 Y67.19 E3.542
G1 X134.1 Y67.48 E3.647
G1 X137.49 Y68.06 E3.819
G1 X138.84 Y68.29 E3.887
G1 X140.25 Y68.56 E3.959
G1 X141.7 Y68.86 E4.032
G1 X143.51 Y69.27 E4.125
G1 X145.34 Y69.71 E4.219
G1 X147.2 Y70.19 E4.315
G1 X149.07 Y70.73 E4.412
G1 X150.95 Y71.31 E4.51
G1 X152.84 Y71.97 E4.61
G1 X154.71 Y72.69 E4.71
G1 X156.58 Y73.49 E4.811
G1 X158.04 Y74.2 E4.892
G1 X159.46 Y74.96 E4.973
G1 X160.83 Y75.76 E5.052
G1 X162.15 Y76.6 E5.13
G1 X163.41 Y77.48 E5.206
G1 X164.61 Y78.38 E5.281
G1 X165.73 Y79.28 E5.353
G1 X184.66 Y95.08 E6.583
G1 X185.18 Y149.92 E9.319
G1 Y172.02 E10.422
G1 X127.34 Y187.71 E13.412
G1 X100.66 E14.743
G1 X42.82 Y172.02 E17.733
G1 Y149.92 E18.836
G1 X43.34 Y95.08 E21.572
G1 X62.24 Y79.3 E22.8
G1 X63.35 Y78.41 E22.871
G1 X63.6 Y78.72 F9000
G1 X64.79 Y77.83 E22.946 F1080
G1 X66.03 Y76.96 E23.021
G1 X67.34 Y76.13 E23.099
G1 X68.69 Y75.33 E23.177
G1 X70.1 Y74.58 E23.257
G1 X71.56 Y73.87 E23.337
G1 X73.4 Y73.07 E23.438
G1 X75.25 Y72.36 E23.536
G1 X77.12 Y71.71 E23.635
G1 X78.98 Y71.13 E23.733
G1 X80.85 Y70.59 E23.83
G1 X82.7 Y70.11 E23.925
G1 X84.53 Y69.67 E24.019
G1 X86.34 Y69.26 E24.111
G1 X87.78 Y68.96 E24.185
G1 X89.19 Y68.69 E24.257
G1 X90.53 Y68.46 E24.325
G1 X93.24 Y68 E24.461
G1 X95.35 Y67.67 E24.568
G1 X97.33 Y67.44 E24.667
G1 X98.64 Y67.32 E24.733
G1 X100.93 Y67.19 E24.848
G1 X111.06 Y66.77 E25.353
G1 X113.97 Y66.69 E25.499
G1 X115.95 Y66.74 E25.597
G1 X127.03 Y67.19 E26.151
G1 X129.33 Y67.32 E26.265
G1 X130.62 Y67.44 E26.33
G1 X131.96 Y67.58 E26.397
G1 X134.03 Y67.88 E26.502
G1 X137.42 Y68.45 E26.673
G1 X138.76 Y68.68 E26.741
G1 X140.18 Y68.95 E26.813
G1 X141.62 Y69.25 E26.886
G1 X143.42 Y69.66 E26.978
G1 X145.24 Y70.1 E27.072
G1 X147.09 Y70.58 E27.168
G1 X148.96 Y71.11 E27.264
G1 X150.83 Y71.69 E27.362
G1 X152.7 Y72.34 E27.461
G1 X154.56 Y73.06 E27.56
G1 X156.41 Y73.85 E27.661
G1 X157.86 Y74.55 E27.741
G1 X159.27 Y75.31 E27.821
G1 X160.62 Y76.1 E27.899
G1 X161.93 Y76.94 E27.976
G1 X163.17 Y77.8 E28.052
G1 X164.37 Y78.7 E28.126
G1 X165.47 Y79.59 E28.197
G1 X184.26 Y95.27 E29.418
G1 X184.78 Y149.92 E32.145
G1 Y171.72 E33.233
G1 X127.29 Y187.31 E36.204
G1 X100.71 E37.53
G1 X43.22 Y171.72 E40.502
G1 Y149.92 E41.59
G1 X43.74 Y95.27 E44.317
G1 X62.5 Y79.61 E45.536
G1 X63.6 Y78.72 E45.606
G1 E42.606 F1800
G1 Z0.8
G1 X67.37 Y83.44 F9000
G1 X65.3 Y85.58
G1 X57.54 Y98.01
; TYPE:WALL-OUTER
G1 Z0.3
G1 E45.606 F1800
G1 X57.53 Y97.4 E45.637 F1080
G1 X57.57 Y97.04 E45.655
G1 X57.82 Y95.76 E45.72
G1 X58 Y95.12 E45.753
G1 X58.21 Y94.5 E45.786
G1 X58.45 Y93.87 E45.819
G1 X58.74 Y93.24 E45.854
G1 X59.05 Y92.6 E45.889
G1 X59.77 Y91.26 E45.965
G1 X60.34 Y90.31 E46.02
G1 X60.96 Y89.39 E46.076
G1 X61.61 Y88.5 E46.131
G1 X62.29 Y87.66 E46.185
G1 X63 Y86.85 E46.238
G1 X63.7 Y86.1 E46.29
G1 X64.42 Y85.39 E46.34
G1 X65.11 Y84.75 E46.387
G1 X66.05 Y83.94 E46.449
G1 X67.04 Y83.14 E46.513
G1 X68.08 Y82.37 E46.577
G1 X69.15 Y81.62 E46.642
G1 X70.27 Y80.9 E46.709
G1 X71.44 Y80.21 E46.776
G1 X72.64 Y79.57 E46.844
G1 X73.88 Y78.97 E46.913
G1 X75.52 Y78.26 E47.002
G1 X77.18 Y77.62 E47.091
G1 X78.87 Y77.03 E47.18
G1 X80.6 Y76.49 E47.271
G1 X82.32 Y75.99 E47.36
G1 X84.07 Y75.54 E47.45
G1 X85.8 Y75.12 E47.539
G1 X87.52 Y74.74 E47.627
G1 X88.88 Y74.45 E47.696
G1 X90.2 Y74.2 E47.763
G1 X91.48 Y73.98 E47.828
G1 X92.73 Y73.78 E47.891
G1 X94.13 Y73.52 E47.963
G1 X96.1 Y73.22 E48.062
G1 X97.91 Y73.01 E48.152
G1 X99.05 Y72.91 E48.21
G1 X101.22 Y72.78 E48.318
G1 X103.16 Y72.71 E48.415
G1 X111.25 Y72.37 E48.819
G1 X113.99 Y72.29 E48.956
G1 X115.77 Y72.33 E49.045
G1 X126.75 Y72.78 E49.593
G1 X128.92 Y72.91 E49.701
G1 X130.06 Y73.01 E49.758
G1 X131.26 Y73.14 E49.819
G1 X133.17 Y73.41 E49.915
G1 X135.24 Y73.78 E50.02
G1 X136.48 Y73.97 E50.082
G1 X137.76 Y74.19 E50.147
G1 X139.08 Y74.44 E50.214
G1 X142.15 Y75.11 E50.371
G1 X143.88 Y75.53 E50.46
G1 X145.62 Y75.98 E50.55
G1 X147.35 Y76.47 E50.639
G1 X149.08 Y77.01 E50.73
G1 X150.77 Y77.6 E50.819
G1 X152.45 Y78.25 E50.908
G1 X154.09 Y78.95 E50.998
G1 X155.33 Y79.55 E51.066
G1 X156.53 Y80.19 E51.134
G1 X157.69 Y80.87 E51.201
G1 X158.81 Y81.59 E51.268
G1 X159.89 Y82.34 E51.334
G1 X160.93 Y83.12 E51.398
G1 X161.92 Y83.91 E51.461
G1 X162.86 Y84.73 E51.524
G1 X163.56 Y85.37 E51.571
G1 X164.28 Y86.08 E51.621
G1 X164.98 Y86.83 E51.673
G1 X165.68 Y87.63 E51.725
G1 X166.37 Y88.48 E51.78
G1 X167.02 Y89.36 E51.835
G1 X167.65 Y90.29 E51.891
G1 X168.22 Y91.24 E51.946
G1 X168.94 Y92.58 E52.022
G1 X169.26 Y93.22 E52.058
G1 X169.55 Y93.87 E52.093
G1 X169.79 Y94.5 E52.127
G1 X170 Y95.12 E52.159
G1 X170.18 Y95.74 E52.192
G1 X170.31 Y96.37 E52.224
G1 X170.43 Y97.04 E52.258
G1 X170.47 Y97.4 E52.276
G1 X170.46 Y98.01 E52.306
G1 X178.69 E52.717
G1 Y115.2 E53.574
G1 X171.07 E53.954
G1 Y150.14 E55.697
G1 X179.18 E56.102
G1 Y167.39 E56.962
G1 X139.4 E58.947
G1 X139.38 Y160.02 E59.314
G1 X139.08 Y159.94 E59.33
G1 X126.46 Y181.71 E60.585
G1 X101.54 E61.828
G1 X88.92 Y159.94 E63.083
G1 X88.62 Y160.02 E63.099
G1 X88.6 Y167.39 E63.466
G1 X48.82 E65.451
G1 Y150.14 E66.311
G1 X56.93 E66.716
G1 Y115.2 E68.459
G1 X49.31 E68.839
G1 Y98.01 E69.696
G1 X57.5 E70.105
G1 X57.54
G1 X57.53 Y97.4
G1 X57.57 Y97.04
G1 X57.82 Y95.76
G1 X58 Y95.12
G1 X58.02 Y95.06
G1 X57.95 Y98.41 F9000
; TYPE:WALL-INNER
G1 X57.93 Y97.41 E70.155 F1080
G1 X57.96 Y97.09 E70.171
G1 X58.21 Y95.84 E70.234
G1 X58.38 Y95.24 E70.266
G1 X58.58 Y94.63 E70.297
G1 X58.82 Y94.03 E70.33
G1 X59.1 Y93.4 E70.364
G1 X59.41 Y92.78 E70.399
G1 X60.11 Y91.47 E70.473
G1 X60.68 Y90.52 E70.528
G1 X61.28 Y89.63 E70.582
G1 X61.93 Y88.74 E70.636
G1 X62.59 Y87.92 E70.689
G1 X63.3 Y87.11 E70.743
G1 X64 Y86.37 E70.794
G1 X64.7 Y85.68 E70.843
G1 X65.38 Y85.05 E70.889
G1 X66.3 Y84.25 E70.95
G1 X67.29 Y83.45 E71.013
G1 X68.32 Y82.69 E71.077
G1 X69.36 Y81.96 E71.141
G1 X70.47 Y81.24 E71.206
G1 X71.64 Y80.55 E71.274
G1 X72.83 Y79.92 E71.341
G1 X74.04 Y79.33 E71.409
G1 X75.67 Y78.63 E71.497
G1 X77.31 Y78 E71.585
G1 X79.01 Y77.41 E71.674
G1 X80.7 Y76.88 E71.763
G1 X82.43 Y76.38 E71.853
G1 X84.17 Y75.93 E71.942
G1 X85.89 Y75.51 E72.031
G1 X88.96 Y74.84 E72.187
G1 X90.27 Y74.59 E72.254
G1 X91.54 Y74.37 E72.319
G1 X92.8 Y74.18 E72.382
G1 X94.2 Y73.92 E72.453
G1 X96.15 Y73.62 E72.551
G1 X97.94 Y73.41 E72.641
G1 X99.09 Y73.31 E72.699
G1 X101.23 Y73.18 E72.806
G1 X103.18 Y73.11 E72.903
G1 X111.26 Y72.77 E73.307
G1 X113.99 Y72.69 E73.443
G1 X115.76 Y72.73 E73.531
G1 X126.74 Y73.18 E74.079
G1 X128.88 Y73.31 E74.187
G1 X130.03 Y73.41 E74.244
G1 X131.21 Y73.54 E74.303
G1 X133.1 Y73.8 E74.399
G1 X135.17 Y74.17 E74.504
G1 X136.42 Y74.36 E74.566
G1 X137.69 Y74.59 E74.631
G1 X138.99 Y74.83 E74.697
G1 X140.34 Y75.12 E74.766
G1 X142.06 Y75.5 E74.854
G1 X143.78 Y75.92 E74.942
G1 X145.52 Y76.37 E75.032
G1 X147.23 Y76.86 E75.12
G1 X148.96 Y77.4 E75.211
G1 X150.63 Y77.97 E75.299
G1 X152.3 Y78.62 E75.388
G1 X153.91 Y79.31 E75.475
G1 X155.15 Y79.91 E75.544
G1 X156.34 Y80.54 E75.612
G1 X157.48 Y81.21 E75.677
G1 X158.6 Y81.93 E75.744
G1 X159.65 Y82.66 E75.808
G1 X160.69 Y83.44 E75.872
G1 X161.65 Y84.22 E75.934
G1 X162.6 Y85.03 E75.997
G1 X163.3 Y85.67 E76.044
G1 X163.98 Y86.35 E76.092
G1 X164.68 Y87.09 E76.143
G1 X165.38 Y87.89 E76.196
G1 X166.06 Y88.73 E76.249
G1 X166.69 Y89.59 E76.303
G1 X167.31 Y90.51 E76.358
G1 X167.87 Y91.43 E76.412
G1 X168.59 Y92.78 E76.488
G1 X168.89 Y93.39 E76.522
G1 X169.18 Y94.03 E76.557
G1 X169.42 Y94.63 E76.589
G1 X169.62 Y95.24 E76.621
G1 X169.79 Y95.83 E76.652
G1 X170.04 Y97.1 E76.716
G1 X170.07 Y97.41 E76.732
G1 X170.05 Y98.41 E76.782
G1 X178.29 E77.193
G1 Y114.8 E78.01
G1 X170.67 E78.39
G1 Y150.54 E80.173
G1 X178.78 E80.578
G1 Y166.99 E81.398
G1 X139.79 E83.343
G1 X139.78 Y159.71 E83.706
G1 X138.89 Y159.48 E83.752
G1 X126.22 Y181.31 E85.011
G1 X101.78 E86.231
G1 X89.11 Y159.48 E87.49
G1 X88.22 Y159.71 E87.536
G1 X88.21 Y166.99 E87.899
G1 X49.22 E89.844
G1 Y150.54 E90.664
G1 X57.33 E91.069
G1 Y114.8 E92.852
G1 X49.71 E93.232
G1 Y98.41 E94.049
G1 X57.91 E94.458
G1 X57.95
G1 E91.458 F1800
G1 Z0.8
G1 X90.63 Y115.2 F9000
; TYPE:WALL-OUTER
G1 Z0.3
G1 E94.458 F1800
G1 X95.58 Y123.93 E94.959 F1080
G1 X132.37 E96.794
G1 X137.48 Y115.4 E97.29
G1 X137.37 Y115.2 E97.302
G1 X126.77 E97.83
G1 Y98.01 E98.688
G1 X144.15 E99.555
G1 X144.24 Y97.74 E99.569
G1 X143.77 Y97.4 E99.598
G1 X143.04 Y96.9 E99.643
G1 X141.98 Y96.27 E99.704
G1 X140.82 Y95.66 E99.77
G1 X139.59 Y95.09 E99.837
G1 X138.93 Y94.82 E99.873
G1 X137.74 Y94.4 E99.936
G1 X136.94 Y94.16 E99.977
G1 X136.08 Y93.93 E100.022
G1 X135.16 Y93.71 E100.069
G1 X134.19 Y93.51 E100.118
G1 X130.4 Y92.63 E100.312
G1 X129.27 Y92.4 E100.37
G1 X127.47 Y92.1 E100.461
G1 X126.18 Y91.94 E100.526
G1 X124.75 Y91.81 E100.598
G1 X122.71 Y91.68 E100.7
G1 X120.07 Y91.57 E100.831
G1 X116.84 Y91.49 E100.993
G1 X111.23 Y91.49 E101.272
G1 X108.09 Y91.56 E101.429
G1 X105.45 Y91.67 E101.561
G1 X103.34 Y91.8 E101.666
G1 X101.9 Y91.93 E101.738
G1 X100.6 Y92.09 E101.804
G1 X98.86 Y92.37 E101.892
G1 X97.73 Y92.6 E101.949
G1 X96.59 Y92.85 E102.008
G1 X94.07 Y93.45 E102.137
G1 X92.98 Y93.68 E102.192
G1 X92.05 Y93.89 E102.24
G1 X91.18 Y94.12 E102.285
G1 X90.31 Y94.38 E102.33
G1 X89.07 Y94.82 E102.396
G1 X87.89 Y95.32 E102.46
G1 X86.67 Y95.92 E102.528
G1 X85.46 Y96.6 E102.597
G1 X84.63 Y97.12 E102.646
G1 X83.77 Y97.72 E102.698
G1 X83.86 Y98 E102.713
G1 X101.23 Y98.01 E103.579
G1 Y115.2 E104.437
G1 X90.67 E104.963
G1 X90.63
G1 X92.11 Y117.81
G1 X89.94 Y114.8 F9000
; TYPE:WALL-INNER
G1 X95.35 Y124.33 E105.51 F1080
G1 X132.6 E107.369
G1 X137.94 Y115.41 E107.887
G1 X137.6 Y114.8 E107.922
G1 X127.17 E108.443
G1 Y98.41 E109.26
G1 X144.44 E110.122
G1 X144.71 Y97.58 E110.165
G1 X144 Y97.07 E110.209
G1 X143.25 Y96.56 E110.254
G1 X142.18 Y95.92 E110.316
G1 X140.99 Y95.3 E110.383
G1 X139.75 Y94.72 E110.451
G1 X139.07 Y94.45 E110.488
G1 X137.86 Y94.02 E110.552
G1 X137.05 Y93.77 E110.595
G1 X136.18 Y93.54 E110.64
G1 X135.25 Y93.32 E110.687
G1 X134.26 Y93.12 E110.737
G1 X130.49 Y92.24 E110.931
G1 X129.34 Y92.01 E110.989
G1 X127.53 Y91.71 E111.081
G1 X126.22 Y91.54 E111.146
G1 X124.78 Y91.41 E111.219
G1 X122.73 Y91.28 E111.321
G1 X120.08 Y91.17 E111.453
G1 X116.84 Y91.09 E111.615
G1 X111.23 Y91.09 E111.895
G1 X108.07 Y91.16 E112.053
G1 X105.43 Y91.27 E112.185
G1 X103.31 Y91.41 E112.291
G1 X101.86 Y91.54 E112.363
G1 X100.55 Y91.7 E112.429
G1 X98.79 Y91.98 E112.518
G1 X97.65 Y92.21 E112.576
G1 X96.5 Y92.46 E112.635
G1 X93.99 Y93.06 E112.764
G1 X92.89 Y93.29 E112.819
G1 X91.96 Y93.5 E112.867
G1 X91.07 Y93.74 E112.913
G1 X90.19 Y94 E112.959
G1 X88.92 Y94.45 E113.026
G1 X87.72 Y94.96 E113.091
G1 X86.48 Y95.56 E113.16
G1 X85.25 Y96.25 E113.23
G1 X84.4 Y96.79 E113.28
G1 X83.3 Y97.57 E113.348
G1 X83.57 Y98.4 E113.391
G1 X100.83 Y98.41 E114.253
G1 Y114.8 E115.07
G1 X89.98 E115.611
G1 X89.94
G1 X98.24 Y112.02 F9000
; TYPE:WALL-OUTER
G1 Y111.58 E115.633 F1080
G1 X84.53 Y111.58 E116.317
G1 X84.41 Y111.78 E116.329
G1 X84.55 Y112.02 E116.343
G1 X98.2 E117.024
G1 X98.24 Y112.02
G1 Y111.58
G1 X95.68
G1 X98.64 Y112.42 F9000
; TYPE:WALL-INNER
G1 Y111.18 E117.086 F1080
G1 X84.3 Y111.18 E117.802
G1 X83.95 Y111.78 E117.836
G1 X84.32 Y112.42 E117.873
G1 X98.6 E118.586
G1 X98.64 Y112.42
G1 E115.586 F1800
G1 Z0.8
G1 X92.74 Y114.41 F9000
G1 X90.52 Y114.95
G1 X91.32 Y117.66
G1 X95.25 Y124.18
G1 X96.6 Y125.31
G1 X105.61 Y141.11
G1 X105.76 Y142.61
G1 X113.42 Y155.63
G1 X114.02 Y155.86
; TYPE:WALL-OUTER
G1 Z0.3
G1 E118.586 F1800
G1 X122.43 Y141.53 E119.414 F1080
G1 X122.31 Y141.33 E119.426
G1 X105.86 E120.246
G1 X105.75 Y141.53 E120.258
G1 X114 Y155.82 E121.081
G1 X114.02 Y155.86
G1 X115.54 Y153.27
G1 X114.02 Y156.65 F9000
; TYPE:WALL-INNER
G1 X122.89 Y141.53 E121.956 F1080
G1 X122.54 Y140.93 E121.991
G1 X105.63 E122.834
G1 X105.29 Y141.53 E122.869
G1 X114 Y156.62 E123.738
G1 X114.02 Y156.65
G1 E120.738 F1800
G1 Z0.8
G1 X147.39 Y150.67 F9000
G1 X148.58 Y150.14
; TYPE:WALL-OUTER
G1 Z0.3
G1 E123.738 F1800
G1 Y144.06 E124.042 F1080
G1 X148.29 Y143.97 E124.057
G1 X144.63 Y149.94 E124.406
G1 X144.74 Y150.14 E124.418
G1 X148.54 E124.608
G1 X148.58
G1 Y147.14
G1 X148.98 Y150.54 F9000
; TYPE:WALL-INNER
G1 Y143.75 E124.947 F1080
G1 X148.11 Y143.51 E124.992
G1 X144.16 Y149.93 E125.368
G1 X144.51 Y150.54 E125.403
G1 X148.94 E125.624
G1 X148.98
G1 E122.624 F1800
G1 Z0.8
G1 X149.19 Y144.84 F9000
G1 X147.07 Y140.82
G1 X137.62 Y116.11
G1 X138 Y115.4
G1 X136.1 Y114.43
G1 X132.64 Y113.32
G1 X129.76 Y112.02
; TYPE:WALL-OUTER
G1 Z0.3
G1 E125.624 F1800
G1 X143.84 E126.327 F1080
G1 X143.98 Y111.8 E126.34
G1 X143.87 Y111.59 E126.352
G1 X129.76 Y111.62 E127.055
G1 Y111.98 E127.073
G1 Y112.02
G1 X132.76
G1 X129.36 Y112.42 F9000
; TYPE:WALL-INNER
G1 X144.07 E127.807 F1080
G1 X144.44 Y111.8 E127.843
G1 X144.1 Y111.19 E127.878
G1 X129.36 Y111.22 E128.614
G1 X129.36 Y112.38 E128.671
G1 X129.36 Y112.42
G1 E125.671 F1800
G1 Z0.8
G1 X135.56 Y114.46 F9000
G1 X136.69 Y114.44
G1 X138 Y115.4
G1 X133.02 Y123.66
G1 X131.19 Y124.6
G1 X83.83 Y149.66
G1 X82.52 Y150.73
G1 X80.04 Y150.71
G1 X79.42 Y150.14
; TYPE:WALL-OUTER
G1 Z0.3
G1 E128.671 F1800
G1 X83.26 E128.863 F1080
G1 X83.37 Y149.94 E128.875
G1 X79.71 Y143.97 E129.224
G1 X79.42 Y144.06 E129.239
G1 Y150.1 E129.541
G1 Y150.14
G1 X82.42
G1 X79.02 Y150.54 F9000
; TYPE:WALL-INNER
G1 X83.49 E129.764 F1080
G1 X83.84 Y149.93 E129.799
G1 X79.89 Y143.51 E130.175
G1 X79.02 Y143.75 E130.221
G1 Y150.5 E130.557
G1 Y150.54
G1 X78.68 Y150.4 F9000
; TYPE:FILL
G1 X57.66 E131.606 F1080
G1 Y150 F9000
G1 X78.68 E132.654 F1080
G1 Y149.6 F9000
G1 X57.66 E133.702 F1080
G1 Y149.2 F9000
G1 X78.68 E134.751 F1080
G1 Y148.8 F9000
G1 X57.66 E135.799 F1080
G1 Y148.4 F9000
G1 X78.68 E136.847 F1080
G1 Y148 F9000
G1 X57.66 E137.896 F1080
G1 Y147.6 F9000
G1 X78.68 E138.944 F1080
G1 Y147.2 F9000
G1 X57.66 E139.992 F1080
G1 Y146.8 F9000
G1 X78.68 E141.041 F1080
G1 Y146.4 F9000
G1 X57.66 E142.089 F1080
G1 Y146 F9000
G1 X78.68 E143.137 F1080
G1 Y145.6 F9000
G1 X57.66 E144.186 F1080
G1 Y145.2 F9000
G1 X78.68 E145.234 F1080
G1 Y144.8 F9000
G1 X57.66 E146.282 F1080
G1 Y144.4 F9000
G1 X78.68 E147.331 F1080
G1 Y144 F9000
G1 X57.66 E148.379 F1080
G1 Y143.6 F9000
G1 X78.68 E149.428 F1080
G1 X79.72 Y143.2 F9000
G1 X57.66 Y143.2 E150.528 F1080
G1 Y142.8 F9000
G1 X105.63 Y142.8 E152.921 F1080
G1 X105.86 Y143.2 F9000
G1 X80.1 E154.206 F1080
G1 X80.35 Y143.6 F9000
G1 X106.09 E155.49 F1080
G1 X106.32 Y144 F9000
G1 X80.59 E156.773 F1080
G1 X80.84 Y144.4 F9000
G1 X106.55 E158.056 F1080
G1 X106.78 Y144.8 F9000
G1 X81.09 E159.338 F1080
G1 X81.33 Y145.2 F9000
G1 X107.01 E160.619 F1080
G1 X107.24 Y145.6 F9000
G1 X81.58 E161.9 F1080
G1 X81.82 Y146 F9000
G1 X107.47 E163.179 F1080
G1 X107.71 Y146.4 F9000
G1 X82.07 E164.458 F1080
G1 X82.31 Y146.8 F9000
G1 X107.94 E165.737 F1080
G1 X108.17 Y147.2 F9000
G1 X82.56 E167.014 F1080
G1 X82.81 Y147.6 F9000
G1 X108.4 E168.291 F1080
G1 X108.63 Y148 F9000
G1 X83.05 E169.567 F1080
G1 X83.3 Y148.4 F9000
G1 X108.86 E170.843 F1080
G1 X109.09 Y148.8 F9000
G1 X83.54 E172.117 F1080
G1 X83.79 Y149.2 F9000
G1 X109.32 E173.391 F1080
G1 X109.55 Y149.6 F9000
G1 X84.03 E174.664 F1080
G1 X84.19 Y150 F9000
G1 X109.78 E175.942 F1080
G1 X110.02 Y150.4 F9000
G1 X83.96 E177.241 F1080
G1 X83.74 Y150.8 F9000
G1 X110.25 E178.564 F1080
G1 X110.48 Y151.2 F9000
G1 X49.56 Y151.2 E181.603 F1080
G1 Y151.6 F9000
G1 X110.71 Y151.6 E184.654 F1080
G1 X110.94 Y152 F9000
G1 X49.56 Y152 E187.716 F1080
G1 Y152.4 F9000
G1 X111.17 Y152.4 E190.79 F1080
G1 X111.4 Y152.8 F9000
G1 X49.56 Y152.8 E193.875 F1080
G1 Y153.2 F9000
G1 X111.63 Y153.2 E196.972 F1080
G1 X111.86 Y153.6 F9000
G1 X49.56 Y153.6 E200.08 F1080
G1 Y154 F9000
G1 X112.09 Y154 E203.2 F1080
G1 X112.33 Y154.4 F9000
G1 X49.56 Y154.4 E206.332 F1080
G1 Y154.8 F9000
G1 X112.56 Y154.8 E209.475 F1080
G1 X112.79 Y155.2 F9000
G1 X49.56 Y155.2 E212.629 F1080
G1 Y155.6 F9000
G1 X113.02 Y155.6 E215.795 F1080
G1 X113.25 Y156 F9000
G1 X49.56 Y156 E218.972 F1080
G1 Y156.4 F9000
G1 X113.48 Y156.4 E222.161 F1080
G1 X113.71 Y156.8 F9000
G1 X49.56 Y156.8 E225.362 F1080
G1 Y157.2 F9000
G1 X113.94 Y157.2 E228.574 F1080
G1 X114.09 F9000
G1 X178.44 E231.784 F1080
G1 Y157.6 F9000
G1 X49.56 Y157.6 E238.214 F1080
G1 Y158 F9000
G1 X178.44 Y158 E244.644 F1080
G1 Y158.4 F9000
G1 X49.56 Y158.4 E251.074 F1080
G1 Y158.8 F9000
G1 X178.44 Y158.8 E257.504 F1080
G1 Y159.2 F9000
G1 X139.17 E259.463 F1080
G1 X138.66 F9000
G1 X89.34 E261.923 F1080
G1 X89.57 Y159.6 F9000
G1 X138.43 E264.361 F1080
G1 X138.2 Y160 F9000
G1 X89.8 E266.775 F1080
G1 X90.03 Y160.4 F9000
G1 X137.96 E269.166 F1080
G1 X137.73 Y160.8 F9000
G1 X90.27 E271.535 F1080
G1 X90.5 Y161.2 F9000
G1 X137.5 E273.879 F1080
G1 X137.27 Y161.6 F9000
G1 X90.73 E276.201 F1080
G1 X90.96 Y162 F9000
G1 X137.04 E278.5 F1080
G1 X136.8 Y162.4 F9000
G1 X91.2 E280.775 F1080
G1 X91.43 Y162.8 F9000
G1 X136.57 E283.027 F1080
G1 X136.34 Y163.2 F9000
G1 X91.66 E285.256 F1080
G1 X91.89 Y163.6 F9000
G1 X136.11 E287.462 F1080
G1 X135.87 Y164 F9000
G1 X92.12 E289.645 F1080
G1 X92.36 Y164.4 F9000
G1 X135.64 E291.805 F1080
G1 X135.41 Y164.8 F9000
G1 X92.59 E293.941 F1080
G1 X92.82 Y165.2 F9000
G1 X135.18 E296.054 F1080
G1 X134.95 Y165.6 F9000
G1 X93.05 E298.144 F1080
G1 X93.28 Y166 F9000
G1 X134.71 E300.211 F1080
G1 X134.48 Y166.4 F9000
G1 X93.52 E302.255 F1080
G1 X93.75 Y166.8 F9000
G1 X134.25 E304.276 F1080
G1 X134.02 Y167.2 F9000
G1 X93.98 E306.273 F1080
G1 X94.21 Y167.6 F9000
G1 X133.79 E308.247 F1080
G1 X133.55 Y168 F9000
G1 X94.44 E310.199 F1080
G1 X94.68 Y168.4 F9000
G1 X133.32 E312.127 F1080
G1 X133.09 Y168.8 F9000
G1 X94.91 E314.031 F1080
G1 X95.14 Y169.2 F9000
G1 X132.86 E315.913 F1080
G1 X132.62 Y169.6 F9000
G1 X95.37 E317.771 F1080
G1 X95.61 Y170 F9000
G1 X132.39 E319.607 F1080
G1 X132.16 Y170.4 F9000
G1 X95.84 E321.419 F1080
G1 X96.07 Y170.8 F9000
G1 X131.93 E323.208 F1080
G1 X131.7 Y171.2 F9000
G1 X96.3 E324.974 F1080
G1 X96.53 Y171.6 F9000
G1 X131.46 E326.716 F1080
G1 X131.23 Y172 F9000
G1 X96.77 E328.436 F1080
G1 X97 Y172.4 F9000
G1 X131 E330.132 F1080
G1 X130.77 Y172.8 F9000
G1 X97.23 E331.805 F1080
G1 X97.46 Y173.2 F9000
G1 X130.54 E333.455 F1080
G1 X130.3 Y173.6 F9000
G1 X97.69 E335.082 F1080
G1 X97.93 Y174 F9000
G1 X130.07 E336.686 F1080
G1 X129.84 Y174.4 F9000
G1 X98.16 E338.266 F1080
G1 X98.39 Y174.8 F9000
G1 X129.61 E339.824 F1080
G1 X129.37 Y175.2 F9000
G1 X98.62 E341.358 F1080
G1 X98.86 Y175.6 F9000
G1 X129.14 E342.869 F1080
G1 X128.91 Y176 F9000
G1 X99.09 E344.357 F1080
G1 X99.32 Y176.4 F9000
G1 X128.68 E345.822 F1080
G1 X128.45 Y176.8 F9000
G1 X99.55 E347.263 F1080
G1 X99.78 Y177.2 F9000
G1 X128.21 E348.682 F1080
G1 X127.98 Y177.6 F9000
G1 X100.02 E350.077 F1080
G1 X100.25 Y178 F9000
G1 X127.75 E351.449 F1080
G1 X127.52 Y178.4 F9000
G1 X100.48 E352.798 F1080
G1 X100.71 Y178.8 F9000
G1 X127.29 E354.124 F1080
G1 X127.05 Y179.2 F9000
G1 X100.94 E355.426 F1080
G1 X101.18 Y179.6 F9000
G1 X126.82 E356.706 F1080
G1 X126.59 Y180 F9000
G1 X101.41 E357.962 F1080
G1 X101.64 Y180.4 F9000
G1 X126.36 E359.195 F1080
G1 X126.12 Y180.8 F9000
G1 X101.87 E360.405 F1080
G1 E357.405 F1800
G1 Z0.8
G1 X93.69 Y167.09 F9000
G1 X89.6 Y160.24
G1 X88.27 Y160.35
G1 X87.85 Y164.53
G1 X87.87 Y166.4
G1 Z0.3
G1 E360.405 F1800
G1 X49.56 Y166.4 E362.316 F1080
G1 Y166 F9000
G1 X87.87 Y166 E364.227 F1080
G1 X87.87 Y165.6 F9000
G1 X49.56 Y165.6 E366.138 F1080
G1 Y165.2 F9000
G1 X87.87 Y165.2 E368.05 F1080
G1 X87.87 Y164.8 F9000
G1 X49.56 Y164.8 E369.961 F1080
G1 Y164.4 F9000
G1 X87.87 Y164.4 E371.872 F1080
G1 X87.87 Y164 F9000
G1 X49.56 Y164 E373.784 F1080
G1 Y163.6 F9000
G1 X87.87 Y163.6 E375.695 F1080
G1 X87.87 Y163.2 F9000
G1 X49.56 Y163.2 E377.606 F1080
G1 Y162.8 F9000
G1 X87.87 Y162.8 E379.518 F1080
G1 X87.87 Y162.4 F9000
G1 X49.56 Y162.4 E381.429 F1080
G1 Y162 F9000
G1 X87.88 Y162 E383.341 F1080
G1 X87.88 Y161.6 F9000
G1 X49.56 Y161.6 E385.253 F1080
G1 Y161.2 F9000
G1 X87.88 Y161.2 E387.164 F1080
G1 X87.88 Y160.8 F9000
G1 X49.56 Y160.8 E389.076 F1080
G1 Y160.4 F9000
G1 X87.88 Y160.4 E390.988 F1080
G1 X87.88 Y160 F9000
G1 X49.56 Y160 E392.9 F1080
G1 Y159.6 F9000
G1 X87.88 Y159.6 E394.811 F1080
G1 X88.83 Y159.2 F9000
G1 X49.56 Y159.2 E396.771 F1080
G1 X57.66 Y150.8 F9000
G1 X78.68 E397.819 F1080
G1 E394.819 F1800
G1 Z0.8
G1 X57.66 Y142.4 F9000
G1 Z0.3
G1 E397.819 F1800
G1 X105.4 Y142.4 E400.2 F1080
G1 X105.16 Y142 F9000
G1 X57.66 Y142 E402.57 F1080
G1 Y141.6 F9000
G1 X104.93 Y141.6 E404.928 F1080
G1 X105.08 Y141.2 F9000
G1 X57.66 Y141.2 E407.294 F1080
G1 Y140.8 F9000
G1 X105.31 Y140.8 E409.671 F1080
G1 E406.671 F1800
G1 Z0.8
G1 X112.55 Y140.51 F9000
G1 X121.59 Y140.6
G1 X122.95 Y141.53
G1 X119.02 Y148.8
G1 Z0.3
G1 E409.671 F1800
G1 X144.46 E410.94 F1080
G1 X144.7 Y148.4 F9000
G1 X119.25 E412.21 F1080
G1 X119.49 Y148 F9000
G1 X144.95 E413.48 F1080
G1 X145.19 Y147.6 F9000
G1 X119.72 E414.751 F1080
G1 X119.96 Y147.2 F9000
G1 X145.44 E416.022 F1080
G1 X145.68 Y146.8 F9000
G1 X120.19 E417.294 F1080
G1 X120.43 Y146.4 F9000
G1 X145.93 E418.566 F1080
G1 X146.18 Y146 F9000
G1 X120.66 E419.839 F1080
G1 X120.9 Y145.6 F9000
G1 X146.42 E421.112 F1080
G1 X146.67 Y145.2 F9000
G1 X121.13 E422.386 F1080
G1 X121.36 Y144.8 F9000
G1 X146.91 E423.661 F1080
G1 X147.16 Y144.4 F9000
G1 X121.6 E424.936 F1080
G1 X121.83 Y144 F9000
G1 X147.4 E426.212 F1080
G1 X147.65 Y143.6 F9000
G1 X122.07 E427.488 F1080
G1 X122.3 Y143.2 F9000
G1 X147.89 E428.765 F1080
G1 X148.28 F9000
G1 X170.33 E429.865 F1080
G1 Y143.6 F9000
G1 X149.32 E430.913 F1080
G1 Y144 F9000
G1 X170.33 E431.962 F1080
G1 Y144.4 F9000
G1 X149.32 E433.01 F1080
G1 Y144.8 F9000
G1 X170.33 E434.059 F1080
G1 Y145.2 F9000
G1 X149.32 E435.107 F1080
G1 Y145.6 F9000
G1 X170.33 E436.155 F1080
G1 Y146 F9000
G1 X149.32 E437.204 F1080
G1 Y146.4 F9000
G1 X170.33 E438.252 F1080
G1 Y146.8 F9000
G1 X149.32 E439.3 F1080
G1 Y147.2 F9000
G1 X170.33 E440.349 F1080
G1 Y147.6 F9000
G1 X149.32 E441.397 F1080
G1 Y148 F9000
G1 X170.33 E442.445 F1080
G1 Y148.4 F9000
G1 X149.32 E443.494 F1080
G1 Y148.8 F9000
G1 X170.33 E444.542 F1080
G1 Y149.2 F9000
G1 X149.32 E445.59 F1080
G1 Y149.6 F9000
G1 X170.33 E446.639 F1080
G1 Y150 F9000
G1 X149.32 E447.687 F1080
G1 Y150.4 F9000
G1 X170.33 E448.735 F1080
G1 Y150.8 F9000
G1 X149.32 E449.784 F1080
G1 X144.26 F9000
G1 X117.84 E451.101 F1080
G1 X117.61 Y151.2 F9000
G1 X178.44 E454.136 F1080
G1 Y151.6 F9000
G1 X117.38 E457.183 F1080
G1 X117.14 Y152 F9000
G1 X178.44 E460.241 F1080
G1 Y152.4 F9000
G1 X116.91 E463.311 F1080
G1 X116.67 Y152.8 F9000
G1 X178.44 E466.392 F1080
G1 Y153.2 F9000
G1 X116.44 E469.486 F1080
G1 X116.2 Y153.6 F9000
G1 X178.44 E472.591 F1080
G1 Y154 F9000
G1 X115.97 E475.707 F1080
G1 X115.73 Y154.4 F9000
G1 X178.44 E478.836 F1080
G1 Y154.8 F9000
G1 X115.5 E481.976 F1080
G1 X115.26 Y155.2 F9000
G1 X178.44 E485.128 F1080
G1 Y155.6 F9000
G1 X115.03 E488.291 F1080
G1 X114.79 Y156 F9000
G1 X178.44 E491.466 F1080
G1 Y156.4 F9000
G1 X114.56 E494.653 F1080
G1 X114.32 Y156.8 F9000
G1 X178.44 E497.852 F1080
G1 X178.29 F9000
G1 X178.44 Y159.6
G1 X140.12 E499.764 F1080
G1 X140.12 Y160 F9000
G1 X178.44 E501.675 F1080
G1 Y160.4 F9000
G1 X140.12 E503.587 F1080
G1 X140.12 Y160.8 F9000
G1 X178.44 E505.499 F1080
G1 Y161.2 F9000
G1 X140.12 E507.411 F1080
G1 Y161.6 F9000
G1 X178.44 E509.322 F1080
G1 Y162 F9000
G1 X140.12 E511.234 F1080
G1 X140.12 Y162.4 F9000
G1 X178.44 E513.145 F1080
G1 Y162.8 F9000
G1 X140.12 E515.057 F1080
G1 X140.13 Y163.2 F9000
G1 X178.44 E516.968 F1080
G1 Y163.6 F9000
G1 X140.13 E518.88 F1080
G1 Y164 F9000
G1 X178.44 E520.791 F1080
G1 Y164.4 F9000
G1 X140.13 E522.702 F1080
G1 X140.13 Y164.8 F9000
G1 X178.44 E524.614 F1080
G1 Y165.2 F9000
G1 X140.13 E526.525 F1080
G1 X140.13 Y165.6 F9000
G1 X178.44 E528.436 F1080
G1 Y166 F9000
G1 X140.13 E530.347 F1080
G1 Y166.4 F9000
G1 X178.44 E532.258 F1080
G1 E529.258 F1800
G1 Z0.8
G1 X178.29 F9000
G1 X171.52 Y150.66
G1 X170.82 Y150.39
G1 X170.21 Y147.56
G1 X170.33 Y142.8
G1 Z0.3
G1 E532.258 F1800
G1 X122.54 E534.643 F1080
G1 X122.77 Y142.4 F9000
G1 X170.33 E537.016 F1080
G1 Y142 F9000
G1 X123.01 E539.377 F1080
G1 X123.24 Y141.6 F9000
G1 X170.33 E541.726 F1080
G1 Y141.2 F9000
G1 X123.09 E544.083 F1080
G1 X122.86 Y140.8 F9000
G1 X170.33 E546.452 F1080
G1 Y140.4 F9000
G1 X57.66 Y140.4 E552.073 F1080
G1 Y140 F9000
G1 X170.33 Y140 E557.694 F1080
G1 Y139.6 F9000
G1 X57.66 Y139.6 E563.315 F1080
G1 Y139.2 F9000
G1 X170.33 Y139.2 E568.936 F1080
G1 Y138.8 F9000
G1 X57.66 Y138.8 E574.557 F1080
G1 Y138.4 F9000
G1 X170.33 Y138.4 E580.178 F1080
G1 Y138 F9000
G1 X57.66 Y138 E585.799 F1080
G1 Y137.6 F9000
G1 X170.33 Y137.6 E591.42 F1080
G1 Y137.2 F9000
G1 X57.66 Y137.2 E597.041 F1080
G1 Y136.8 F9000
G1 X170.33 Y136.8 E602.662 F1080
G1 Y136.4 F9000
G1 X57.66 Y136.4 E608.283 F1080
G1 Y136 F9000
G1 X170.33 Y136 E613.905 F1080
G1 Y135.6 F9000
G1 X57.66 Y135.6 E619.526 F1080
G1 Y135.2 F9000
G1 X170.33 Y135.2 E625.147 F1080
G1 Y134.8 F9000
G1 X57.66 Y134.8 E630.768 F1080
G1 Y134.4 F9000
G1 X170.33 Y134.4 E636.389 F1080
G1 Y134 F9000
G1 X57.66 Y134 E642.01 F1080
G1 Y133.6 F9000
G1 X170.33 Y133.6 E647.631 F1080
G1 Y133.2 F9000
G1 X57.66 Y133.2 E653.252 F1080
G1 Y132.8 F9000
G1 X170.33 Y132.8 E658.873 F1080
G1 Y132.4 F9000
G1 X57.66 Y132.4 E664.494 F1080
G1 Y132 F9000
G1 X170.33 Y132 E670.115 F1080
G1 Y131.6 F9000
G1 X57.66 Y131.6 E675.736 F1080
G1 Y131.2 F9000
G1 X170.33 Y131.2 E681.358 F1080
G1 Y130.8 F9000
G1 X57.66 E686.979 F1080
G1 Y130.4 F9000
G1 X170.33 E692.6 F1080
G1 Y130 F9000
G1 X57.66 E698.221 F1080
G1 Y129.6 F9000
G1 X170.33 E703.842 F1080
G1 Y129.2 F9000
G1 X57.66 E709.463 F1080
G1 Y128.8 F9000
G1 X170.33 E715.084 F1080
G1 Y128.4 F9000
G1 X57.66 E720.705 F1080
G1 Y128 F9000
G1 X170.33 E726.326 F1080
G1 Y127.6 F9000
G1 X57.66 E731.947 F1080
G1 Y127.2 F9000
G1 X170.33 E737.568 F1080
G1 Y126.8 F9000
G1 X57.66 E743.189 F1080
G1 Y126.4 F9000
G1 X170.33 E748.81 F1080
G1 Y126 F9000
G1 X57.66 E754.432 F1080
G1 Y125.6 F9000
G1 X170.33 E760.053 F1080
G1 Y125.2 F9000
G1 X57.66 E765.674 F1080
G1 Y124.8 F9000
G1 X170.33 E771.295 F1080
G1 Y124.4 F9000
G1 X132.95 E773.16 F1080
G1 X133.19 Y124 F9000
G1 X170.33 E775.013 F1080
G1 Y123.6 F9000
G1 X133.43 E776.854 F1080
G1 X133.67 Y123.2 F9000
G1 X170.33 E778.683 F1080
G1 Y122.8 F9000
G1 X133.91 E780.5 F1080
G1 X134.15 Y122.4 F9000
G1 X170.33 E782.305 F1080
G1 Y122 F9000
G1 X134.39 E784.098 F1080
G1 X134.63 Y121.6 F9000
G1 X170.33 E785.879 F1080
G1 Y121.2 F9000
G1 X134.87 E787.649 F1080
G1 X135.11 Y120.8 F9000
G1 X170.33 E789.406 F1080
G1 Y120.4 F9000
G1 X135.35 E791.151 F1080
G1 X135.59 Y120 F9000
G1 X170.33 E792.885 F1080
G1 Y119.6 F9000
G1 X135.83 E794.606 F1080
G1 X136.07 Y119.2 F9000
G1 X170.33 E796.316 F1080
G1 Y118.8 F9000
G1 X136.31 E798.013 F1080
G1 X136.55 Y118.4 F9000
G1 X170.33 E799.699 F1080
G1 Y118 F9000
G1 X136.79 E801.373 F1080
G1 X137.03 Y117.6 F9000
G1 X170.33 E803.034 F1080
G1 Y117.2 F9000
G1 X137.27 E804.684 F1080
G1 X137.51 Y116.8 F9000
G1 X170.33 E806.322 F1080
G1 Y116.4 F9000
G1 X137.74 E807.948 F1080
G1 X137.98 Y116 F9000
G1 X170.33 E809.562 F1080
G1 Y115.6 F9000
G1 X138.22 E811.164 F1080
G1 X138.22 Y115.2 F9000
G1 X170.33 E812.766 F1080
G1 Y114.8 F9000
G1 X137.99 E814.379 F1080
G1 X144.48 Y112.4 F9000
G1 X177.94 E816.049 F1080
G1 Y112.8 F9000
G1 X127.51 E818.565 F1080
G1 Y112.4 F9000
G1 X129.02 E818.641 F1080
G1 X129.02 Y112 F9000
G1 X127.51 E818.716 F1080
G1 Y111.6 F9000
G1 X129.02 E818.791 F1080
G1 X129.02 Y111.2 F9000
G1 X127.51 E818.867 F1080
G1 Y110.8 F9000
G1 X177.94 E821.383 F1080
G1 Y111.2 F9000
G1 X144.49 E823.052 F1080
G1 X144.72 Y111.6 F9000
G1 X177.94 E824.709 F1080
G1 Y112 F9000
G1 X144.72 E826.367 F1080
G1 X144.8 Y98.4 F9000
G1 X169.71 E827.61 F1080
G1 X169.72 Y98 F9000
G1 X144.93 E828.846 F1080
G1 X145.06 Y97.6 F9000
G1 X169.72 E830.077 F1080
G1 X169.71 Y97.2 F9000
G1 X144.76 E831.321 F1080
G1 X144.21 Y96.8 F9000
G1 X169.63 E832.589 F1080
G1 X169.55 Y96.4 F9000
G1 X143.62 E833.883 F1080
G1 X142.97 Y96 F9000
G1 X169.47 E835.205 F1080
G1 X169.37 Y95.6 F9000
G1 X142.29 E836.556 F1080
G1 X141.54 Y95.2 F9000
G1 X169.25 E837.939 F1080
G1 X169.11 Y94.8 F9000
G1 X140.73 E839.355 F1080
G1 X139.86 Y94.4 F9000
G1 X168.96 E840.807 F1080
G1 X168.79 Y94 F9000
G1 X138.83 E842.301 F1080
G1 X137.66 Y93.6 F9000
G1 X168.61 E843.845 F1080
G1 X168.42 Y93.2 F9000
G1 X136.22 E845.452 F1080
G1 X134.41 Y92.8 F9000
G1 X168.22 E847.138 F1080
G1 X168 Y92.4 F9000
G1 X132.68 E848.9 F1080
G1 X130.97 Y92 F9000
G1 X167.79 E850.737 F1080
G1 X167.57 Y91.6 F9000
G1 X128.97 E852.663 F1080
G1 X126.19 Y91.2 F9000
G1 X167.33 E854.716 F1080
G1 X167.09 Y90.8 F9000
G1 X118.89 E857.12 F1080
G1 X119.04 Y90.65 F9000
G1 X109.07 Y90.8
G1 X60.91 E859.523 F1080
G1 X60.67 Y91.2 F9000
G1 X101.81 E861.576 F1080
G1 X99.01 Y91.6 F9000
G1 X60.43 E863.501 F1080
G1 X60.21 Y92 F9000
G1 X97.02 E865.337 F1080
G1 X95.3 Y92.4 F9000
G1 X59.99 E867.099 F1080
G1 X59.78 Y92.8 F9000
G1 X93.58 E868.785 F1080
G1 X91.78 Y93.2 F9000
G1 X59.58 E870.392 F1080
G1 X59.38 Y93.6 F9000
G1 X90.34 E871.936 F1080
G1 X89.17 Y94 F9000
G1 X59.21 E873.431 F1080
G1 X59.04 Y94.4 F9000
G1 X88.16 E874.884 F1080
G1 X87.27 Y94.8 F9000
G1 X58.89 E876.3 F1080
G1 X58.75 Y95.2 F9000
G1 X86.45 E877.682 F1080
G1 X85.72 Y95.6 F9000
G1 X58.63 E879.033 F1080
G1 X58.53 Y96 F9000
G1 X85.01 E880.355 F1080
G1 X84.38 Y96.4 F9000
G1 X58.45 E881.648 F1080
G1 X58.37 Y96.8 F9000
G1 X83.8 E882.917 F1080
G1 X83.23 Y97.2 F9000
G1 X58.29 E884.161 F1080
G1 X58.27 Y97.6 F9000
G1 X82.95 E885.392 F1080
G1 X83.08 Y98 F9000
G1 X58.28 E886.63 F1080
G1 X58.29 Y98.4 F9000
G1 X83.21 E887.873 F1080
G1 X83.89 Y111.2 F9000
G1 X50.05 E889.561 F1080
G1 Y111.6 F9000
G1 X83.66 E891.238 F1080
G1 X83.68 Y112 F9000
G1 X50.05 E892.916 F1080
G1 Y112.4 F9000
G1 X83.92 E894.605 F1080
G1 X89.55 Y114.8 F9000
G1 X57.66 E896.196 F1080
G1 Y115.2 F9000
G1 X89.78 E897.798 F1080
G1 X90.01 Y115.6 F9000
G1 X57.66 E899.412 F1080
G1 Y116 F9000
G1 X90.23 E901.037 F1080
G1 X90.46 Y116.4 F9000
G1 X57.66 E902.673 F1080
G1 Y116.8 F9000
G1 X90.69 E904.321 F1080
G1 X90.91 Y117.2 F9000
G1 X57.66 E905.979 F1080
G1 Y117.6 F9000
G1 X91.14 E907.65 F1080
G1 X91.37 Y118 F9000
G1 X57.66 E909.331 F1080
G1 Y118.4 F9000
G1 X91.59 E911.024 F1080
G1 X91.82 Y118.8 F9000
G1 X57.66 E912.728 F1080
G1 Y119.2 F9000
G1 X92.05 E914.443 F1080
G1 X92.27 Y119.6 F9000
G1 X57.66 E916.17 F1080
G1 Y120 F9000
G1 X92.5 E917.908 F1080
G1 X92.73 Y120.4 F9000
G1 X57.66 E919.657 F1080
G1 Y120.8 F9000
G1 X92.95 E921.418 F1080
G1 X93.18 Y121.2 F9000
G1 X57.66 E923.19 F1080
G1 Y121.6 F9000
G1 X93.41 E924.973 F1080
G1 X93.63 Y122 F9000
G1 X57.66 E926.768 F1080
G1 Y122.4 F9000
G1 X93.86 E928.574 F1080
G1 X94.09 Y122.8 F9000
G1 X57.66 E930.391 F1080
G1 Y123.2 F9000
G1 X94.31 E932.219 F1080
G1 X94.54 Y123.6 F9000
G1 X57.66 E934.059 F1080
G1 Y124 F9000
G1 X94.77 E935.91 F1080
G1 X95 Y124.4 F9000
G1 X57.66 E937.773 F1080
G1 X57.69 Y116 F9000
G1 X57.18 Y114.95
G1 X54.91 Y114.38
G1 X50.05 Y114.4
G1 X100.49 E940.289 F1080
G1 Y114 F9000
G1 X50.05 E942.805 F1080
G1 Y113.6 F9000
G1 X100.49 E945.321 F1080
G1 Y113.2 F9000
G1 X50.05 E947.838 F1080
G1 Y112.8 F9000
G1 X100.49 E950.354 F1080
G1 Y112.4 F9000
G1 X98.98 E950.429 F1080
G1 Y112 F9000
G1 X100.49 E950.504 F1080
G1 Y111.6 F9000
G1 X98.98 E950.58 F1080
G1 Y111.2 F9000
G1 X100.49 E950.655 F1080
G1 Y110.8 F9000
G1 X50.05 E953.171 F1080
G1 Y110.4 F9000
G1 X100.49 E955.688 F1080
G1 Y110 F9000
G1 X50.05 E958.204 F1080
G1 Y109.6 F9000
G1 X100.49 E960.72 F1080
G1 Y109.2 F9000
G1 X50.05 E963.236 F1080
G1 Y108.8 F9000
G1 X100.49 E965.752 F1080
G1 Y108.4 F9000
G1 X50.05 E968.269 F1080
G1 Y108 F9000
G1 X100.49 E970.785 F1080
G1 Y107.6 F9000
G1 X50.05 E973.301 F1080
G1 Y107.2 F9000
G1 X100.49 E975.817 F1080
G1 Y106.8 F9000
G1 X50.05 E978.333 F1080
G1 Y106.4 F9000
G1 X100.49 E980.85 F1080
G1 Y106 F9000
G1 X50.05 E983.366 F1080
G1 Y105.6 F9000
G1 X100.49 E985.882 F1080
G1 Y105.2 F9000
G1 X50.05 E988.398 F1080
G1 Y104.8 F9000
G1 X100.49 E990.914 F1080
G1 Y104.4 F9000
G1 X50.05 E993.431 F1080
G1 Y104 F9000
G1 X100.49 E995.947 F1080
G1 Y103.6 F9000
G1 X50.05 E998.463 F1080
G1 Y103.2 F9000
G1 X100.49 E1000.979 F1080
G1 Y102.8 F9000
G1 X50.05 E1003.496 F1080
G1 Y102.4 F9000
G1 X100.49 E1006.012 F1080
G1 Y102 F9000
G1 X50.05 E1008.528 F1080
G1 Y101.6 F9000
G1 X100.49 E1011.044 F1080
G1 Y101.2 F9000
G1 X50.05 E1013.56 F1080
G1 Y100.8 F9000
G1 X100.49 E1016.077 F1080
G1 Y100.4 F9000
G1 X50.05 E1018.593 F1080
G1 Y100 F9000
G1 X100.49 E1021.109 F1080
G1 Y99.6 F9000
G1 X50.05 E1023.625 F1080
G1 Y99.2 F9000
G1 X100.49 E1026.141 F1080
G1 Y98.8 F9000
G1 X50.05 E1028.658 F1080
G1 X56.73 Y98.65 F9000
G1 X57.79 Y98.26
G1 X59.69 Y93.25
G1 X61.17 Y90.4
G1 X166.83 E1033.929 F1080
G1 X166.56 Y90 F9000
G1 X61.44 E1039.174 F1080
G1 X61.72 Y89.6 F9000
G1 X166.28 E1044.391 F1080
G1 X165.98 Y89.2 F9000
G1 X62.01 E1049.578 F1080
G1 X62.32 Y88.8 F9000
G1 X165.68 E1054.735 F1080
G1 X165.36 Y88.4 F9000
G1 X62.64 E1059.859 F1080
G1 X62.97 Y88 F9000
G1 X165.03 E1064.951 F1080
G1 X164.67 Y87.6 F9000
G1 X63.32 E1070.007 F1080
G1 X63.68 Y87.2 F9000
G1 X164.32 E1075.028 F1080
G1 X163.94 Y86.8 F9000
G1 X64.06 E1080.011 F1080
G1 X64.45 Y86.4 F9000
G1 X163.55 E1084.955 F1080
G1 X163.14 Y86 F9000
G1 X64.85 E1089.859 F1080
G1 X65.28 Y85.6 F9000
G1 X162.72 E1094.72 F1080
G1 X162.28 Y85.2 F9000
G1 X65.72 E1099.537 F1080
G1 X66.19 Y84.8 F9000
G1 X161.81 E1104.307 F1080
G1 X161.34 Y84.4 F9000
G1 X66.66 E1109.031 F1080
G1 X67.15 Y84 F9000
G1 X160.84 E1113.705 F1080
G1 X160.34 Y83.6 F9000
G1 X67.66 E1118.329 F1080
G1 X68.19 Y83.2 F9000
G1 X159.8 E1122.9 F1080
G1 X159.25 Y82.8 F9000
G1 X68.75 E1127.415 F1080
G1 X69.32 Y82.4 F9000
G1 X158.68 E1131.873 F1080
G1 X158.08 Y82 F9000
G1 X69.92 E1136.271 F1080
G1 X70.55 Y81.6 F9000
G1 X157.45 E1140.607 F1080
G1 X156.78 Y81.2 F9000
G1 X71.22 E1144.876 F1080
G1 X71.9 Y80.8 F9000
G1 X156.1 E1149.076 F1080
G1 X155.35 Y80.4 F9000
G1 X72.65 E1153.202 F1080
G1 X73.44 Y80 F9000
G1 X154.56 E1157.249 F1080
G1 X153.73 Y79.6 F9000
G1 X74.28 E1161.212 F1080
G1 X75.2 Y79.2 F9000
G1 X152.8 E1165.084 F1080
G1 X151.83 Y78.8 F9000
G1 X76.17 E1168.858 F1080
G1 X77.21 Y78.4 F9000
G1 X150.79 E1172.529 F1080
G1 X149.67 Y78 F9000
G1 X78.34 E1176.088 F1080
G1 X79.53 Y77.6 F9000
G1 X148.47 E1179.528 F1080
G1 X147.19 Y77.2 F9000
G1 X80.8 E1182.84 F1080
G1 X82.2 Y76.8 F9000
G1 X145.8 E1186.013 F1080
G1 X144.29 Y76.4 F9000
G1 X83.71 E1189.036 F1080
G1 X85.32 Y76 F9000
G1 X142.68 E1191.897 F1080
G1 X140.95 Y75.6 F9000
G1 X87.08 E1194.585 F1080
G1 X88.92 Y75.2 F9000
G1 X139.08 E1197.088 F1080
G1 X136.94 Y74.8 F9000
G1 X91.06 E1199.377 F1080
G1 X93.46 Y74.4 F9000
G1 X134.52 E1201.425 F1080
G1 X132.06 Y74 F9000
G1 X95.9 E1203.229 F1080
G1 X99.9 Y73.6 F9000
G1 X128.11 E1204.637 F1080
G1 X118.9 Y73.2 F9000
G1 X109.05 E1205.128 F1080
G1 E1202.128 F1800
G1 Z0.8
G1 X139.36 Y94.28 F9000
G1 X143.76 Y96.61
G1 X144.56 Y97.56
G1 X143.4 Y98.6
G1 X127.51 Y98.8
G1 Z0.3
G1 E1205.128 F1800
G1 X177.94 E1207.644 F1080
G1 Y99.2 F9000
G1 X127.51 E1210.16 F1080
G1 Y99.6 F9000
G1 X177.94 E1212.677 F1080
G1 Y100 F9000
G1 X127.51 E1215.193 F1080
G1 Y100.4 F9000
G1 X177.94 E1217.709 F1080
G1 Y100.8 F9000
G1 X127.51 E1220.225 F1080
G1 Y101.2 F9000
G1 X177.94 E1222.741 F1080
G1 Y101.6 F9000
G1 X127.51 E1225.258 F1080
G1 Y102 F9000
G1 X177.94 E1227.774 F1080
G1 Y102.4 F9000
G1 X127.51 E1230.29 F1080
G1 Y102.8 F9000
G1 X177.94 E1232.806 F1080
G1 Y103.2 F9000
G1 X127.51 E1235.323 F1080
G1 Y103.6 F9000
G1 X177.94 E1237.839 F1080
G1 Y104 F9000
G1 X127.51 E1240.355 F1080
G1 Y104.4 F9000
G1 X177.94 E1242.871 F1080
G1 Y104.8 F9000
G1 X127.51 E1245.387 F1080
G1 Y105.2 F9000
G1 X177.94 E1247.904 F1080
G1 Y105.6 F9000
G1 X127.51 E1250.42 F1080
G1 Y106 F9000
G1 X177.94 E1252.936 F1080
G1 Y106.4 F9000
G1 X127.51 E1255.452 F1080
G1 Y106.8 F9000
G1 X177.94 E1257.968 F1080
G1 Y107.2 F9000
G1 X127.51 E1260.485 F1080
G1 Y107.6 F9000
G1 X177.94 E1263.001 F1080
G1 Y108 F9000
G1 X127.51 E1265.517 F1080
G1 Y108.4 F9000
G1 X177.94 E1268.033 F1080
G1 Y108.8 F9000
G1 X127.51 E1270.55 F1080
G1 Y109.2 F9000
G1 X177.94 E1273.066 F1080
G1 Y109.6 F9000
G1 X127.51 E1275.582 F1080
G1 Y110 F9000
G1 X177.94 E1278.098 F1080
G1 Y110.4 F9000
G1 X127.51 E1280.614 F1080
G1 Y113.2 F9000
G1 X177.94 E1283.131 F1080
G1 Y113.6 F9000
G1 X127.51 E1285.647 F1080
G1 Y114 F9000
G1 X177.94 E1288.163 F1080
G1 Y114.4 F9000
G1 X127.51 E1290.679 F1080
G1 E1287.679 F1800
G1 Z0.8
G1 X136.64 Y114.44 F9000
G1 X138 Y115.4
G1 X132.78 Y124
G1 X118.78 Y149.2
G1 Z0.3
G1 E1290.679 F1800
G1 X144.21 E1291.948 F1080
G1 X143.96 Y149.6 F9000
G1 X118.55 E1293.216 F1080
G1 X118.31 Y150 F9000
G1 X143.81 E1294.488 F1080
G1 X144.04 Y150.4 F9000
G1 X118.08 E1295.783 F1080
; Layer Change GCode
; LAYER:1
; LAYER_HEIGHT:0.3
; TYPE:FILL
G1 Z0.6 F9000
G1 X114.02 Y156.65
; TYPE:WALL-INNER
G1 X116.24 Y152.87 E1296.002 F3600
G1 X118.46 Y149.09 E1296.22
G1 X120.67 Y145.31 E1296.439
G1 X122.89 Y141.53 E1296.657
G1 X122.54 Y140.93 E1296.692
G1 X118.31 E1296.903
G1 X114.09 E1297.114
G1 X109.86 E1297.325
G1 X105.63 E1297.536
G1 X105.29 Y141.53 E1297.57
G1 X107.47 Y145.3 E1297.788
G1 X109.65 Y149.08 E1298.005
G1 X111.82 Y152.85 E1298.223
G1 X114 Y156.62 E1298.44
G1 X114.02 Y156.65
G1 X114.02 Y155.86 F9000
; TYPE:WALL-OUTER
G1 X116.12 Y152.28 E1298.647 F600
G1 X118.23 Y148.7 E1298.854
G1 X120.33 Y145.11 E1299.061
G1 X122.43 Y141.53 E1299.268
G1 X122.31 Y141.33 E1299.28
G1 X118.2 E1299.485
G1 X114.09 E1299.691
G1 X109.97 E1299.896
G1 X105.86 E1300.101
G1 X105.75 Y141.53 E1300.112
G1 X107.81 Y145.1 E1300.318
G1 X109.88 Y148.68 E1300.524
G1 X111.94 Y152.25 E1300.73
G1 X114 Y155.82 E1300.936
G1 X114.02 Y155.86
G1 X115.54 Y153.27
G1 X114.02 Y156.65 F9000
G1 E1297.936 F1800
G1 Z1.1
G1 X122.76 Y155.12 F9000
G1 X131.5 Y153.6
G1 X140.24 Y152.07
G1 X148.98 Y150.54
; TYPE:WALL-INNER
G1 Z0.6
G1 E1300.936 F1800
G1 Y147.15 E1301.105 F3600
G1 Y143.75 E1301.274
G1 X148.11 Y143.51 E1301.32
G1 X146.14 Y146.72 E1301.508
G1 X144.16 Y149.93 E1301.696
G1 X144.51 Y150.54 E1301.731
G1 X148.94 E1301.952
G1 X148.98
G1 X148.58 Y150.14 F9000
; TYPE:WALL-OUTER
G1 Y147.1 E1302.104 F600
G1 Y144.06 E1302.256
G1 X148.29 Y143.97 E1302.271
G1 X146.46 Y146.96 E1302.446
G1 X144.63 Y149.94 E1302.62
G1 X144.74 Y150.14 E1302.632
G1 X148.54 E1302.822
G1 X148.58
G1 Y147.14
G1 X148.98 Y150.54 F9000
G1 E1299.822 F1800
G1 Z1.1
G1 X159.83 F9000
G1 X170.67
; TYPE:WALL-INNER
G1 Z0.6
G1 E1302.822 F1800
G1 X174.73 E1303.024 F3600
G1 X178.78 E1303.226
G1 Y154.65 E1303.431
G1 Y158.77 E1303.636
G1 Y162.88 E1303.841
G1 Y166.99 E1304.046
G1 X173.91 E1304.289
G1 X169.03 E1304.532
G1 X164.16 E1304.775
G1 X159.29 E1305.019
G1 X154.41 E1305.262
G1 X149.54 E1305.505
G1 X144.66 E1305.748
G1 X139.79 E1305.991
G1 X139.79 Y163.35 E1306.173
G1 X139.78 Y159.71 E1306.354
G1 X138.89 Y159.48 E1306.4
G1 X136.78 Y163.12 E1306.61
G1 X134.67 Y166.76 E1306.82
G1 X132.56 Y170.4 E1307.03
G1 X130.44 Y174.03 E1307.239
G1 X128.33 Y177.67 E1307.449
G1 X126.22 Y181.31 E1307.659
G1 X121.33 E1307.903
G1 X116.44 E1308.147
G1 X111.56 E1308.391
G1 X106.67 E1308.635
G1 X101.78 E1308.879
G1 X99.67 Y177.67 E1309.089
G1 X97.56 Y174.03 E1309.299
G1 X95.45 Y170.4 E1309.509
G1 X93.33 Y166.76 E1309.718
G1 X91.22 Y163.12 E1309.928
G1 X89.11 Y159.48 E1310.138
G1 X88.22 Y159.71 E1310.184
G1 X88.22 Y163.35 E1310.366
G1 X88.21 Y166.99 E1310.547
G1 X83.34 E1310.79
G1 X78.46 E1311.033
G1 X73.59 E1311.276
G1 X68.72 E1311.52
G1 X63.84 E1311.763
G1 X58.97 E1312.006
G1 X54.09 E1312.249
G1 X49.22 E1312.492
G1 Y162.88 E1312.697
G1 Y158.77 E1312.902
G1 Y154.65 E1313.107
G1 Y150.54 E1313.312
G1 X53.28 E1313.515
G1 X57.33 E1313.717
G1 Y146.07 E1313.94
G1 Y141.61 E1314.163
G1 Y137.14 E1314.386
G1 Y132.67 E1314.609
G1 Y128.2 E1314.831
G1 Y123.74 E1315.054
G1 Y119.27 E1315.277
G1 Y114.8 E1315.5
G1 X53.52 E1315.69
G1 X49.71 E1315.88
G1 Y110.7 E1316.084
G1 Y106.61 E1316.289
G1 Y102.51 E1316.493
G1 Y98.41 E1316.697
G1 X53.83 E1316.903
G1 X57.95 E1317.108
G1 X57.93 Y97.43 E1317.157
G1 X57.96 Y97.1 E1317.173
G1 X58.21 Y95.85 E1317.237
G1 X58.37 Y95.28 E1317.267
G1 X58.58 Y94.65 E1317.3
G1 X58.81 Y94.06 E1317.331
G1 X59.09 Y93.42 E1317.366
G1 X59.39 Y92.82 E1317.4
G1 X60.11 Y91.47 E1317.476
G1 X60.66 Y90.55 E1317.53
G1 X61.27 Y89.64 E1317.584
G1 X61.9 Y88.78 E1317.638
G1 X62.59 Y87.93 E1317.692
G1 X63.26 Y87.15 E1317.743
G1 X63.98 Y86.39 E1317.795
G1 X64.68 Y85.7 E1317.844
G1 X65.36 Y85.07 E1317.891
G1 X66.29 Y84.26 E1317.952
G1 X67.25 Y83.49 E1318.014
G1 X68.27 Y82.72 E1318.077
G1 X69.33 Y81.98 E1318.142
G1 X70.46 Y81.25 E1318.209
G1 X71.61 Y80.58 E1318.276
G1 X72.78 Y79.95 E1318.342
G1 X74.07 Y79.32 E1318.413
G1 X75.65 Y78.64 E1318.499
G1 X77.25 Y78.02 E1318.585
G1 X78.96 Y77.42 E1318.675
G1 X80.65 Y76.89 E1318.764
G1 X82.39 Y76.39 E1318.854
G1 X84.11 Y75.94 E1318.942
G1 X85.85 Y75.52 E1319.032
G1 X87.55 Y75.14 E1319.119
G1 X88.92 Y74.85 E1319.188
G1 X90.23 Y74.6 E1319.255
G1 X91.51 Y74.38 E1319.32
G1 X92.76 Y74.18 E1319.383
G1 X94.18 Y73.92 E1319.455
G1 X96.12 Y73.62 E1319.553
G1 X97.9 Y73.41 E1319.643
G1 X99.05 Y73.31 E1319.7
G1 X101.2 Y73.18 E1319.807
G1 X103.15 Y73.11 E1319.905
G1 X107.19 Y72.94 E1320.107
G1 X111.23 Y72.77 E1320.309
G1 X113.96 Y72.69 E1320.445
G1 X115.72 Y72.73 E1320.533
G1 X119.4 Y72.88 E1320.716
G1 X123.07 Y73.03 E1320.9
G1 X126.75 Y73.18 E1321.083
G1 X128.85 Y73.3 E1321.188
G1 X130 Y73.4 E1321.246
G1 X131.17 Y73.53 E1321.304
G1 X133.08 Y73.8 E1321.401
G1 X135.15 Y74.17 E1321.506
G1 X136.38 Y74.36 E1321.568
G1 X137.65 Y74.58 E1321.632
G1 X138.96 Y74.83 E1321.698
G1 X140.3 Y75.11 E1321.767
G1 X142.01 Y75.49 E1321.854
G1 X143.73 Y75.9 E1321.942
G1 X145.47 Y76.36 E1322.032
G1 X147.18 Y76.84 E1322.121
G1 X148.91 Y77.38 E1322.211
G1 X150.59 Y77.96 E1322.3
G1 X152.32 Y78.62 E1322.392
G1 X153.88 Y79.3 E1322.477
G1 X155.12 Y79.89 E1322.546
G1 X156.29 Y80.52 E1322.612
G1 X157.44 Y81.19 E1322.679
G1 X158.57 Y81.91 E1322.746
G1 X159.62 Y82.64 E1322.809
G1 X160.66 Y83.42 E1322.874
G1 X161.63 Y84.19 E1322.936
G1 X162.56 Y84.99 E1322.997
G1 X163.26 Y85.64 E1323.045
G1 X163.98 Y86.34 E1323.095
G1 X164.66 Y87.07 E1323.144
G1 X165.37 Y87.87 E1323.198
G1 X166.04 Y88.7 E1323.251
G1 X166.67 Y89.55 E1323.304
G1 X167.29 Y90.47 E1323.359
G1 X167.85 Y91.4 E1323.413
G1 X168.58 Y92.76 E1323.49
G1 X168.89 Y93.39 E1323.525
G1 X169.16 Y93.99 E1323.558
G1 X169.41 Y94.62 E1323.592
G1 X169.61 Y95.22 E1323.623
G1 X169.78 Y95.82 E1323.654
G1 X169.91 Y96.42 E1323.685
G1 X170.03 Y97.08 E1323.719
G1 X170.07 Y97.4 E1323.735
G1 X170.05 Y98.41 E1323.785
G1 X174.17 E1323.991
G1 X178.29 E1324.196
G1 Y102.51 E1324.401
G1 Y106.61 E1324.605
G1 Y110.7 E1324.81
G1 Y114.8 E1325.014
G1 X174.48 E1325.204
G1 X170.67 E1325.393
G1 Y119.26 E1325.616
G1 Y123.73 E1325.839
G1 Y128.19 E1326.061
G1 Y132.65 E1326.284
G1 Y137.11 E1326.507
G1 Y141.58 E1326.73
G1 Y146.04 E1326.952
G1 Y150.5 E1327.175
G1 Y150.54
G1 X171.07 Y150.14 F9000
; TYPE:WALL-OUTER
G1 X175.13 E1327.377 F600
G1 X179.18 E1327.579
G1 Y154.45 E1327.794
G1 Y158.77 E1328.009
G1 Y163.08 E1328.224
G1 Y167.39 E1328.439
G1 X174.21 E1328.687
G1 X169.24 E1328.935
G1 X164.26 E1329.183
G1 X159.29 E1329.432
G1 X154.32 E1329.68
G1 X149.35 E1329.928
G1 X144.37 E1330.176
G1 X139.4 E1330.424
G1 X139.39 Y163.71 E1330.608
G1 X139.38 Y160.02 E1330.792
G1 X139.08 Y159.94 E1330.807
G1 X136.98 Y163.57 E1331.016
G1 X134.87 Y167.2 E1331.225
G1 X132.77 Y170.83 E1331.435
G1 X130.67 Y174.45 E1331.644
G1 X128.56 Y178.08 E1331.853
G1 X126.46 Y181.71 E1332.062
G1 X121.48 E1332.311
G1 X116.49 E1332.559
G1 X111.51 E1332.808
G1 X106.52 E1333.056
G1 X101.54 E1333.305
G1 X99.44 Y178.08 E1333.514
G1 X97.33 Y174.45 E1333.724
G1 X95.23 Y170.83 E1333.933
G1 X93.13 Y167.2 E1334.142
G1 X91.02 Y163.57 E1334.352
G1 X88.92 Y159.94 E1334.561
G1 X88.62 Y160.02 E1334.576
G1 X88.61 Y163.71 E1334.76
G1 X88.6 Y167.39 E1334.943
G1 X83.63 E1335.191
G1 X78.66 E1335.439
G1 X73.68 E1335.687
G1 X68.71 E1335.936
G1 X63.74 E1336.184
G1 X58.77 E1336.432
G1 X53.79 E1336.68
G1 X48.82 E1336.928
G1 Y163.08 E1337.143
G1 Y158.77 E1337.359
G1 Y154.45 E1337.574
G1 Y150.14 E1337.789
G1 X52.88 E1337.991
G1 X56.93 E1338.193
G1 Y145.15 E1338.442
G1 Y140.16 E1338.691
G1 Y135.17 E1338.94
G1 Y130.17 E1339.189
G1 Y125.18 E1339.438
G1 Y120.19 E1339.687
G1 Y115.2 E1339.936
G1 X53.12 E1340.126
G1 X49.31 E1340.316
G1 Y110.9 E1340.53
G1 Y106.61 E1340.745
G1 Y102.31 E1340.959
G1 Y98.01 E1341.173
G1 X53.43 E1341.379
G1 X57.54 E1341.584
G1 X57.53 Y97.42 E1341.614
G1 X57.56 Y97.05 E1341.632
G1 X57.82 Y95.77 E1341.697
G1 X57.99 Y95.15 E1341.729
G1 X58.2 Y94.52 E1341.762
G1 X58.44 Y93.9 E1341.795
G1 X58.72 Y93.27 E1341.83
G1 X59.04 Y92.62 E1341.866
G1 X59.75 Y91.29 E1341.941
G1 X60.33 Y90.33 E1341.997
G1 X60.94 Y89.42 E1342.052
G1 X61.6 Y88.52 E1342.107
G1 X62.27 Y87.68 E1342.161
G1 X62.97 Y86.88 E1342.214
G1 X63.68 Y86.12 E1342.266
G1 X64.39 Y85.42 E1342.316
G1 X65.1 Y84.76 E1342.364
G1 X66.02 Y83.96 E1342.425
G1 X67.01 Y83.17 E1342.488
G1 X68.04 Y82.39 E1342.553
G1 X69.12 Y81.64 E1342.618
G1 X70.24 Y80.92 E1342.685
G1 X71.4 Y80.23 E1342.752
G1 X72.61 Y79.58 E1342.82
G1 X73.9 Y78.96 E1342.892
G1 X75.49 Y78.27 E1342.979
G1 X77.13 Y77.64 E1343.066
G1 X78.82 Y77.05 E1343.155
G1 X80.55 Y76.51 E1343.246
G1 X82.28 Y76.01 E1343.336
G1 X84.01 Y75.55 E1343.425
G1 X85.75 Y75.14 E1343.514
G1 X87.47 Y74.75 E1343.602
G1 X88.84 Y74.46 E1343.672
G1 X90.16 Y74.21 E1343.739
G1 X91.45 Y73.98 E1343.804
G1 X92.7 Y73.79 E1343.867
G1 X94.11 Y73.53 E1343.939
G1 X96.07 Y73.23 E1344.038
G1 X97.87 Y73.02 E1344.128
G1 X99.01 Y72.91 E1344.186
G1 X101.19 Y72.78 E1344.294
G1 X103.14 Y72.71 E1344.392
G1 X107.18 Y72.54 E1344.594
G1 X111.22 Y72.37 E1344.796
G1 X113.96 Y72.29 E1344.932
G1 X115.73 Y72.33 E1345.02
G1 X119.41 Y72.48 E1345.204
G1 X123.08 Y72.63 E1345.387
G1 X126.76 Y72.78 E1345.571
G1 X128.89 Y72.91 E1345.677
G1 X130.03 Y73.01 E1345.734
G1 X131.23 Y73.14 E1345.795
G1 X133.15 Y73.41 E1345.892
G1 X135.22 Y73.77 E1345.996
G1 X136.44 Y73.96 E1346.058
G1 X137.72 Y74.19 E1346.123
G1 X139.04 Y74.44 E1346.19
G1 X140.39 Y74.72 E1346.259
G1 X142.1 Y75.1 E1346.346
G1 X143.83 Y75.51 E1346.435
G1 X145.57 Y75.97 E1346.525
G1 X147.3 Y76.46 E1346.614
G1 X149.03 Y77 E1346.705
G1 X150.72 Y77.58 E1346.794
G1 X152.47 Y78.26 E1346.888
G1 X154.06 Y78.94 E1346.974
G1 X155.29 Y79.53 E1347.042
G1 X156.49 Y80.17 E1347.11
G1 X157.66 Y80.85 E1347.177
G1 X158.79 Y81.58 E1347.244
G1 X159.86 Y82.32 E1347.309
G1 X160.9 Y83.09 E1347.374
G1 X161.89 Y83.89 E1347.437
G1 X162.83 Y84.7 E1347.5
G1 X163.54 Y85.35 E1347.548
G1 X164.26 Y86.06 E1347.598
G1 X164.96 Y86.8 E1347.649
G1 X165.66 Y87.6 E1347.702
G1 X166.34 Y88.44 E1347.756
G1 X167 Y89.33 E1347.811
G1 X167.63 Y90.26 E1347.867
G1 X168.2 Y91.21 E1347.922
G1 X168.93 Y92.56 E1347.999
G1 X169.25 Y93.21 E1348.035
G1 X169.53 Y93.84 E1348.069
G1 X169.78 Y94.47 E1348.103
G1 X169.99 Y95.09 E1348.136
G1 X170.17 Y95.71 E1348.168
G1 X170.31 Y96.35 E1348.201
G1 X170.43 Y97.03 E1348.235
G1 X170.47 Y97.38 E1348.253
G1 X170.46 Y98.01 E1348.284
G1 X174.58 E1348.49
G1 X178.69 E1348.695
G1 Y102.31 E1348.909
G1 Y106.61 E1349.124
G1 Y110.9 E1349.338
G1 Y115.2 E1349.552
G1 X174.88 E1349.742
G1 X171.07 E1349.932
G1 Y120.19 E1350.181
G1 Y125.17 E1350.429
G1 Y130.16 E1350.678
G1 Y135.14 E1350.927
G1 Y140.13 E1351.176
G1 Y145.11 E1351.424
G1 Y150.1 E1351.673
G1 Y150.14
G1 X174.07
G1 X170.67 Y150.54 F9000
G1 E1348.673 F1800
G1 Z1.1
G1 X165.17 Y144.76 F9000
G1 X159.67 Y138.97
G1 X154.17 Y133.19
G1 X148.67 Y127.41
G1 X143.17 Y121.62
G1 X137.67 Y115.84
G1 X138 Y115.4
G1 X136.12 Y114.37
G1 X132.74 Y113.7
G1 X129.36 Y112.42
; TYPE:WALL-INNER
G1 Z0.6
G1 E1351.673 F1800
G1 X134.26 E1351.918 F3600
G1 X139.17 E1352.162
G1 X144.07 E1352.407
G1 X144.44 Y111.8 E1352.443
G1 X144.1 Y111.19 E1352.478
G1 X139.19 Y111.2 E1352.723
G1 X134.27 Y111.21 E1352.968
G1 X129.36 Y111.22 E1353.213
G1 X129.36 Y112.38 E1353.271
G1 X129.36 Y112.42
G1 X129.76 Y112.02 F9000
; TYPE:WALL-OUTER
G1 X134.45 E1353.505 F600
G1 X139.15 E1353.74
G1 X143.84 E1353.974
G1 X143.98 Y111.8 E1353.987
G1 X143.87 Y111.59 E1353.999
G1 X139.17 Y111.6 E1354.233
G1 X134.46 Y111.61 E1354.468
G1 X129.76 Y111.62 E1354.702
G1 Y111.98 E1354.72
G1 Y112.02
G1 X132.76
G1 X129.36 Y112.42 F9000
G1 E1351.72 F1800
G1 Z1.1
G1 X135.56 Y114.46 F9000
G1 X136.69 Y114.44
G1 X138 Y115.4
G1 X133.02 Y123.66
G1 X131.04 Y124.63
G1 X122.36
G1 X113.68
G1 X104.99
G1 X96.31
G1 X94.47 Y123.22
G1 X90.69 Y116.55
G1 X90.52 Y114.95
G1 X93.33 Y114.33
G1 X98.64 Y112.42
; TYPE:WALL-INNER
G1 Z0.6
G1 E1354.72 F1800
G1 Y111.18 E1354.782 F3600
G1 X94.88 E1354.97
G1 X91.13 E1355.157
G1 X87.37 E1355.345
G1 X83.61 E1355.532
G1 X84.32 Y112.42 E1355.603
G1 X89.08 E1355.841
G1 X93.84 E1356.078
G1 X98.6 E1356.316
G1 X98.64 Y112.42
G1 X98.24 Y112.02 F9000
; TYPE:WALL-OUTER
G1 Y111.58 E1356.338 F600
G1 X93.59 E1356.57
G1 X88.95 E1356.801
G1 X84.3 E1357.033
G1 X84.55 Y112.02 E1357.059
G1 X89.1 E1357.286
G1 X93.65 E1357.513
G1 X98.2 E1357.74
G1 X98.24 Y112.02
G1 Y111.58
G1 X95.68
G1 X98.64 Y112.42 F9000
G1 X89.94 Y114.8
; TYPE:WALL-INNER
G1 X91.74 Y117.98 E1357.922 F3600
G1 X93.55 Y121.15 E1358.104
G1 X95.35 Y124.33 E1358.286
G1 X100.01 E1358.518
G1 X104.66 E1358.751
G1 X109.32 E1358.983
G1 X113.98 E1359.216
G1 X118.63 E1359.448
G1 X123.29 E1359.68
G1 X127.94 E1359.913
G1 X132.6 E1360.145
G1 X134.38 Y121.36 E1360.318
G1 X136.16 Y118.38 E1360.491
G1 X137.94 Y115.41 E1360.664
G1 X137.6 Y114.8 E1360.699
G1 X134.12 E1360.872
G1 X130.65 E1361.046
G1 X127.17 E1361.219
G1 Y110.7 E1361.423
G1 Y106.61 E1361.628
G1 Y102.51 E1361.832
G1 Y98.41 E1362.036
G1 X131.49 E1362.252
G1 X135.81 E1362.467
G1 X140.12 E1362.683
G1 X144.44 E1362.898
G1 X144.71 Y97.58 E1362.942
G1 X144 Y97.07 E1362.985
G1 X143.22 Y96.54 E1363.032
G1 X142.18 Y95.92 E1363.093
G1 X140.95 Y95.27 E1363.162
G1 X139.84 Y94.76 E1363.223
G1 X139.07 Y94.45 E1363.265
G1 X137.95 Y94.05 E1363.324
G1 X137.17 Y93.81 E1363.365
G1 X136.31 Y93.57 E1363.409
G1 X135.38 Y93.35 E1363.457
G1 X134.05 Y93.07 E1363.524
G1 X130.62 Y92.27 E1363.7
G1 X129.48 Y92.03 E1363.758
G1 X128.31 Y91.83 E1363.818
G1 X126.85 Y91.62 E1363.891
G1 X124.87 Y91.42 E1363.991
G1 X122.88 Y91.29 E1364.09
G1 X120.24 Y91.17 E1364.222
G1 X116.92 Y91.1 E1364.388
G1 X111.79 Y91.09 E1364.644
G1 X108.23 Y91.16 E1364.821
G1 X105.58 Y91.27 E1364.953
G1 X103.4 Y91.4 E1365.062
G1 X101.94 Y91.53 E1365.136
G1 X100.51 Y91.7 E1365.208
G1 X98.93 Y91.96 E1365.287
G1 X97.78 Y92.18 E1365.346
G1 X96.64 Y92.43 E1365.404
G1 X94.06 Y93.05 E1365.536
G1 X92.09 Y93.47 E1365.637
G1 X91.2 Y93.7 E1365.683
G1 X90.37 Y93.94 E1365.726
G1 X89.55 Y94.21 E1365.769
G1 X88.44 Y94.64 E1365.828
G1 X87.67 Y94.98 E1365.87
G1 X86.57 Y95.52 E1365.931
G1 X85.34 Y96.2 E1366.001
G1 X84.46 Y96.75 E1366.053
G1 X83.29 Y97.57 E1366.125
G1 X83.55 Y98.41 E1366.169
G1 X87.87 E1366.385
G1 X92.19 E1366.6
G1 X96.51 E1366.816
G1 X100.83 E1367.031
G1 Y102.51 E1367.235
G1 Y106.61 E1367.44
G1 Y110.7 E1367.644
G1 Y114.8 E1367.848
G1 X97.21 E1368.028
G1 X93.6 E1368.209
G1 X89.98 E1368.389
G1 X89.94
G1 X90.63 Y115.2 F9000
; TYPE:WALL-OUTER
G1 X92.28 Y118.11 E1368.556 F600
G1 X93.93 Y121.02 E1368.723
G1 X95.58 Y123.93 E1368.89
G1 X100.18 E1369.119
G1 X104.78 E1369.349
G1 X109.38 E1369.578
G1 X113.98 E1369.808
G1 X118.57 E1370.037
G1 X123.17 E1370.266
G1 X127.77 E1370.496
G1 X132.37 E1370.725
G1 X134.93 Y119.67 E1370.973
G1 X137.48 Y115.4 E1371.221
G1 X137.37 Y115.2 E1371.233
G1 X133.84 E1371.409
G1 X130.3 E1371.586
G1 X126.77 E1371.762
G1 Y110.9 E1371.976
G1 Y106.61 E1372.191
G1 Y102.31 E1372.405
G1 Y98.01 E1372.619
G1 X131.12 E1372.836
G1 X135.46 E1373.053
G1 X139.81 E1373.269
G1 X144.15 E1373.486
G1 X144.24 Y97.74 E1373.501
G1 X143.77 Y97.4 E1373.53
G1 X143.01 Y96.88 E1373.576
G1 X141.98 Y96.27 E1373.635
G1 X140.77 Y95.63 E1373.703
G1 X139.68 Y95.13 E1373.763
G1 X138.93 Y94.82 E1373.804
G1 X137.83 Y94.43 E1373.862
G1 X137.06 Y94.19 E1373.902
G1 X136.21 Y93.96 E1373.946
G1 X135.3 Y93.74 E1373.993
G1 X133.97 Y93.46 E1374.061
G1 X130.54 Y92.66 E1374.237
G1 X129.41 Y92.43 E1374.294
G1 X128.25 Y92.22 E1374.353
G1 X126.8 Y92.01 E1374.426
G1 X124.84 Y91.82 E1374.524
G1 X122.86 Y91.69 E1374.623
G1 X120.23 Y91.57 E1374.755
G1 X116.91 Y91.5 E1374.92
G1 X114.35 Y91.5 E1375.048
G1 X111.79 Y91.49 E1375.175
G1 X108.24 Y91.56 E1375.353
G1 X105.6 Y91.67 E1375.484
G1 X103.43 Y91.8 E1375.593
G1 X101.98 Y91.93 E1375.666
G1 X100.56 Y92.1 E1375.737
G1 X99 Y92.35 E1375.816
G1 X97.86 Y92.57 E1375.874
G1 X96.73 Y92.82 E1375.932
G1 X94.15 Y93.44 E1376.064
G1 X92.19 Y93.86 E1376.164
G1 X91.31 Y94.09 E1376.209
G1 X90.49 Y94.33 E1376.252
G1 X89.69 Y94.59 E1376.294
G1 X88.59 Y95.01 E1376.353
G1 X87.84 Y95.34 E1376.394
G1 X86.76 Y95.87 E1376.454
G1 X85.55 Y96.54 E1376.523
G1 X84.69 Y97.08 E1376.573
G1 X83.76 Y97.73 E1376.63
G1 X83.85 Y98.01 E1376.645
G1 X88.2 E1376.862
G1 X92.54 E1377.079
G1 X96.89 E1377.295
G1 X101.23 E1377.512
G1 Y102.31 E1377.726
G1 Y106.61 E1377.941
G1 Y110.9 E1378.155
G1 Y115.2 E1378.369
G1 X97.71 E1378.545
G1 X94.19 E1378.72
G1 X90.67 E1378.896
G1 X90.63
G1 X92.11 Y117.81
G1 X89.94 Y114.8 F9000
G1 E1375.896 F1800
G1 Z1.1
G1 X88.35 Y123.36 F9000
G1 X86.75 Y131.93
G1 X85.16 Y140.49
G1 X83.56 Y149.05
G1 X83.44 Y150.24
G1 X80.39 Y150.64
G1 X79.02 Y150.54
; TYPE:WALL-INNER
G1 Z0.6
G1 E1378.896 F1800
G1 X83.49 E1379.119 F3600
G1 X83.84 Y149.93 E1379.154
G1 X81.87 Y146.72 E1379.342
G1 X79.89 Y143.51 E1379.53
G1 X79.02 Y143.75 E1379.576
G1 Y147.13 E1379.744
G1 Y150.5 E1379.912
G1 Y150.54
G1 X79.42 Y150.14 F9000
; TYPE:WALL-OUTER
G1 X83.26 E1380.104 F600
G1 X83.37 Y149.94 E1380.116
G1 X81.54 Y146.96 E1380.291
G1 X79.71 Y143.97 E1380.465
G1 X79.42 Y144.06 E1380.48
G1 Y147.08 E1380.631
G1 Y150.1 E1380.782
G1 Y150.14
G1 X82.42
G1 X79.02 Y150.54 F9000
G1 X79.2 Y150.88
; TYPE:FILL
G1 Y154.82 E1380.979 F3600
G1 Y158.77 E1381.175
G1 Y162.71 E1381.372
G1 Y166.65 E1381.568
G1 X78.8 F9000
G1 Y162.71 E1381.765 F3600
G1 Y158.77 E1381.962
G1 Y154.82 E1382.158
G1 Y150.88 E1382.355
G1 X79.6 F9000
G1 Y154.82 E1382.552 F3600
G1 Y158.77 E1382.748
G1 Y162.71 E1382.945
G1 Y166.65 E1383.141
G1 X80 F9000
G1 Y162.71 E1383.338 F3600
G1 Y158.77 E1383.535
G1 Y154.82 E1383.731
G1 Y150.88 E1383.928
G1 X80.4 F9000
G1 Y154.82 E1384.125 F3600
G1 Y158.77 E1384.321
G1 Y162.71 E1384.518
G1 Y166.65 E1384.714
G1 X80.8 F9000
G1 Y162.71 E1384.911 F3600
G1 Y158.77 E1385.108
G1 Y154.82 E1385.304
G1 Y150.88 E1385.501
G1 X81.2 F9000
G1 Y154.82 E1385.698 F3600
G1 Y158.77 E1385.894
G1 Y162.71 E1386.091
G1 Y166.65 E1386.287
G1 X81.6 F9000
G1 Y162.71 E1386.484 F3600
G1 Y158.77 E1386.681
G1 Y154.82 E1386.877
G1 Y150.88 E1387.074
G1 X82 F9000
G1 Y154.82 E1387.271 F3600
G1 Y158.77 E1387.468
G1 Y162.71 E1387.664
G1 Y166.65 E1387.861
G1 X82.4 F9000
G1 Y162.71 E1388.058 F3600
G1 Y158.77 E1388.254
G1 Y154.82 E1388.451
G1 Y150.88 E1388.647
G1 X82.8 F9000
G1 Y154.82 E1388.844 F3600
G1 Y158.77 E1389.041
G1 Y162.71 E1389.237
G1 Y166.65 E1389.434
G1 X83.2 F9000
G1 Y162.71 E1389.631 F3600
G1 Y158.77 E1389.827
G1 Y154.82 E1390.024
G1 Y150.88 E1390.22
G1 X83.6 F9000
G1 Y154.82 E1390.417 F3600
G1 Y158.77 E1390.614
G1 Y162.71 E1390.81
G1 Y166.65 E1391.007
G1 X84 F9000
G1 Y162.57 E1391.211 F3600
G1 Y158.49 E1391.414
G1 Y154.41 E1391.618
G1 Y150.33 E1391.821
G1 Y149.55 F9000
G1 Y144.93 E1392.052 F3600
G1 Y140.3 E1392.282
G1 Y135.68 E1392.513
G1 Y131.05 E1392.744
G1 Y126.43 E1392.974
G1 Y121.8 E1393.205
G1 Y117.18 E1393.435
G1 Y112.55 E1393.666
G1 X84.4 Y112.76 F9000
G1 Y117.66 E1393.91 F3600
G1 Y122.56 E1394.155
G1 Y127.46 E1394.399
G1 Y132.36 E1394.644
G1 Y137.26 E1394.888
G1 Y142.15 E1395.133
G1 Y147.05 E1395.377
G1 Y151.95 E1395.622
G1 Y156.85 E1395.866
G1 Y161.75 E1396.111
G1 Y166.65 E1396.355
G1 X84.8 F9000
G1 Y161.75 E1396.599 F3600
G1 Y156.85 E1396.844
G1 Y151.95 E1397.088
G1 Y147.05 E1397.332
G1 Y142.15 E1397.577
G1 Y137.26 E1397.821
G1 Y132.36 E1398.066
G1 Y127.46 E1398.31
G1 Y122.56 E1398.554
G1 Y117.66 E1398.799
G1 Y112.76 E1399.043
G1 X85.2 F9000
G1 Y117.66 E1399.287 F3600
G1 Y122.56 E1399.532
G1 Y127.46 E1399.776
G1 Y132.36 E1400.021
G1 Y137.26 E1400.265
G1 Y142.15 E1400.51
G1 Y147.05 E1400.754
G1 Y151.95 E1400.999
G1 Y156.85 E1401.243
G1 Y161.75 E1401.488
G1 Y166.65 E1401.732
G1 X85.6 F9000
G1 Y161.75 E1401.976 F3600
G1 Y156.85 E1402.221
G1 Y151.95 E1402.465
G1 Y147.05 E1402.709
G1 Y142.15 E1402.954
G1 Y137.26 E1403.198
G1 Y132.36 E1403.443
G1 Y127.46 E1403.687
G1 Y122.56 E1403.931
G1 Y117.66 E1404.176
G1 Y112.76 E1404.42
G1 X86 Y112.76 F9000
G1 Y117.66 E1404.664 F3600
G1 Y122.56 E1404.909
G1 Y127.46 E1405.153
G1 Y132.36 E1405.398
G1 Y137.26 E1405.642
G1 Y142.15 E1405.887
G1 Y147.05 E1406.131
G1 Y151.95 E1406.376
G1 Y156.85 E1406.62
G1 Y161.75 E1406.865
G1 Y166.65 E1407.109
G1 X86.4 F9000
G1 Y161.75 E1407.353 F3600
G1 Y156.85 E1407.598
G1 Y151.95 E1407.842
G1 Y147.05 E1408.086
G1 Y142.15 E1408.331
G1 Y137.26 E1408.575
G1 Y132.36 E1408.82
G1 Y127.46 E1409.064
G1 Y122.56 E1409.308
G1 Y117.66 E1409.553
G1 Y112.76 E1409.797
G1 X86.8 F9000
G1 Y117.66 E1410.041 F3600
G1 Y122.56 E1410.286
G1 Y127.46 E1410.53
G1 Y132.36 E1410.775
G1 Y137.26 E1411.019
G1 Y142.15 E1411.264
G1 Y147.05 E1411.508
G1 Y151.95 E1411.753
G1 Y156.85 E1411.997
G1 Y161.75 E1412.242
G1 Y166.65 E1412.486
G1 X87.2 F9000
G1 Y161.75 E1412.73 F3600
G1 Y156.85 E1412.975
G1 Y151.95 E1413.219
G1 Y147.05 E1413.464
G1 Y142.15 E1413.708
G1 Y137.26 E1413.953
G1 Y132.36 E1414.197
G1 Y127.46 E1414.442
G1 Y122.56 E1414.686
G1 Y117.66 E1414.931
G1 Y112.76 E1415.175
G1 X87.6 F9000
G1 Y117.66 E1415.419 F3600
G1 Y122.56 E1415.664
G1 Y127.46 E1415.908
G1 Y132.36 E1416.152
G1 Y137.26 E1416.397
G1 Y142.15 E1416.641
G1 Y147.05 E1416.886
G1 Y151.95 E1417.13
G1 Y156.85 E1417.374
G1 Y161.75 E1417.619
G1 Y166.65 E1417.863
G1 X88.25 Y160.37 F9000
G1 X88.67 Y160.03
G1 X90.06 Y160.63
G1 X92 Y163.79
G1 Y158.83 E1418.111 F3600
G1 Y153.86 E1418.358
G1 Y148.9 E1418.606
G1 Y143.94 E1418.854
G1 Y138.97 E1419.101
G1 Y134.01 E1419.349
G1 Y129.05 E1419.597
G1 Y124.08 E1419.844
G1 Y119.12 E1420.092
G1 X91.6 Y118.41 F9000
G1 Y123.38 E1420.34 F3600
G1 Y128.34 E1420.587
G1 Y133.31 E1420.835
G1 Y138.27 E1421.083
G1 Y143.24 E1421.33
G1 Y148.2 E1421.578
G1 Y153.17 E1421.826
G1 Y158.13 E1422.073
G1 Y163.1 E1422.321
G1 X91.2 Y162.41 F9000
G1 Y157.44 E1422.569 F3600
G1 Y152.47 E1422.817
G1 Y147.51 E1423.065
G1 Y142.54 E1423.313
G1 Y137.57 E1423.56
G1 Y132.6 E1423.808
G1 Y127.64 E1424.056
G1 Y122.67 E1424.304
G1 Y117.7 E1424.552
G1 X90.8 Y117 F9000
G1 Y121.97 E1424.8 F3600
G1 Y126.94 E1425.048
G1 Y131.91 E1425.296
G1 Y136.88 E1425.544
G1 Y141.84 E1425.791
G1 Y146.81 E1426.039
G1 Y151.78 E1426.287
G1 Y156.75 E1426.535
G1 Y161.72 E1426.783
G1 X90.4 Y161.03 F9000
G1 Y156.06 E1427.031 F3600
G1 Y151.09 E1427.279
G1 Y146.12 E1427.527
G1 Y141.15 E1427.775
G1 Y136.17 E1428.023
G1 Y131.2 E1428.271
G1 Y126.23 E1428.519
G1 Y121.26 E1428.767
G1 Y116.29 E1429.015
G1 X90 Y115.59 F9000
G1 Y120.56 E1429.263 F3600
G1 Y125.53 E1429.511
G1 Y130.51 E1429.759
G1 Y135.48 E1430.007
G1 Y140.45 E1430.256
G1 Y145.42 E1430.504
G1 Y150.4 E1430.752
G1 Y155.37 E1431
G1 Y160.34 E1431.248
G1 X89.6 Y159.65 F9000
G1 Y154.68 E1431.496 F3600
G1 Y149.7 E1431.744
G1 Y144.73 E1431.993
G1 Y139.75 E1432.241
G1 Y134.78 E1432.489
G1 Y129.8 E1432.737
G1 Y124.83 E1432.986
G1 Y119.85 E1433.234
G1 Y114.88 E1433.482
G1 Y114.46 F9000
G1 Y112.76 E1433.566 F3600
G1 X89.2 F9000
G1 Y117.39 E1433.797 F3600
G1 Y122.03 E1434.028
G1 Y126.66 E1434.26
G1 Y131.3 E1434.491
G1 Y135.93 E1434.722
G1 Y140.56 E1434.953
G1 Y145.2 E1435.184
G1 Y149.83 E1435.416
G1 Y154.47 E1435.647
G1 Y159.1 E1435.878
G1 X88.8 Y159.21 F9000
G1 Y154.57 E1436.11 F3600
G1 Y149.92 E1436.342
G1 Y145.28 E1436.573
G1 Y140.63 E1436.805
G1 Y135.99 E1437.037
G1 Y131.34 E1437.269
G1 Y126.7 E1437.501
G1 Y122.05 E1437.732
G1 Y117.41 E1437.964
G1 Y112.76 E1438.196
G1 X88.4 F9000
G1 Y117.42 E1438.428 F3600
G1 Y122.07 E1438.66
G1 Y126.73 E1438.893
G1 Y131.38 E1439.125
G1 Y136.04 E1439.357
G1 Y140.69 E1439.589
G1 Y145.35 E1439.821
G1 Y150 E1440.054
G1 Y154.66 E1440.286
G1 Y159.31 E1440.518
G1 X88 Y159.42 F9000
G1 Y154.75 E1440.751 F3600
G1 Y150.09 E1440.984
G1 Y145.42 E1441.216
G1 Y140.76 E1441.449
G1 Y136.09 E1441.682
G1 Y131.42 E1441.915
G1 Y126.76 E1442.148
G1 Y122.09 E1442.38
G1 Y117.43 E1442.613
G1 Y112.76 E1442.846
G1 Y110.84 F9000
G1 Y106.81 E1443.047 F3600
G1 Y102.78 E1443.248
G1 Y98.75 E1443.449
G1 X87.6 F9000
G1 Y102.78 E1443.65 F3600
G1 Y106.81 E1443.851
G1 Y110.84 E1444.052
G1 X87.2 F9000
G1 Y106.81 E1444.253 F3600
G1 Y102.78 E1444.454
G1 Y98.75 E1444.655
G1 X86.8 F9000
G1 Y102.78 E1444.856 F3600
G1 Y106.81 E1445.057
G1 Y110.84 E1445.258
G1 X86.4 F9000
G1 Y106.81 E1445.459 F3600
G1 Y102.78 E1445.66
G1 Y98.75 E1445.861
G1 X86 F9000
G1 Y102.78 E1446.062 F3600
G1 Y106.81 E1446.263
G1 Y110.84 E1446.464
G1 X85.6 F9000
G1 Y106.81 E1446.665 F3600
G1 Y102.78 E1446.866
G1 Y98.75 E1447.067
G1 X85.2 F9000
G1 Y102.78 E1447.268 F3600
G1 Y106.81 E1447.469
G1 Y110.84 E1447.67
G1 X84.8 F9000
G1 Y106.81 E1447.871 F3600
G1 Y102.78 E1448.072
G1 Y98.75 E1448.273
G1 X84.4 F9000
G1 Y102.78 E1448.474 F3600
G1 Y106.81 E1448.675
G1 Y110.84 E1448.876
G1 X84 F9000
G1 Y106.81 E1449.077 F3600
G1 Y102.78 E1449.278
G1 Y98.75 E1449.479
G1 X83.6 F9000
G1 Y102.78 E1449.68 F3600
G1 Y106.81 E1449.881
G1 Y110.84 E1450.082
G1 X83.2 F9000
G1 Y106.7 E1450.288 F3600
G1 Y102.57 E1450.495
G1 Y98.43 E1450.701
G1 Y97.22 F9000
G1 Y93.08 E1450.907 F3600
G1 Y88.94 E1451.114
G1 Y84.81 E1451.32
G1 Y80.67 E1451.527
G1 Y76.53 E1451.733
G1 X83.6 Y76.43 F9000
G1 Y80.53 E1451.938 F3600
G1 Y84.63 E1452.142
G1 Y88.74 E1452.347
G1 Y92.84 E1452.551
G1 Y96.94 E1452.756
G1 X84 Y96.66 F9000
G1 Y92.59 E1452.959 F3600
G1 Y88.52 E1453.162
G1 Y84.46 E1453.365
G1 Y80.39 E1453.568
G1 Y76.32 E1453.771
G1 X84.4 Y76.22 F9000
G1 Y80.25 E1453.972 F3600
G1 Y84.29 E1454.173
G1 Y88.32 E1454.375
G1 Y92.36 E1454.576
G1 Y96.39 E1454.777
G1 X84.8 Y96.14 F9000
G1 Y92.14 E1454.977 F3600
G1 Y88.13 E1455.176
G1 Y84.13 E1455.376
G1 Y80.12 E1455.575
G1 Y76.12 E1455.775
G1 X85.2 Y76.03 F9000
G1 Y81 E1456.023 F3600
G1 Y85.96 E1456.271
G1 Y90.93 E1456.518
G1 Y95.89 E1456.766
G1 X85.6 Y95.67 F9000
G1 Y90.74 E1457.012 F3600
G1 Y85.8 E1457.259
G1 Y80.87 E1457.505
G1 Y75.93 E1457.751
G1 X86 Y75.84 F9000
G1 Y80.74 E1457.996 F3600
G1 Y85.65 E1458.24
G1 Y90.55 E1458.485
G1 Y95.45 E1458.729
G1 X86.4 Y95.22 F9000
G1 Y90.35 E1458.972 F3600
G1 Y85.49 E1459.215
G1 Y80.62 E1459.458
G1 Y75.75 E1459.701
G1 X86.8 Y75.66 F9000
G1 Y80.5 E1459.943 F3600
G1 Y85.35 E1460.184
G1 Y90.19 E1460.426
G1 Y95.03 E1460.667
G1 X87.2 Y94.83 F9000
G1 Y90.02 E1460.907 F3600
G1 Y85.2 E1461.148
G1 Y80.39 E1461.388
G1 Y75.57 E1461.628
G1 X87.6 Y75.48 F9000
G1 Y80.27 E1461.867 F3600
G1 Y85.06 E1462.106
G1 Y89.85 E1462.345
G1 Y94.64 E1462.584
G1 X88 Y94.46 F9000
G1 Y89.69 E1462.822 F3600
G1 Y84.93 E1463.06
G1 Y80.16 E1463.298
G1 Y75.39 E1463.536
G1 X88.4 Y75.31 F9000
G1 Y80.06 E1463.773 F3600
G1 Y84.8 E1464.01
G1 Y89.55 E1464.246
G1 Y94.29 E1464.483
G1 X88.8 Y94.14 F9000
G1 Y89.41 E1464.719 F3600
G1 Y84.68 E1464.955
G1 Y79.95 E1465.191
G1 Y75.22 E1465.427
G1 X89.2 Y75.14 F9000
G1 Y79.85 E1465.662 F3600
G1 Y84.56 E1465.897
G1 Y89.27 E1466.132
G1 Y93.98 E1466.367
G1 X89.6 Y93.84 F9000
G1 Y89.15 E1466.601 F3600
G1 Y84.46 E1466.835
G1 Y79.76 E1467.069
G1 Y75.07 E1467.303
G1 X90 Y74.99 F9000
G1 Y79.67 E1467.537 F3600
G1 Y84.35 E1467.77
G1 Y89.03 E1468.004
G1 Y93.71 E1468.237
G1 X90.4 Y93.58 F9000
G1 Y88.91 E1468.47 F3600
G1 Y84.25 E1468.703
G1 Y79.58 E1468.936
G1 Y74.91 E1469.169
G1 X90.8 Y74.84 F9000
G1 Y79.5 E1469.401 F3600
G1 Y84.15 E1469.633
G1 Y88.81 E1469.865
G1 Y93.46 E1470.097
G1 X91.2 Y93.35 F9000
G1 Y88.71 E1470.329 F3600
G1 Y84.07 E1470.561
G1 Y79.42 E1470.792
G1 Y74.78 E1471.024
G1 X91.6 Y74.71 F9000
G1 Y79.35 E1471.255 F3600
G1 Y83.98 E1471.487
G1 Y88.62 E1471.718
G1 Y93.25 E1471.949
G1 X92 Y93.15 F9000
G1 Y88.52 E1472.18 F3600
G1 Y83.9 E1472.411
G1 Y79.27 E1472.641
G1 Y74.64 E1472.872
G1 X92.4 Y74.58 F9000
G1 Y79.2 E1473.103 F3600
G1 Y83.82 E1473.333
G1 Y88.44 E1473.564
G1 Y93.06 E1473.794
G1 X92.8 Y92.97 F9000
G1 Y88.36 E1474.024 F3600
G1 Y83.75 E1474.255
G1 Y79.13 E1474.485
G1 Y74.52 E1474.715
G1 X93.2 Y74.45 F9000
G1 Y79.06 E1474.945 F3600
G1 Y83.67 E1475.175
G1 Y88.27 E1475.405
G1 Y92.88 E1475.635
G1 X93.6 Y92.8 F9000
G1 Y88.19 E1475.865 F3600
G1 Y83.59 E1476.095
G1 Y78.98 E1476.324
G1 Y74.37 E1476.554
G1 X94 Y74.3 F9000
G1 Y78.9 E1476.784 F3600
G1 Y83.51 E1477.013
G1 Y88.11 E1477.243
G1 Y92.71 E1477.472
G1 X94.4 Y92.61 F9000
G1 Y88.02 E1477.702 F3600
G1 Y83.42 E1477.931
G1 Y78.83 E1478.161
G1 Y74.23 E1478.39
G1 X94.8 Y74.17 F9000
G1 Y78.76 E1478.619 F3600
G1 Y83.35 E1478.848
G1 Y87.93 E1479.076
G1 Y92.52 E1479.305
G1 X95.2 Y92.43 F9000
G1 Y87.85 E1479.534 F3600
G1 Y83.27 E1479.762
G1 Y78.69 E1479.991
G1 Y74.11 E1480.219
G1 X95.6 Y74.05 F9000
G1 Y78.62 E1480.447 F3600
G1 Y83.19 E1480.675
G1 Y87.76 E1480.903
G1 Y92.33 E1481.131
G1 X96 Y92.24 F9000
G1 Y87.68 E1481.359 F3600
G1 Y83.11 E1481.587
G1 Y78.55 E1481.814
G1 Y73.98 E1482.042
G1 X96.4 Y73.93 F9000
G1 Y78.48 E1482.269 F3600
G1 Y83.04 E1482.496
G1 Y87.59 E1482.723
G1 Y92.14 E1482.95
G1 X96.8 Y92.05 F9000
G1 Y87.51 E1483.177 F3600
G1 Y82.97 E1483.404
G1 Y78.42 E1483.63
G1 Y73.88 E1483.857
G1 X97.2 Y73.84 F9000
G1 Y78.37 E1484.083 F3600
G1 Y82.9 E1484.309
G1 Y87.43 E1484.535
G1 Y91.96 E1484.761
G1 X97.6 Y91.87 F9000
G1 Y87.35 E1484.987 F3600
G1 Y82.83 E1485.212
G1 Y78.31 E1485.438
G1 Y73.79 E1485.663
G1 X98 Y73.74 F9000
G1 Y78.25 E1485.888 F3600
G1 Y82.77 E1486.114
G1 Y87.28 E1486.339
G1 Y91.79 E1486.564
G1 X98.4 Y91.71 F9000
G1 Y87.21 E1486.789 F3600
G1 Y82.71 E1487.013
G1 Y78.21 E1487.238
G1 Y73.71 E1487.462
G1 X98.8 Y73.67 F9000
G1 Y78.16 E1487.686 F3600
G1 Y82.66 E1487.91
G1 Y87.15 E1488.134
G1 Y91.64 E1488.358
G1 X99.2 Y91.57 F9000
G1 Y87.09 E1488.582 F3600
G1 Y82.61 E1488.805
G1 Y78.12 E1489.029
G1 Y73.64 E1489.252
G1 X99.6 Y73.62 F9000
G1 Y78.09 E1489.475 F3600
G1 Y82.56 E1489.699
G1 Y87.03 E1489.922
G1 Y91.5 E1490.145
G1 X100 Y91.44 F9000
G1 Y86.98 E1490.368 F3600
G1 Y82.52 E1490.59
G1 Y78.05 E1490.813
G1 Y73.59 E1491.035
G1 X100.4 Y73.57 F9000
G1 Y78.02 E1491.257 F3600
G1 Y82.47 E1491.479
G1 Y86.92 E1491.701
G1 Y91.37 E1491.923
G1 X100.8 Y91.32 F9000
G1 Y86.88 E1492.145 F3600
G1 Y82.44 E1492.367
G1 Y77.99 E1492.588
G1 Y73.55 E1492.81
G1 X101.2 Y73.52 F9000
G1 Y77.96 E1493.032 F3600
G1 Y82.4 E1493.253
G1 Y86.83 E1493.475
G1 Y91.27 E1493.696
G1 X101.6 Y91.23 F9000
G1 Y86.8 E1493.917 F3600
G1 Y82.37 E1494.138
G1 Y77.94 E1494.359
G1 Y73.51 E1494.58
G1 X102 Y73.49 F9000
G1 Y77.91 E1494.801 F3600
G1 Y82.34 E1495.021
G1 Y86.76 E1495.242
G1 Y91.18 E1495.462
G1 X102.4 Y91.15 F9000
G1 Y86.73 E1495.683 F3600
G1 Y82.32 E1495.903
G1 Y77.9 E1496.124
G1 Y73.48 E1496.344
G1 X102.8 Y73.46 F9000
G1 Y77.87 E1496.564 F3600
G1 Y82.29 E1496.784
G1 Y86.7 E1497.004
G1 Y91.11 E1497.224
G1 X103.2 Y91.07 F9000
G1 Y86.67 E1497.444 F3600
G1 Y82.26 E1497.664
G1 Y77.86 E1497.883
G1 Y73.45 E1498.103
G1 X103.6 Y73.43 F9000
G1 Y77.84 E1498.323 F3600
G1 Y82.24 E1498.543
G1 Y86.65 E1498.762
G1 Y91.05 E1498.982
G1 X104 Y91.02 F9000
G1 Y86.62 E1499.202 F3600
G1 Y82.22 E1499.422
G1 Y77.81 E1499.641
G1 Y73.41 E1499.861
G1 X104.4 Y73.4 F9000
G1 Y77.8 E1500.081 F3600
G1 Y82.2 E1500.3
G1 Y86.6 E1500.52
G1 Y91 E1500.739
G1 X104.8 Y90.97 F9000
G1 Y86.57 E1500.958 F3600
G1 Y82.18 E1501.178
G1 Y77.78 E1501.397
G1 Y73.38 E1501.616
G1 X105.2 Y73.36 F9000
G1 Y77.76 E1501.835 F3600
G1 Y82.16 E1502.055
G1 Y86.55 E1502.274
G1 Y90.95 E1502.493
G1 X105.6 Y90.92 F9000
G1 Y86.53 E1502.712 F3600
G1 Y82.14 E1502.932
G1 Y77.74 E1503.151
G1 Y73.35 E1503.37
G1 X106 Y73.33 F9000
G1 Y77.73 E1503.589 F3600
G1 Y82.12 E1503.809
G1 Y86.52 E1504.028
G1 Y90.91 E1504.247
G1 X106.4 Y90.89 F9000
G1 Y86.5 E1504.466 F3600
G1 Y82.1 E1504.686
G1 Y77.71 E1504.905
G1 Y73.31 E1505.124
G1 X106.8 Y73.3 F9000
G1 Y77.69 E1505.343 F3600
G1 Y82.09 E1505.563
G1 Y86.48 E1505.782
G1 Y90.87 E1506.001
G1 X107.2 Y90.86 F9000
G1 Y86.47 E1506.221 F3600
G1 Y82.07 E1506.44
G1 Y77.68 E1506.66
G1 Y73.28 E1506.879
G1 X107.6 Y73.26 F9000
G1 Y77.66 E1507.098 F3600
G1 Y82.05 E1507.318
G1 Y86.45 E1507.537
G1 Y90.84 E1507.756
G1 X108 Y90.83 F9000
G1 Y86.43 E1507.975 F3600
G1 Y82.04 E1508.195
G1 Y77.64 E1508.414
G1 Y73.24 E1508.633
G1 X108.4 Y73.23 F9000
G1 Y77.63 E1508.852 F3600
G1 Y82.02 E1509.072
G1 Y86.42 E1509.291
G1 Y90.81 E1509.51
G1 X108.8 Y90.81 F9000
G1 Y86.41 E1509.73 F3600
G1 Y82.01 E1509.949
G1 Y77.61 E1510.169
G1 Y73.21 E1510.388
G1 X109.2 Y73.19 F9000
G1 Y77.59 E1510.608 F3600
G1 Y82 E1510.827
G1 Y86.4 E1511.047
G1 Y90.8 E1511.266
G1 X109.6 Y90.79 F9000
G1 Y86.39 E1511.486 F3600
G1 Y81.99 E1511.706
G1 Y77.58 E1511.925
G1 Y73.18 E1512.145
G1 X110 Y73.16 F9000
G1 Y77.57 E1512.365 F3600
G1 Y81.97 E1512.585
G1 Y86.38 E1512.804
G1 Y90.78 E1513.024
G1 X110.4 Y90.77 F9000
G1 Y86.36 E1513.244 F3600
G1 Y81.96 E1513.464
G1 Y77.55 E1513.684
G1 Y73.14 E1513.904
G1 X110.8 Y73.12 F9000
G1 Y77.53 E1514.124 F3600
G1 Y81.95 E1514.344
G1 Y86.36 E1514.564
G1 Y90.77 E1514.784
G1 X111.2 Y90.76 F9000
G1 Y86.35 E1515.004 F3600
G1 Y81.94 E1515.225
G1 Y77.52 E1515.445
G1 Y73.11 E1515.665
G1 X111.6 Y73.1 F9000
G1 Y77.51 E1515.885 F3600
G1 Y81.93 E1516.106
G1 Y86.34 E1516.326
G1 Y90.75 E1516.546
G1 X112 Y90.75 F9000
G1 Y86.33 E1516.766 F3600
G1 Y81.92 E1516.987
G1 Y77.5 E1517.207
G1 Y73.08 E1517.427
G1 X112.4 Y73.07 F9000
G1 Y77.49 E1517.648 F3600
G1 Y81.91 E1517.868
G1 Y86.33 E1518.089
G1 Y90.75 E1518.309
G1 X112.8 F9000
G1 Y86.33 E1518.53 F3600
G1 Y81.91 E1518.75
G1 Y77.48 E1518.971
G1 Y73.06 E1519.191
G1 X113.2 Y73.05 F9000
G1 Y77.48 E1519.412 F3600
G1 Y81.9 E1519.633
G1 Y86.33 E1519.853
G1 Y90.75 E1520.074
G1 X113.6 F9000
G1 Y86.32 E1520.295 F3600
G1 Y81.9 E1520.516
G1 Y77.47 E1520.736
G1 Y73.04 E1520.957
G1 X114 Y73.03 F9000
G1 Y77.46 E1521.178 F3600
G1 Y81.89 E1521.399
G1 Y86.32 E1521.62
G1 Y90.75 E1521.841
G1 X114.4 Y90.75 F9000
G1 Y86.32 E1522.062 F3600
G1 Y81.9 E1522.283
G1 Y77.47 E1522.504
G1 Y73.04 E1522.725
G1 X114.8 Y73.05 F9000
G1 Y77.48 E1522.946 F3600
G1 Y81.9 E1523.167
G1 Y86.33 E1523.387
G1 Y90.75 E1523.608
G1 X115.2 Y90.75 F9000
G1 Y86.33 E1523.829 F3600
G1 Y81.91 E1524.05
G1 Y77.48 E1524.27
G1 Y73.06 E1524.491
G1 X115.6 Y73.07 F9000
G1 Y77.49 E1524.712 F3600
G1 Y81.91 E1524.932
G1 Y86.33 E1525.153
G1 Y90.75 E1525.373
G1 X116 Y90.75 F9000
G1 Y86.33 E1525.593 F3600
G1 Y81.92 E1525.814
G1 Y77.5 E1526.034
G1 Y73.08 E1526.254
G1 X116.4 Y73.1 F9000
G1 Y77.51 E1526.474 F3600
G1 Y81.93 E1526.695
G1 Y86.34 E1526.915
G1 Y90.75 E1527.135
G1 X116.8 Y90.75 F9000
G1 Y86.34 E1527.355 F3600
G1 Y81.93 E1527.575
G1 Y77.52 E1527.795
G1 Y73.11 E1528.015
G1 X117.2 Y73.13 F9000
G1 Y77.54 E1528.235 F3600
G1 Y81.95 E1528.455
G1 Y86.35 E1528.675
G1 Y90.76 E1528.895
G1 X117.6 Y90.77 F9000
G1 Y86.37 E1529.115 F3600
G1 Y81.96 E1529.335
G1 Y77.56 E1529.554
G1 Y73.15 E1529.774
G1 X118 Y73.16 F9000
G1 Y77.57 E1529.994 F3600
G1 Y81.97 E1530.214
G1 Y86.38 E1530.433
G1 Y90.78 E1530.653
G1 X118.4 Y90.79 F9000
G1 Y86.39 E1530.873 F3600
G1 Y81.99 E1531.093
G1 Y77.58 E1531.312
G1 Y73.18 E1531.532
G1 X118.8 Y73.2 F9000
G1 Y77.6 E1531.752 F3600
G1 Y82 E1531.971
G1 Y86.4 E1532.191
G1 Y90.8 E1532.41
G1 X119.2 Y90.81 F9000
G1 Y86.41 E1532.63 F3600
G1 Y82.01 E1532.849
G1 Y77.61 E1533.069
G1 Y73.21 E1533.288
G1 X119.6 Y73.23 F9000
G1 Y77.63 E1533.507 F3600
G1 Y82.03 E1533.727
G1 Y86.42 E1533.946
G1 Y90.82 E1534.165
G1 X120 Y90.83 F9000
G1 Y86.43 E1534.384 F3600
G1 Y82.04 E1534.604
G1 Y77.64 E1534.823
G1 Y73.24 E1535.042
G1 X120.4 Y73.26 F9000
G1 Y77.66 E1535.261 F3600
G1 Y82.05 E1535.481
G1 Y86.45 E1535.7
G1 Y90.84 E1535.919
G1 X120.8 Y90.86 F9000
G1 Y86.47 E1536.138 F3600
G1 Y82.07 E1536.358
G1 Y77.68 E1536.577
G1 Y73.28 E1536.796
G1 X121.2 Y73.29 F9000
G1 Y77.69 E1537.015 F3600
G1 Y82.08 E1537.235
G1 Y86.48 E1537.454
G1 Y90.87 E1537.673
G1 X121.6 Y90.89 F9000
G1 Y86.5 E1537.893 F3600
G1 Y82.1 E1538.112
G1 Y77.71 E1538.332
G1 Y73.31 E1538.551
G1 X122 Y73.33 F9000
G1 Y77.73 E1538.77 F3600
G1 Y82.12 E1538.99
G1 Y86.52 E1539.209
G1 Y90.91 E1539.428
G1 X122.4 Y90.93 F9000
G1 Y86.53 E1539.647 F3600
G1 Y82.14 E1539.867
G1 Y77.74 E1540.086
G1 Y73.34 E1540.305
G1 X122.8 Y73.36 F9000
G1 Y77.76 E1540.525 F3600
G1 Y82.16 E1540.744
G1 Y86.55 E1540.964
G1 Y90.95 E1541.183
G1 X123.2 Y90.97 F9000
G1 Y86.57 E1541.403 F3600
G1 Y82.17 E1541.622
G1 Y77.77 E1541.842
G1 Y73.37 E1542.061
G1 X123.6 Y73.39 F9000
G1 Y77.79 E1542.281 F3600
G1 Y82.2 E1542.5
G1 Y86.6 E1542.72
G1 Y91 E1542.939
G1 X124 Y91.02 F9000
G1 Y86.62 E1543.159 F3600
G1 Y82.22 E1543.379
G1 Y77.81 E1543.598
G1 Y73.41 E1543.818
G1 X124.4 Y73.42 F9000
G1 Y77.83 E1544.038 F3600
G1 Y82.24 E1544.258
G1 Y86.64 E1544.477
G1 Y91.05 E1544.697
G1 X124.8 Y91.07 F9000
G1 Y86.66 E1544.917 F3600
G1 Y82.26 E1545.137
G1 Y77.85 E1545.357
G1 Y73.44 E1545.577
G1 X125.2 Y73.46 F9000
G1 Y77.87 E1545.797 F3600
G1 Y82.29 E1546.017
G1 Y86.7 E1546.237
G1 Y91.11 E1546.457
G1 X125.6 Y91.15 F9000
G1 Y86.73 E1546.678 F3600
G1 Y82.31 E1546.898
G1 Y77.89 E1547.119
G1 Y73.47 E1547.339
G1 X126 Y73.49 F9000
G1 Y77.92 E1547.56 F3600
G1 Y82.34 E1547.781
G1 Y86.77 E1548.001
G1 Y91.19 E1548.222
G1 X126.4 Y91.23 F9000
G1 Y86.8 E1548.443 F3600
G1 Y82.37 E1548.665
G1 Y77.93 E1548.886
G1 Y73.5 E1549.107
G1 X126.8 Y73.52 F9000
G1 Y77.96 E1549.328 F3600
G1 Y82.4 E1549.55
G1 Y86.83 E1549.771
G1 Y91.27 E1549.992
G1 X127.2 Y91.32 F9000
G1 Y86.88 E1550.214 F3600
G1 Y82.44 E1550.436
G1 Y77.99 E1550.657
G1 Y73.55 E1550.879
G1 X127.6 Y73.57 F9000
G1 Y78.02 E1551.101 F3600
G1 Y82.48 E1551.324
G1 Y86.93 E1551.546
G1 Y91.38 E1551.768
G1 X128 Y91.44 F9000
G1 Y86.98 E1551.991 F3600
G1 Y82.52 E1552.213
G1 Y78.05 E1552.436
G1 Y73.59 E1552.658
G1 X128.4 Y73.62 F9000
G1 Y78.09 E1552.881 F3600
G1 Y82.56 E1553.104
G1 Y87.03 E1553.327
G1 Y91.5 E1553.55
G1 X128.8 Y91.57 F9000
G1 Y87.09 E1553.774 F3600
G1 Y82.61 E1553.997
G1 Y78.12 E1554.221
G1 Y73.64 E1554.444
G1 X129.2 Y73.67 F9000
G1 Y78.16 E1554.668 F3600
G1 Y82.66 E1554.892
G1 Y87.15 E1555.116
G1 Y91.64 E1555.34
G1 X129.6 Y91.71 F9000
G1 Y87.21 E1555.565 F3600
G1 Y82.71 E1555.79
G1 Y78.21 E1556.014
G1 Y73.71 E1556.239
G1 X130 Y73.75 F9000
G1 Y78.26 E1556.464 F3600
G1 Y82.77 E1556.689
G1 Y87.28 E1556.914
G1 Y91.79 E1557.139
G1 X130.4 Y91.87 F9000
G1 Y87.35 E1557.365 F3600
G1 Y82.83 E1557.59
G1 Y78.31 E1557.816
G1 Y73.79 E1558.041
G1 X130.8 Y73.83 F9000
G1 Y78.36 E1558.267 F3600
G1 Y82.9 E1558.494
G1 Y87.43 E1558.72
G1 Y91.96 E1558.946
G1 X131.2 Y92.05 F9000
G1 Y87.51 E1559.173 F3600
G1 Y82.97 E1559.399
G1 Y78.42 E1559.626
G1 Y73.88 E1559.852
G1 X131.6 Y73.94 F9000
G1 Y78.49 E1560.079 F3600
G1 Y83.05 E1560.307
G1 Y87.6 E1560.534
G1 Y92.15 E1560.761
G1 X132 Y92.24 F9000
G1 Y87.68 E1560.989 F3600
G1 Y83.12 E1561.216
G1 Y78.55 E1561.444
G1 Y73.99 E1561.671
G1 X132.4 Y74.05 F9000
G1 Y78.62 E1561.899 F3600
G1 Y83.19 E1562.128
G1 Y87.76 E1562.356
G1 Y92.33 E1562.584
G1 X132.8 Y92.43 F9000
G1 Y87.85 E1562.813 F3600
G1 Y83.27 E1563.041
G1 Y78.68 E1563.27
G1 Y74.1 E1563.498
G1 X133.2 Y74.17 F9000
G1 Y78.76 E1563.727 F3600
G1 Y83.35 E1563.956
G1 Y87.93 E1564.185
G1 Y92.52 E1564.414
G1 X133.6 Y92.62 F9000
G1 Y88.03 E1564.643 F3600
G1 Y83.43 E1564.873
G1 Y78.84 E1565.102
G1 Y74.24 E1565.331
G1 X134 Y74.31 F9000
G1 Y78.91 E1565.561 F3600
G1 Y83.51 E1565.79
G1 Y88.11 E1566.02
G1 Y92.71 E1566.249
G1 X134.4 Y92.8 F9000
G1 Y88.2 E1566.479 F3600
G1 Y83.59 E1566.709
G1 Y78.99 E1566.938
G1 Y74.38 E1567.168
G1 X134.8 Y74.45 F9000
G1 Y79.06 E1567.398 F3600
G1 Y83.67 E1567.628
G1 Y88.27 E1567.857
G1 Y92.88 E1568.087
G1 X135.2 Y92.97 F9000
G1 Y88.36 E1568.317 F3600
G1 Y83.75 E1568.547
G1 Y79.13 E1568.777
G1 Y74.52 E1569.007
G1 X135.6 Y74.58 F9000
G1 Y79.2 E1569.238 F3600
G1 Y83.82 E1569.468
G1 Y88.43 E1569.699
G1 Y93.05 E1569.929
G1 X136 Y93.15 F9000
G1 Y88.52 E1570.16 F3600
G1 Y83.9 E1570.391
G1 Y79.27 E1570.621
G1 Y74.64 E1570.852
G1 X136.4 Y74.71 F9000
G1 Y79.34 E1571.083 F3600
G1 Y83.98 E1571.315
G1 Y88.61 E1571.546
G1 Y93.24 E1571.777
G1 X136.8 Y93.35 F9000
G1 Y88.71 E1572.009 F3600
G1 Y84.07 E1572.241
G1 Y79.42 E1572.472
G1 Y74.78 E1572.704
G1 X137.2 Y74.84 F9000
G1 Y79.5 E1572.936 F3600
G1 Y84.15 E1573.169
G1 Y88.81 E1573.401
G1 Y93.46 E1573.633
G1 X137.6 Y93.58 F9000
G1 Y88.91 E1573.866 F3600
G1 Y84.25 E1574.099
G1 Y79.58 E1574.331
G1 Y74.91 E1574.564
G1 X138 Y74.99 F9000
G1 Y79.67 E1574.798 F3600
G1 Y84.35 E1575.031
G1 Y89.02 E1575.265
G1 Y93.7 E1575.498
G1 X138.4 Y93.84 F9000
G1 Y89.15 E1575.732 F3600
G1 Y84.46 E1575.967
G1 Y79.76 E1576.201
G1 Y75.07 E1576.435
G1 X138.8 Y75.14 F9000
G1 Y79.85 E1576.67 F3600
G1 Y84.57 E1576.905
G1 Y89.28 E1577.14
G1 Y93.99 E1577.375
G1 X139.2 Y94.13 F9000
G1 Y89.4 E1577.611 F3600
G1 Y84.68 E1577.847
G1 Y79.95 E1578.082
G1 Y75.22 E1578.318
G1 X139.6 Y75.31 F9000
G1 Y80.06 E1578.555 F3600
G1 Y84.8 E1578.792
G1 Y89.55 E1579.028
G1 Y94.29 E1579.265
G1 X140 Y94.46 F9000
G1 Y89.69 E1579.503 F3600
G1 Y84.93 E1579.741
G1 Y80.16 E1579.978
G1 Y75.39 E1580.216
G1 X140.4 Y75.48 F9000
G1 Y80.27 E1580.455 F3600
G1 Y85.07 E1580.695
G1 Y89.86 E1580.934
G1 Y94.65 E1581.173
G1 X140.8 Y94.83 F9000
G1 Y90.02 E1581.413 F3600
G1 Y85.2 E1581.654
G1 Y80.39 E1581.894
G1 Y75.57 E1582.134
G1 X141.2 Y75.66 F9000
G1 Y80.5 E1582.376 F3600
G1 Y85.34 E1582.617
G1 Y90.18 E1582.859
G1 Y95.02 E1583.1
G1 X141.6 Y95.23 F9000
G1 Y90.36 E1583.343 F3600
G1 Y85.49 E1583.586
G1 Y80.62 E1583.829
G1 Y75.75 E1584.072
G1 X142 Y75.84 F9000
G1 Y80.74 E1584.317 F3600
G1 Y85.64 E1584.561
G1 Y90.54 E1584.806
G1 Y95.44 E1585.05
G1 X142.4 Y95.66 F9000
G1 Y90.73 E1585.296 F3600
G1 Y85.8 E1585.543
G1 Y80.86 E1585.789
G1 Y75.93 E1586.035
G1 X142.8 Y76.03 F9000
G1 Y81 E1586.283 F3600
G1 Y85.97 E1586.531
G1 Y90.93 E1586.778
G1 Y95.9 E1587.026
G1 X143.2 Y96.13 F9000
G1 Y92.13 E1587.226 F3600
G1 Y88.13 E1587.425
G1 Y84.12 E1587.625
G1 Y80.12 E1587.824
G1 Y76.12 E1588.024
G1 X143.6 Y76.22 F9000
G1 Y80.25 E1588.225 F3600
G1 Y84.29 E1588.427
G1 Y88.32 E1588.628
G1 Y92.36 E1588.83
G1 Y96.39 E1589.031
G1 X144 Y96.66 F9000
G1 Y92.59 E1589.234 F3600
G1 Y88.52 E1589.437
G1 Y84.46 E1589.639
G1 Y80.39 E1589.842
G1 Y76.32 E1590.045
G1 X144.4 Y76.43 F9000
G1 Y80.53 E1590.25 F3600
G1 Y84.63 E1590.454
G1 Y88.74 E1590.659
G1 Y92.84 E1590.863
G1 Y96.94 E1591.068
G1 X144.8 Y97.23 F9000
G1 Y93.09 E1591.275 F3600
G1 Y88.95 E1591.481
G1 Y84.81 E1591.688
G1 Y80.67 E1591.894
G1 Y76.53 E1592.101
G1 X145.2 Y76.64 F9000
G1 Y81.37 E1592.337 F3600
G1 Y86.1 E1592.573
G1 Y90.83 E1592.809
G1 Y95.56 E1593.045
G1 Y100.29 E1593.281
G1 Y105.02 E1593.517
G1 Y109.75 E1593.753
G1 Y114.48 E1593.988
G1 Y119.21 E1594.224
G1 Y123.94 E1594.46
G1 Y128.67 E1594.696
G1 Y133.4 E1594.932
G1 Y138.13 E1595.168
G1 Y142.86 E1595.404
G1 Y147.59 E1595.64
G1 X144.8 Y148.24 F9000
G1 Y143.69 E1595.867 F3600
G1 Y139.15 E1596.094
G1 Y134.6 E1596.321
G1 Y130.06 E1596.548
G1 Y125.51 E1596.774
G1 Y120.96 E1597.001
G1 Y116.42 E1597.228
G1 Y111.87 E1597.455
G1 Y111.74 F9000
G1 Y107.3 E1597.677 F3600
G1 Y102.85 E1597.898
G1 Y98.41 E1598.12
G1 X144.4 Y98.75 F9000
G1 Y102.84 E1598.324 F3600
G1 Y106.94 E1598.529
G1 Y111.03 E1598.733
G1 X144 Y110.85 F9000
G1 Y106.82 E1598.934 F3600
G1 Y102.78 E1599.136
G1 Y98.75 E1599.337
G1 X143.6 F9000
G1 Y102.78 E1599.538 F3600
G1 Y106.82 E1599.739
G1 Y110.85 E1599.94
G1 X143.2 Y110.85 F9000
G1 Y106.82 E1600.141 F3600
G1 Y102.78 E1600.343
G1 Y98.75 E1600.544
G1 X142.8 F9000
G1 Y102.78 E1600.745 F3600
G1 Y106.82 E1600.947
G1 Y110.85 E1601.148
G1 X142.4 Y110.85 F9000
G1 Y106.82 E1601.349 F3600
G1 Y102.78 E1601.55
G1 Y98.75 E1601.751
G1 X142 F9000
G1 Y102.79 E1601.952 F3600
G1 Y106.82 E1602.154
G1 Y110.86 E1602.355
G1 X141.6 F9000
G1 Y106.82 E1602.556 F3600
G1 Y102.79 E1602.758
G1 Y98.75 E1602.959
G1 X141.2 F9000
G1 Y102.79 E1603.16 F3600
G1 Y106.82 E1603.362
G1 Y110.86 E1603.563
G1 X140.8 Y110.86 F9000
G1 Y106.82 E1603.764 F3600
G1 Y102.79 E1603.966
G1 Y98.75 E1604.167
G1 X140.4 F9000
G1 Y102.79 E1604.368 F3600
G1 Y106.82 E1604.57
G1 Y110.86 E1604.771
G1 X140 Y110.86 F9000
G1 Y106.82 E1604.972 F3600
G1 Y102.79 E1605.174
G1 Y98.75 E1605.375
G1 X139.6 F9000
G1 Y102.79 E1605.576 F3600
G1 Y106.82 E1605.778
G1 Y110.86 E1605.979
G1 X139.2 F9000
G1 Y106.82 E1606.18 F3600
G1 Y102.79 E1606.382
G1 Y98.75 E1606.583
G1 X138.8 F9000
G1 Y102.79 E1606.785 F3600
G1 Y106.82 E1606.986
G1 Y110.86 E1607.188
G1 X138.4 Y110.86 F9000
G1 Y106.82 E1607.389 F3600
G1 Y102.79 E1607.591
G1 Y98.75 E1607.792
G1 X138 F9000
G1 Y102.79 E1607.993 F3600
G1 Y106.82 E1608.195
G1 Y110.86 E1608.396
G1 X137.6 Y110.86 F9000
G1 Y106.82 E1608.597 F3600
G1 Y102.79 E1608.799
G1 Y98.75 E1609
G1 X137.2 F9000
G1 Y102.79 E1609.202 F3600
G1 Y106.82 E1609.403
G1 Y110.86 E1609.605
G1 X136.8 Y110.87 F9000
G1 Y106.83 E1609.806 F3600
G1 Y102.79 E1610.008
G1 Y98.75 E1610.209
G1 X136.4 F9000
G1 Y102.79 E1610.411 F3600
G1 Y106.83 E1610.612
G1 Y110.87 E1610.814
G1 X136 Y110.87 F9000
G1 Y106.83 E1611.015 F3600
G1 Y102.79 E1611.217
G1 Y98.75 E1611.418
G1 X135.6 F9000
G1 Y102.79 E1611.62 F3600
G1 Y106.83 E1611.821
G1 Y110.87 E1612.023
G1 X135.2 F9000
G1 Y106.83 E1612.224 F3600
G1 Y102.79 E1612.426
G1 Y98.75 E1612.627
G1 X134.8 F9000
G1 Y102.79 E1612.829 F3600
G1 Y106.83 E1613.03
G1 Y110.87 E1613.232
G1 X134.4 Y110.87 F9000
G1 Y106.83 E1613.433 F3600
G1 Y102.79 E1613.635
G1 Y98.75 E1613.836
G1 X134 F9000
G1 Y102.79 E1614.038 F3600
G1 Y106.83 E1614.239
G1 Y110.87 E1614.441
G1 X133.6 Y110.87 F9000
G1 Y106.83 E1614.643 F3600
G1 Y102.79 E1614.844
G1 Y98.75 E1615.046
G1 X133.2 F9000
G1 Y102.79 E1615.247 F3600
G1 Y106.83 E1615.449
G1 Y110.87 E1615.65
G1 X132.8 F9000
G1 Y106.83 E1615.852 F3600
G1 Y102.79 E1616.053
G1 Y98.75 E1616.255
G1 X132.4 F9000
G1 Y102.79 E1616.457 F3600
G1 Y106.83 E1616.658
G1 Y110.87 E1616.86
G1 X132 Y110.88 F9000
G1 Y106.84 E1617.062 F3600
G1 Y102.79 E1617.263
G1 Y98.75 E1617.465
G1 X131.6 F9000
G1 Y102.79 E1617.667 F3600
G1 Y106.84 E1617.868
G1 Y110.88 E1618.07
G1 X131.2 Y110.88 F9000
G1 Y106.84 E1618.272 F3600
G1 Y102.79 E1618.473
G1 Y98.75 E1618.675
G1 X130.8 F9000
G1 Y102.79 E1618.877 F3600
G1 Y106.84 E1619.078
G1 Y110.88 E1619.28
G1 X130.4 Y110.88 F9000
G1 Y106.84 E1619.482 F3600
G1 Y102.79 E1619.683
G1 Y98.75 E1619.885
G1 X130 F9000
G1 Y102.79 E1620.087 F3600
G1 Y106.84 E1620.288
G1 Y110.88 E1620.49
G1 X129.6 Y110.88 F9000
G1 Y106.84 E1620.692 F3600
G1 Y102.79 E1620.893
G1 Y98.75 E1621.095
G1 X129.2 F9000
G1 Y102.79 E1621.297 F3600
G1 Y106.84 E1621.498
G1 Y110.88 E1621.7
G1 Y112.76 F9000
G1 Y114.46 E1621.785 F3600
G1 X129.6 F9000
G1 Y112.76 E1621.87 F3600
G1 X130 F9000
G1 Y114.46 E1621.954 F3600
G1 X130.4 F9000
G1 Y112.76 E1622.039 F3600
G1 X130.8 F9000
G1 Y114.46 E1622.124 F3600
G1 X131.2 F9000
G1 Y112.76 E1622.208 F3600
G1 X131.6 F9000
G1 Y114.46 E1622.293 F3600
G1 X132 F9000
G1 Y112.76 E1622.378 F3600
G1 X132.4 F9000
G1 Y114.46 E1622.463 F3600
G1 X132.8 F9000
G1 Y112.76 E1622.547 F3600
G1 X133.2 F9000
G1 Y114.46 E1622.632 F3600
G1 X133.6 F9000
G1 Y112.76 E1622.717 F3600
G1 X134 F9000
G1 Y114.46 E1622.801 F3600
G1 X134.4 F9000
G1 Y112.76 E1622.886 F3600
G1 X134.8 F9000
G1 Y114.46 E1622.971 F3600
G1 X135.2 F9000
G1 Y112.76 E1623.056 F3600
G1 X135.6 F9000
G1 Y114.46 E1623.14 F3600
G1 X136 F9000
G1 Y112.76 E1623.225 F3600
G1 X136.4 F9000
G1 Y114.46 E1623.31 F3600
G1 X136.8 F9000
G1 Y112.76 E1623.394 F3600
G1 X137.2 F9000
G1 Y114.46 E1623.479 F3600
G1 X137.6 F9000
G1 Y112.76 E1623.564 F3600
G1 X138 F9000
G1 Y114.82 E1623.666 F3600
G1 Y115.97 F9000
G1 Y120.9 E1623.912 F3600
G1 Y125.83 E1624.158
G1 Y130.76 E1624.404
G1 Y135.69 E1624.65
G1 Y140.62 E1624.896
G1 Y145.55 E1625.142
G1 Y150.48 E1625.388
G1 Y155.41 E1625.634
G1 Y160.34 E1625.88
G1 X138.4 Y159.65 F9000
G1 Y154.96 E1626.114 F3600
G1 Y150.27 E1626.348
G1 Y145.58 E1626.582
G1 Y140.89 E1626.816
G1 Y136.21 E1627.05
G1 Y131.52 E1627.283
G1 Y126.83 E1627.517
G1 Y122.14 E1627.751
G1 Y117.45 E1627.985
G1 Y112.76 E1628.219
G1 X138.8 F9000
G1 Y117.39 E1628.45 F3600
G1 Y122.03 E1628.681
G1 Y126.66 E1628.913
G1 Y131.3 E1629.144
G1 Y135.93 E1629.375
G1 Y140.56 E1629.606
G1 Y145.2 E1629.837
G1 Y149.83 E1630.069
G1 Y154.47 E1630.3
G1 Y159.1 E1630.531
G1 X139.2 Y159.21 F9000
G1 Y154.57 E1630.763 F3600
G1 Y149.92 E1630.994
G1 Y145.28 E1631.226
G1 Y140.63 E1631.458
G1 Y135.99 E1631.69
G1 Y131.34 E1631.921
G1 Y126.7 E1632.153
G1 Y122.05 E1632.385
G1 Y117.41 E1632.616
G1 Y112.76 E1632.848
G1 X139.6 F9000
G1 Y117.42 E1633.08 F3600
G1 Y122.07 E1633.313
G1 Y126.73 E1633.545
G1 Y131.38 E1633.777
G1 Y136.04 E1634.01
G1 Y140.69 E1634.242
G1 Y145.35 E1634.474
G1 Y150 E1634.706
G1 Y154.66 E1634.939
G1 Y159.31 E1635.171
G1 X140 Y159.42 F9000
G1 Y154.75 E1635.404 F3600
G1 Y150.09 E1635.637
G1 Y145.42 E1635.869
G1 Y140.76 E1636.102
G1 Y136.09 E1636.335
G1 Y131.42 E1636.568
G1 Y126.76 E1636.801
G1 Y122.09 E1637.033
G1 Y117.43 E1637.266
G1 Y112.76 E1637.499
G1 X140.4 F9000
G1 Y117.66 E1637.743 F3600
G1 Y122.56 E1637.988
G1 Y127.46 E1638.232
G1 Y132.36 E1638.476
G1 Y137.26 E1638.721
G1 Y142.15 E1638.965
G1 Y147.05 E1639.21
G1 Y151.95 E1639.454
G1 Y156.85 E1639.698
G1 Y161.75 E1639.943
G1 Y166.65 E1640.187
G1 X140.8 F9000
G1 Y161.75 E1640.431 F3600
G1 Y156.85 E1640.676
G1 Y151.95 E1640.92
G1 Y147.05 E1641.165
G1 Y142.15 E1641.409
G1 Y137.26 E1641.654
G1 Y132.36 E1641.898
G1 Y127.46 E1642.143
G1 Y122.56 E1642.387
G1 Y117.66 E1642.632
G1 Y112.76 E1642.876
G1 X141.2 F9000
G1 Y117.66 E1643.12 F3600
G1 Y122.56 E1643.365
G1 Y127.46 E1643.609
G1 Y132.36 E1643.853
G1 Y137.26 E1644.098
G1 Y142.15 E1644.342
G1 Y147.05 E1644.587
G1 Y151.95 E1644.831
G1 Y156.85 E1645.075
G1 Y161.75 E1645.32
G1 Y166.65 E1645.564
G1 X141.6 F9000
G1 Y161.75 E1645.808 F3600
G1 Y156.85 E1646.053
G1 Y151.95 E1646.297
G1 Y147.05 E1646.541
G1 Y142.15 E1646.786
G1 Y137.26 E1647.03
G1 Y132.36 E1647.275
G1 Y127.46 E1647.519
G1 Y122.56 E1647.763
G1 Y117.66 E1648.008
G1 Y112.76 E1648.252
G1 X142 F9000
G1 Y117.66 E1648.496 F3600
G1 Y122.56 E1648.741
G1 Y127.46 E1648.985
G1 Y132.36 E1649.23
G1 Y137.26 E1649.474
G1 Y142.15 E1649.719
G1 Y147.05 E1649.963
G1 Y151.95 E1650.208
G1 Y156.85 E1650.452
G1 Y161.75 E1650.697
G1 Y166.65 E1650.941
G1 X142.4 F9000
G1 Y161.75 E1651.185 F3600
G1 Y156.85 E1651.43
G1 Y151.95 E1651.674
G1 Y147.05 E1651.918
G1 Y142.15 E1652.163
G1 Y137.26 E1652.407
G1 Y132.36 E1652.652
G1 Y127.46 E1652.896
G1 Y122.56 E1653.14
G1 Y117.66 E1653.385
G1 Y112.76 E1653.629
G1 X142.8 F9000
G1 Y117.66 E1653.873 F3600
G1 Y122.56 E1654.118
G1 Y127.46 E1654.362
G1 Y132.36 E1654.607
G1 Y137.26 E1654.851
G1 Y142.15 E1655.096
G1 Y147.05 E1655.34
G1 Y151.95 E1655.585
G1 Y156.85 E1655.829
G1 Y161.75 E1656.074
G1 Y166.65 E1656.318
G1 X143.2 F9000
G1 Y161.75 E1656.562 F3600
G1 Y156.85 E1656.807
G1 Y151.95 E1657.051
G1 Y147.05 E1657.295
G1 Y142.15 E1657.54
G1 Y137.26 E1657.784
G1 Y132.36 E1658.029
G1 Y127.46 E1658.273
G1 Y122.56 E1658.517
G1 Y117.66 E1658.762
G1 Y112.76 E1659.006
G1 X143.6 F9000
G1 Y117.66 E1659.25 F3600
G1 Y122.56 E1659.495
G1 Y127.46 E1659.739
G1 Y132.36 E1659.984
G1 Y137.26 E1660.228
G1 Y142.15 E1660.473
G1 Y147.05 E1660.717
G1 Y151.95 E1660.962
G1 Y156.85 E1661.206
G1 Y161.75 E1661.451
G1 Y166.65 E1661.695
G1 X144 F9000
G1 Y162.57 E1661.898 F3600
G1 Y158.5 E1662.102
G1 Y154.42 E1662.305
G1 Y150.34 E1662.508
G1 X144.4 Y150.88 F9000
G1 Y154.82 E1662.705 F3600
G1 Y158.77 E1662.902
G1 Y162.71 E1663.098
G1 Y166.65 E1663.295
G1 X144.8 F9000
G1 Y162.71 E1663.492 F3600
G1 Y158.77 E1663.688
G1 Y154.82 E1663.885
G1 Y150.88 E1664.081
G1 X145.2 F9000
G1 Y154.82 E1664.278 F3600
G1 Y158.77 E1664.475
G1 Y162.71 E1664.671
G1 Y166.65 E1664.868
G1 X145.6 F9000
G1 Y162.71 E1665.065 F3600
G1 Y158.77 E1665.261
G1 Y154.82 E1665.458
G1 Y150.88 E1665.654
G1 X146 F9000
G1 Y154.82 E1665.851 F3600
G1 Y158.77 E1666.048
G1 Y162.71 E1666.244
G1 Y166.65 E1666.441
G1 X146.4 F9000
G1 Y162.71 E1666.638 F3600
G1 Y158.77 E1666.834
G1 Y154.82 E1667.031
G1 Y150.88 E1667.227
G1 X146.8 F9000
G1 Y154.82 E1667.424 F3600
G1 Y158.77 E1667.621
G1 Y162.71 E1667.817
G1 Y166.65 E1668.014
G1 X147.2 F9000
G1 Y162.71 E1668.211 F3600
G1 Y158.77 E1668.407
G1 Y154.82 E1668.604
G1 Y150.88 E1668.8
G1 X147.6 F9000
G1 Y154.82 E1668.997 F3600
G1 Y158.77 E1669.194
G1 Y162.71 E1669.39
G1 Y166.65 E1669.587
G1 X148 F9000
G1 Y162.71 E1669.784 F3600
G1 Y158.77 E1669.98
G1 Y154.82 E1670.177
G1 Y150.88 E1670.373
G1 X148.4 F9000
G1 Y154.82 E1670.57 F3600
G1 Y158.77 E1670.767
G1 Y162.71 E1670.963
G1 Y166.65 E1671.16
G1 X148.8 F9000
G1 Y162.71 E1671.357 F3600
G1 Y158.77 E1671.554
G1 Y154.82 E1671.75
G1 Y150.88 E1671.947
G1 X149.2 F9000
G1 Y154.82 E1672.144 F3600
G1 Y158.77 E1672.34
G1 Y162.71 E1672.537
G1 Y166.65 E1672.733
G1 X149.6 F9000
G1 Y161.72 E1672.979 F3600
G1 Y156.8 E1673.225
G1 Y151.87 E1673.47
G1 Y146.95 E1673.716
G1 Y142.02 E1673.962
G1 Y137.09 E1674.208
G1 Y132.17 E1674.453
G1 Y127.24 E1674.699
G1 Y122.32 E1674.945
G1 Y117.39 E1675.191
G1 Y112.46 E1675.437
G1 Y107.54 E1675.682
G1 Y102.61 E1675.928
G1 Y97.68 E1676.174
G1 Y92.76 E1676.42
G1 Y87.83 E1676.665
G1 Y82.91 E1676.911
G1 Y77.98 E1677.157
G1 X149.2 Y77.84 F9000
G1 Y82.53 E1677.391 F3600
G1 Y87.21 E1677.625
G1 Y91.9 E1677.859
G1 Y96.59 E1678.092
G1 Y101.28 E1678.326
G1 Y105.96 E1678.56
G1 Y110.65 E1678.794
G1 Y115.34 E1679.028
G1 Y120.02 E1679.262
G1 Y124.71 E1679.496
G1 Y129.4 E1679.729
G1 Y134.09 E1679.963
G1 Y138.77 E1680.197
G1 Y143.46 E1680.431
G1 X148.8 Y143.35 F9000
G1 Y138.66 E1680.665 F3600
G1 Y133.97 E1680.899
G1 Y129.28 E1681.133
G1 Y124.59 E1681.367
G1 Y119.9 E1681.601
G1 Y115.21 E1681.835
G1 Y110.53 E1682.069
G1 Y105.84 E1682.302
G1 Y101.15 E1682.536
G1 Y96.46 E1682.77
G1 Y91.77 E1683.004
G1 Y87.08 E1683.238
G1 Y82.39 E1683.472
G1 Y77.7 E1683.706
G1 X148.4 Y77.58 F9000
G1 Y82.27 E1683.94 F3600
G1 Y86.96 E1684.174
G1 Y91.65 E1684.408
G1 Y96.34 E1684.642
G1 Y101.03 E1684.876
G1 Y105.72 E1685.11
G1 Y110.41 E1685.344
G1 Y115.09 E1685.577
G1 Y119.78 E1685.811
G1 Y124.47 E1686.045
G1 Y129.16 E1686.279
G1 Y133.85 E1686.513
G1 Y138.54 E1686.747
G1 Y143.23 E1686.981
G1 X148 Y143.12 F9000
G1 Y138.43 E1687.215 F3600
G1 Y133.74 E1687.449
G1 Y129.05 E1687.683
G1 Y124.36 E1687.917
G1 Y119.67 E1688.151
G1 Y114.98 E1688.385
G1 Y110.29 E1688.62
G1 Y105.59 E1688.854
G1 Y100.9 E1689.088
G1 Y96.21 E1689.322
G1 Y91.52 E1689.556
G1 Y86.83 E1689.79
G1 Y82.14 E1690.024
G1 Y77.45 E1690.258
G1 X147.6 Y77.33 F9000
G1 Y82.07 E1690.494 F3600
G1 Y86.81 E1690.731
G1 Y91.55 E1690.967
G1 Y96.29 E1691.204
G1 Y101.03 E1691.44
G1 Y105.77 E1691.677
G1 Y110.51 E1691.913
G1 Y115.24 E1692.149
G1 Y119.98 E1692.386
G1 Y124.72 E1692.622
G1 Y129.46 E1692.859
G1 Y134.2 E1693.095
G1 Y138.94 E1693.332
G1 Y143.68 E1693.568
G1 X147.2 Y144.33 F9000
G1 Y139.54 E1693.807 F3600
G1 Y134.74 E1694.046
G1 Y129.95 E1694.286
G1 Y125.15 E1694.525
G1 Y120.36 E1694.764
G1 Y115.56 E1695.003
G1 Y110.77 E1695.243
G1 Y105.97 E1695.482
G1 Y101.18 E1695.721
G1 Y96.38 E1695.96
G1 Y91.59 E1696.199
G1 Y86.79 E1696.439
G1 Y82 E1696.678
G1 Y77.2 E1696.917
G1 X146.8 Y77.09 F9000
G1 Y81.94 E1697.159 F3600
G1 Y86.79 E1697.401
G1 Y91.64 E1697.643
G1 Y96.49 E1697.885
G1 Y101.34 E1698.127
G1 Y106.19 E1698.369
G1 Y111.04 E1698.611
G1 Y115.88 E1698.852
G1 Y120.73 E1699.094
G1 Y125.58 E1699.336
G1 Y130.43 E1699.578
G1 Y135.28 E1699.82
G1 Y140.13 E1700.062
G1 Y144.98 E1700.304
G1 X146.4 Y145.63 F9000
G1 Y140.73 E1700.549 F3600
G1 Y135.82 E1700.793
G1 Y130.92 E1701.038
G1 Y126.01 E1701.283
G1 Y121.11 E1701.528
G1 Y116.2 E1701.772
G1 Y111.3 E1702.017
G1 Y106.4 E1702.262
G1 Y101.49 E1702.506
G1 Y96.59 E1702.751
G1 Y91.68 E1702.996
G1 Y86.78 E1703.241
G1 Y81.87 E1703.485
G1 Y76.97 E1703.73
G1 X146 Y76.86 F9000
G1 Y81.82 E1703.977 F3600
G1 Y86.78 E1704.225
G1 Y91.74 E1704.472
G1 Y96.69 E1704.72
G1 Y101.65 E1704.967
G1 Y106.61 E1705.215
G1 Y111.57 E1705.462
G1 Y116.53 E1705.709
G1 Y121.49 E1705.957
G1 Y126.45 E1706.204
G1 Y131.4 E1706.452
G1 Y136.36 E1706.699
G1 Y141.32 E1706.947
G1 Y146.28 E1707.194
G1 X145.6 Y146.94 F9000
G1 Y142.26 E1707.427 F3600
G1 Y137.58 E1707.661
G1 Y132.9 E1707.894
G1 Y128.22 E1708.128
G1 Y123.54 E1708.361
G1 Y118.86 E1708.594
G1 Y114.18 E1708.828
G1 Y109.5 E1709.061
G1 Y104.82 E1709.295
G1 Y100.14 E1709.528
G1 Y95.46 E1709.761
G1 Y90.78 E1709.995
G1 Y86.1 E1710.228
G1 Y81.42 E1710.462
G1 Y76.74 E1710.695
G1 X150 Y78.12 F9000
G1 Y83.04 E1710.94 F3600
G1 Y87.96 E1711.186
G1 Y92.88 E1711.431
G1 Y97.79 E1711.677
G1 Y102.71 E1711.922
G1 Y107.63 E1712.167
G1 Y112.55 E1712.413
G1 Y117.47 E1712.658
G1 Y122.39 E1712.904
G1 Y127.3 E1713.149
G1 Y132.22 E1713.394
G1 Y137.14 E1713.64
G1 Y142.06 E1713.885
G1 Y146.98 E1714.13
G1 Y151.9 E1714.376
G1 Y156.81 E1714.621
G1 Y161.73 E1714.867
G1 Y166.65 E1715.112
G1 X150.4 F9000
G1 Y161.74 E1715.357 F3600
G1 Y156.83 E1715.602
G1 Y151.92 E1715.847
G1 Y147.01 E1716.092
G1 Y142.09 E1716.337
G1 Y137.18 E1716.582
G1 Y132.27 E1716.827
G1 Y127.36 E1717.072
G1 Y122.45 E1717.317
G1 Y117.54 E1717.562
G1 Y112.63 E1717.807
G1 Y107.72 E1718.052
G1 Y102.81 E1718.297
G1 Y97.89 E1718.542
G1 Y92.98 E1718.787
G1 Y88.07 E1719.032
G1 Y83.16 E1719.277
G1 Y78.25 E1719.522
G1 X150.8 Y78.4 F9000
G1 Y83.3 E1719.767 F3600
G1 Y88.21 E1720.011
G1 Y93.11 E1720.256
G1 Y98.01 E1720.5
G1 Y102.91 E1720.745
G1 Y107.82 E1720.989
G1 Y112.72 E1721.234
G1 Y117.62 E1721.478
G1 Y122.53 E1721.723
G1 Y127.43 E1721.968
G1 Y132.33 E1722.212
G1 Y137.23 E1722.457
G1 Y142.14 E1722.701
G1 Y147.04 E1722.946
G1 Y151.94 E1723.19
G1 Y156.84 E1723.435
G1 Y161.75 E1723.679
G1 Y166.65 E1723.924
G1 X151.2 F9000
G1 Y161.76 E1724.168 F3600
G1 Y156.86 E1724.412
G1 Y151.97 E1724.657
G1 Y147.07 E1724.901
G1 Y142.18 E1725.145
G1 Y137.29 E1725.389
G1 Y132.39 E1725.633
G1 Y127.5 E1725.877
G1 Y122.61 E1726.122
G1 Y117.71 E1726.366
G1 Y112.82 E1726.61
G1 Y107.92 E1726.854
G1 Y103.03 E1727.098
G1 Y98.14 E1727.342
G1 Y93.24 E1727.587
G1 Y88.35 E1727.831
G1 Y83.45 E1728.075
G1 Y78.56 E1728.319
G1 X151.6 Y78.71 F9000
G1 Y83.6 E1728.563 F3600
G1 Y88.48 E1728.806
G1 Y93.37 E1729.05
G1 Y98.25 E1729.294
G1 Y103.14 E1729.538
G1 Y108.02 E1729.781
G1 Y112.91 E1730.025
G1 Y117.79 E1730.269
G1 Y122.68 E1730.513
G1 Y127.57 E1730.756
G1 Y132.45 E1731
G1 Y137.34 E1731.244
G1 Y142.22 E1731.487
G1 Y147.11 E1731.731
G1 Y151.99 E1731.975
G1 Y156.88 E1732.219
G1 Y161.76 E1732.462
G1 Y166.65 E1732.706
G1 X152 F9000
G1 Y161.77 E1732.949 F3600
G1 Y156.9 E1733.193
G1 Y152.02 E1733.436
G1 Y147.14 E1733.679
G1 Y142.26 E1733.923
G1 Y137.39 E1734.166
G1 Y132.51 E1734.409
G1 Y127.63 E1734.653
G1 Y122.76 E1734.896
G1 Y117.88 E1735.139
G1 Y113 E1735.383
G1 Y108.12 E1735.626
G1 Y103.25 E1735.869
G1 Y98.37 E1736.113
G1 Y93.49 E1736.356
G1 Y88.61 E1736.599
G1 Y83.74 E1736.843
G1 Y78.86 E1737.086
G1 X152.4 Y79.03 F9000
G1 Y83.9 E1737.329 F3600
G1 Y88.77 E1737.572
G1 Y93.63 E1737.815
G1 Y98.5 E1738.057
G1 Y103.37 E1738.3
G1 Y108.24 E1738.543
G1 Y113.1 E1738.786
G1 Y117.97 E1739.029
G1 Y122.84 E1739.272
G1 Y127.71 E1739.514
G1 Y132.58 E1739.757
G1 Y137.44 E1740
G1 Y142.31 E1740.243
G1 Y147.18 E1740.486
G1 Y152.05 E1740.729
G1 Y156.91 E1740.971
G1 Y161.78 E1741.214
G1 Y166.65 E1741.457
G1 X152.8 F9000
G1 Y161.79 E1741.699 F3600
G1 Y156.93 E1741.942
G1 Y152.08 E1742.184
G1 Y147.22 E1742.427
G1 Y142.36 E1742.669
G1 Y137.5 E1742.911
G1 Y132.64 E1743.154
G1 Y127.78 E1743.396
G1 Y122.93 E1743.639
G1 Y118.07 E1743.881
G1 Y113.21 E1744.123
G1 Y108.35 E1744.366
G1 Y103.49 E1744.608
G1 Y98.63 E1744.85
G1 Y93.78 E1745.093
G1 Y88.92 E1745.335
G1 Y84.06 E1745.578
G1 Y79.2 E1745.82
G1 X153.2 Y79.37 F9000
G1 Y84.22 E1746.062 F3600
G1 Y89.07 E1746.304
G1 Y93.92 E1746.546
G1 Y98.77 E1746.788
G1 Y103.61 E1747.029
G1 Y108.46 E1747.271
G1 Y113.31 E1747.513
G1 Y118.16 E1747.755
G1 Y123.01 E1747.997
G1 Y127.86 E1748.239
G1 Y132.71 E1748.481
G1 Y137.56 E1748.723
G1 Y142.41 E1748.965
G1 Y147.25 E1749.206
G1 Y152.1 E1749.448
G1 Y156.95 E1749.69
G1 Y161.8 E1749.932
G1 Y166.65 E1750.174
G1 X153.6 F9000
G1 Y161.81 E1750.415 F3600
G1 Y156.97 E1750.657
G1 Y152.13 E1750.898
G1 Y147.29 E1751.14
G1 Y142.45 E1751.381
G1 Y137.61 E1751.623
G1 Y132.77 E1751.864
G1 Y127.93 E1752.106
G1 Y123.1 E1752.347
G1 Y118.26 E1752.588
G1 Y113.42 E1752.83
G1 Y108.58 E1753.071
G1 Y103.74 E1753.313
G1 Y98.9 E1753.554
G1 Y94.06 E1753.796
G1 Y89.22 E1754.037
G1 Y84.38 E1754.279
G1 Y79.54 E1754.52
G1 X154 Y79.73 F9000
G1 Y84.56 E1754.761 F3600
G1 Y89.39 E1755.002
G1 Y94.22 E1755.243
G1 Y99.05 E1755.484
G1 Y103.87 E1755.724
G1 Y108.7 E1755.965
G1 Y113.53 E1756.206
G1 Y118.36 E1756.447
G1 Y123.19 E1756.688
G1 Y128.02 E1756.929
G1 Y132.85 E1757.17
G1 Y137.68 E1757.411
G1 Y142.51 E1757.652
G1 Y147.33 E1757.892
G1 Y152.16 E1758.133
G1 Y156.99 E1758.374
G1 Y161.82 E1758.615
G1 Y166.65 E1758.856
G1 X154.4 F9000
G1 Y161.83 E1759.096 F3600
G1 Y157.01 E1759.337
G1 Y152.2 E1759.577
G1 Y147.38 E1759.818
G1 Y142.56 E1760.058
G1 Y137.74 E1760.298
G1 Y132.92 E1760.539
G1 Y128.1 E1760.779
G1 Y123.29 E1761.02
G1 Y118.47 E1761.26
G1 Y113.65 E1761.5
G1 Y108.83 E1761.741
G1 Y104.01 E1761.981
G1 Y99.19 E1762.221
G1 Y94.38 E1762.462
G1 Y89.56 E1762.702
G1 Y84.74 E1762.943
G1 Y79.92 E1763.183
G1 X154.8 Y80.12 F9000
G1 Y84.93 E1763.423 F3600
G1 Y89.73 E1763.663
G1 Y94.54 E1763.903
G1 Y99.35 E1764.142
G1 Y104.16 E1764.382
G1 Y108.96 E1764.622
G1 Y113.77 E1764.862
G1 Y118.58 E1765.102
G1 Y123.39 E1765.342
G1 Y128.19 E1765.581
G1 Y133 E1765.821
G1 Y137.81 E1766.061
G1 Y142.61 E1766.301
G1 Y147.42 E1766.541
G1 Y152.23 E1766.781
G1 Y157.04 E1767.02
G1 Y161.84 E1767.26
G1 Y166.65 E1767.5
G1 X155.2 F9000
G1 Y161.85 E1767.739 F3600
G1 Y157.06 E1767.978
G1 Y152.26 E1768.218
G1 Y147.47 E1768.457
G1 Y142.67 E1768.696
G1 Y137.87 E1768.935
G1 Y133.08 E1769.175
G1 Y128.28 E1769.414
G1 Y123.49 E1769.653
G1 Y118.69 E1769.892
G1 Y113.89 E1770.131
G1 Y109.1 E1770.371
G1 Y104.3 E1770.61
G1 Y99.5 E1770.849
G1 Y94.71 E1771.088
G1 Y89.91 E1771.328
G1 Y85.12 E1771.567
G1 Y80.32 E1771.806
G1 X155.6 Y80.53 F9000
G1 Y85.31 E1772.045 F3600
G1 Y90.1 E1772.283
G1 Y94.88 E1772.522
G1 Y99.67 E1772.761
G1 Y104.45 E1773
G1 Y109.24 E1773.238
G1 Y114.02 E1773.477
G1 Y118.81 E1773.716
G1 Y123.59 E1773.955
G1 Y128.37 E1774.193
G1 Y133.16 E1774.432
G1 Y137.94 E1774.671
G1 Y142.73 E1774.909
G1 Y147.51 E1775.148
G1 Y152.3 E1775.387
G1 Y157.08 E1775.626
G1 Y161.87 E1775.864
G1 Y166.65 E1776.103
G1 X156 F9000
G1 Y161.88 E1776.341 F3600
G1 Y157.11 E1776.579
G1 Y152.33 E1776.817
G1 Y147.56 E1777.055
G1 Y142.79 E1777.293
G1 Y138.02 E1777.531
G1 Y133.24 E1777.769
G1 Y128.47 E1778.007
G1 Y123.7 E1778.246
G1 Y118.93 E1778.484
G1 Y114.16 E1778.722
G1 Y109.38 E1778.96
G1 Y104.61 E1779.198
G1 Y99.84 E1779.436
G1 Y95.07 E1779.674
G1 Y90.29 E1779.912
G1 Y85.52 E1780.15
G1 Y80.75 E1780.388
G1 X156.4 Y80.98 F9000
G1 Y85.74 E1780.625 F3600
G1 Y90.5 E1780.863
G1 Y95.26 E1781.1
G1 Y100.02 E1781.338
G1 Y104.78 E1781.575
G1 Y109.54 E1781.813
G1 Y114.3 E1782.05
G1 Y119.06 E1782.288
G1 Y123.82 E1782.525
G1 Y128.57 E1782.762
G1 Y133.33 E1783
G1 Y138.09 E1783.237
G1 Y142.85 E1783.475
G1 Y147.61 E1783.712
G1 Y152.37 E1783.95
G1 Y157.13 E1784.187
G1 Y161.89 E1784.425
G1 Y166.65 E1784.662
G1 X156.8 F9000
G1 Y161.9 E1784.899 F3600
G1 Y157.16 E1785.136
G1 Y152.41 E1785.373
G1 Y147.66 E1785.609
G1 Y142.92 E1785.846
G1 Y138.17 E1786.083
G1 Y133.42 E1786.32
G1 Y128.68 E1786.557
G1 Y123.93 E1786.794
G1 Y119.18 E1787.03
G1 Y114.44 E1787.267
G1 Y109.69 E1787.504
G1 Y104.94 E1787.741
G1 Y100.2 E1787.978
G1 Y95.45 E1788.215
G1 Y90.7 E1788.451
G1 Y85.96 E1788.688
G1 Y81.21 E1788.925
G1 X157.2 Y81.44 F9000
G1 Y86.17 E1789.161 F3600
G1 Y90.91 E1789.397
G1 Y95.64 E1789.634
G1 Y100.38 E1789.87
G1 Y105.11 E1790.106
G1 Y109.84 E1790.342
G1 Y114.58 E1790.578
G1 Y119.31 E1790.814
G1 Y124.05 E1791.051
G1 Y128.78 E1791.287
G1 Y133.51 E1791.523
