; Generated with MatterSlice 2.20.4
; filamentDiameter = 1.75
; extrusionWidth = 0.4
; firstLayerExtrusionWidth = 0.4
; layerThickness = 0.3
; firstLayerThickness = 0.3
; automatic settings before start_gcode
G21 ; set units to millimeters
M107 ; fan off
M140 S25 ; start heating the bed
M104 T0 S210 ; start heating T0
M190 S25 ; wait for bed temperature to be reached
T0 ; set the active extruder to 0
; settings from start_gcode
G28 X0 Y0 Z0 ; home all axes
G1 Z5 F5000
M109 S210 ; set the extruder temp and wait
G28 X0 Y0 Z0 ; Home Z again in case there was filament on nozzle
G29 ; probe the bed
; automatic settings after start_gcode
T0 ; set the active extruder to 0
G90 ; use absolute coordinates
G92 E0 ; reset the expected extruder position
M82 ; use absolute distance for extrusion
; Layer count: 267
; Layer Change GCode
; LAYER:0
; LAYER_HEIGHT:0.3
; TYPE:FILL
M400
M107
G1 X68.2 Y81.2 Z0.8 F9000
; TYPE:SKIRT
G1 Z0.3
G1 F1800
G1 X159.8 E4.57 F1080
G1 Y172.8 E9.14
G1 X68.2 E13.71
G1 Y81.2 E18.28
G1 X68.6 Y81.6 F9000
G1 X159.4 E22.81 F1080
G1 Y172.4 E27.34
G1 X68.6 E31.87
G1 Y81.6 E36.4
G1 X74.2 Y87.2 F9000
; TYPE:WALL-OUTER
G1 X153.8 E40.371 F1080
G1 Y166.8 E44.342
G1 X74.2 E48.314
G1 Y87.24 E52.283
G1 Y87.2
G1 X77.2
G1 X74.6 Y87.6 F9000
; TYPE:WALL-INNER
G1 X153.4 E56.214 F1080
G1 Y166.4 E60.146
G1 X74.6 E64.077
G1 Y87.64 E68.006
G1 Y87.6
G1 X74.94 Y88 F9000
; TYPE:FILL
G1 X153.06 E71.904 F1080
G1 Y88.4 F9000
G1 X74.94 E75.801 F1080
G1 Y88.8 F9000
G1 X153.06 E79.699 F1080
G1 Y89.2 F9000
G1 X74.94 E83.596 F1080
G1 Y89.6 F9000
G1 X153.06 E87.494 F1080
G1 Y90 F9000
G1 X74.94 E91.391 F1080
G1 Y90.4 F9000
G1 X153.06 E95.288 F1080
G1 Y90.8 F9000
G1 X74.94 E99.186 F1080
G1 Y91.2 F9000
G1 X153.06 E103.083 F1080
G1 Y91.6 F9000
G1 X74.94 E106.981 F1080
G1 Y92 F9000
G1 X153.06 E110.878 F1080
G1 Y92.4 F9000
G1 X74.94 E114.776 F1080
G1 Y92.8 F9000
G1 X153.06 E118.673 F1080
G1 Y93.2 F9000
G1 X74.94 E122.57 F1080
G1 Y93.6 F9000
G1 X153.06 E126.468 F1080
G1 Y94 F9000
G1 X74.94 E130.365 F1080
G1 Y94.4 F9000
G1 X153.06 E134.263 F1080
G1 Y94.8 F9000
G1 X74.94 E138.16 F1080
G1 Y95.2 F9000
G1 X153.06 E142.057 F1080
G1 Y95.6 F9000
G1 X74.94 E145.955 F1080
G1 Y96 F9000
G1 X153.06 E149.852 F1080
G1 Y96.4 F9000
G1 X74.94 E153.75 F1080
G1 Y96.8 F9000
G1 X153.06 E157.647 F1080
G1 Y97.2 F9000
G1 X74.94 E161.545 F1080
G1 Y97.6 F9000
G1 X153.06 E165.442 F1080
G1 Y98 F9000
G1 X74.94 E169.339 F1080
G1 Y98.4 F9000
G1 X153.06 E173.237 F1080
G1 Y98.8 F9000
G1 X74.94 E177.134 F1080
G1 Y99.2 F9000
G1 X153.06 E181.032 F1080
G1 Y99.6 F9000
G1 X74.94 E184.929 F1080
G1 Y100 F9000
G1 X153.06 E188.827 F1080
G1 Y100.4 F9000
G1 X74.94 E192.724 F1080
G1 Y100.8 F9000
G1 X153.06 E196.621 F1080
G1 Y101.2 F9000
G1 X74.94 E200.519 F1080
G1 Y101.6 F9000
G1 X153.06 E204.416 F1080
G1 Y102 F9000
G1 X74.94 E208.314 F1080
G1 Y102.4 F9000
G1 X153.06 E212.211 F1080
G1 Y102.8 F9000
G1 X74.94 E216.108 F1080
G1 Y103.2 F9000
G1 X153.06 E220.006 F1080
G1 Y103.6 F9000
G1 X74.94 E223.903 F1080
G1 Y104 F9000
G1 X153.06 E227.801 F1080
G1 Y104.4 F9000
G1 X74.94 E231.698 F1080
G1 Y104.8 F9000
G1 X153.06 E235.596 F1080
G1 Y105.2 F9000
G1 X74.94 E239.493 F1080
G1 Y105.6 F9000
G1 X153.06 E243.39 F1080
G1 Y106 F9000
G1 X74.94 E247.288 F1080
G1 Y106.4 F9000
G1 X153.06 E251.185 F1080
G1 Y106.8 F9000
G1 X74.94 E255.083 F1080
G1 Y107.2 F9000
G1 X153.06 E258.98 F1080
G1 Y107.6 F9000
G1 X74.94 E262.878 F1080
G1 Y108 F9000
G1 X153.06 E266.775 F1080
G1 Y108.4 F9000
G1 X74.94 E270.672 F1080
G1 Y108.8 F9000
G1 X153.06 E274.57 F1080
G1 Y109.2 F9000
G1 X74.94 E278.467 F1080
G1 Y109.6 F9000
G1 X153.06 E282.365 F1080
G1 Y110 F9000
G1 X74.94 E286.262 F1080
G1 Y110.4 F9000
G1 X153.06 E290.16 F1080
G1 Y110.8 F9000
G1 X74.94 E294.057 F1080
G1 Y111.2 F9000
G1 X153.06 E297.954 F1080
G1 Y111.6 F9000
G1 X74.94 E301.852 F1080
G1 Y112 F9000
G1 X153.06 E305.749 F1080
G1 Y112.4 F9000
G1 X74.94 E309.647 F1080
G1 Y112.8 F9000
G1 X153.06 E313.544 F1080
G1 Y113.2 F9000
G1 X74.94 E317.441 F1080
G1 Y113.6 F9000
G1 X153.06 E321.339 F1080
G1 Y114 F9000
G1 X74.94 E325.236 F1080
G1 Y114.4 F9000
G1 X153.06 E329.134 F1080
G1 Y114.8 F9000
G1 X74.94 E333.031 F1080
G1 Y115.2 F9000
G1 X153.06 E336.929 F1080
G1 Y115.6 F9000
G1 X74.94 E340.826 F1080
G1 Y116 F9000
G1 X153.06 E344.723 F1080
G1 Y116.4 F9000
G1 X74.94 E348.621 F1080
G1 Y116.8 F9000
G1 X153.06 E352.518 F1080
G1 Y117.2 F9000
G1 X74.94 E356.416 F1080
G1 Y117.6 F9000
G1 X153.06 E360.313 F1080
G1 Y118 F9000
G1 X74.94 E364.211 F1080
G1 Y118.4 F9000
G1 X153.06 E368.108 F1080
G1 Y118.8 F9000
G1 X74.94 E372.005 F1080
G1 Y119.2 F9000
G1 X153.06 E375.903 F1080
G1 Y119.6 F9000
G1 X74.94 E379.8 F1080
G1 Y120 F9000
G1 X153.06 E383.698 F1080
G1 Y120.4 F9000
G1 X74.94 E387.595 F1080
G1 Y120.8 F9000
G1 X153.06 E391.493 F1080
G1 Y121.2 F9000
G1 X74.94 E395.39 F1080
G1 Y121.6 F9000
G1 X153.06 E399.287 F1080
G1 Y122 F9000
G1 X74.94 E403.185 F1080
G1 Y122.4 F9000
G1 X153.06 E407.082 F1080
G1 Y122.8 F9000
G1 X74.94 E410.98 F1080
G1 Y123.2 F9000
G1 X153.06 E414.877 F1080
G1 Y123.6 F9000
G1 X74.94 E418.774 F1080
G1 Y124 F9000
G1 X153.06 E422.672 F1080
G1 Y124.4 F9000
G1 X74.94 E426.569 F1080
G1 Y124.8 F9000
G1 X153.06 E430.467 F1080
G1 Y125.2 F9000
G1 X74.94 E434.364 F1080
G1 Y125.6 F9000
G1 X153.06 E438.262 F1080
G1 Y126 F9000
G1 X74.94 E442.159 F1080
G1 Y126.4 F9000
G1 X153.06 E446.056 F1080
G1 Y126.8 F9000
G1 X74.94 E449.954 F1080
G1 Y127.2 F9000
G1 X153.06 E453.851 F1080
G1 Y127.6 F9000
G1 X74.94 E457.749 F1080
G1 Y128 F9000
G1 X153.06 E461.646 F1080
G1 Y128.4 F9000
G1 X74.94 E465.544 F1080
G1 Y128.8 F9000
G1 X153.06 E469.441 F1080
G1 Y129.2 F9000
G1 X74.94 E473.338 F1080
G1 Y129.6 F9000
G1 X153.06 E477.236 F1080
G1 Y130 F9000
G1 X74.94 E481.133 F1080
G1 Y130.4 F9000
G1 X153.06 E485.031 F1080
G1 Y130.8 F9000
G1 X74.94 E488.928 F1080
G1 Y131.2 F9000
G1 X153.06 Y131.2 E492.826 F1080
G1 Y131.6 F9000
G1 X74.94 Y131.6 E496.723 F1080
G1 Y132 F9000
G1 X153.06 Y132 E500.62 F1080
G1 Y132.4 F9000
G1 X74.94 Y132.4 E504.518 F1080
G1 Y132.8 F9000
G1 X153.06 Y132.8 E508.415 F1080
G1 Y133.2 F9000
G1 X74.94 Y133.2 E512.313 F1080
G1 Y133.6 F9000
G1 X153.06 Y133.6 E516.21 F1080
G1 Y134 F9000
G1 X74.94 Y134 E520.107 F1080
G1 Y134.4 F9000
G1 X153.06 Y134.4 E524.005 F1080
G1 Y134.8 F9000
G1 X74.94 Y134.8 E527.902 F1080
G1 Y135.2 F9000
G1 X153.06 Y135.2 E531.8 F1080
G1 Y135.6 F9000
G1 X74.94 Y135.6 E535.697 F1080
G1 Y136 F9000
G1 X153.06 Y136 E539.595 F1080
G1 Y136.4 F9000
G1 X74.94 Y136.4 E543.492 F1080
G1 Y136.8 F9000
G1 X153.06 Y136.8 E547.389 F1080
G1 Y137.2 F9000
G1 X74.94 Y137.2 E551.287 F1080
G1 Y137.6 F9000
G1 X153.06 Y137.6 E555.184 F1080
G1 Y138 F9000
G1 X74.94 Y138 E559.082 F1080
G1 Y138.4 F9000
G1 X153.06 Y138.4 E562.979 F1080
G1 Y138.8 F9000
G1 X74.94 Y138.8 E566.877 F1080
G1 Y139.2 F9000
G1 X153.06 Y139.2 E570.774 F1080
G1 Y139.6 F9000
G1 X74.94 Y139.6 E574.671 F1080
G1 Y140 F9000
G1 X153.06 Y140 E578.569 F1080
G1 Y140.4 F9000
G1 X74.94 Y140.4 E582.466 F1080
G1 Y140.8 F9000
G1 X153.06 Y140.8 E586.364 F1080
G1 Y141.2 F9000
G1 X74.94 Y141.2 E590.261 F1080
G1 Y141.6 F9000
G1 X153.06 Y141.6 E594.158 F1080
G1 Y142 F9000
G1 X74.94 Y142 E598.056 F1080
G1 Y142.4 F9000
G1 X153.06 Y142.4 E601.953 F1080
G1 Y142.8 F9000
G1 X74.94 Y142.8 E605.851 F1080
G1 Y143.2 F9000
G1 X153.06 Y143.2 E609.748 F1080
G1 Y143.6 F9000
G1 X74.94 Y143.6 E613.646 F1080
G1 Y144 F9000
G1 X153.06 Y144 E617.543 F1080
G1 Y144.4 F9000
G1 X74.94 Y144.4 E621.44 F1080
G1 Y144.8 F9000
G1 X153.06 Y144.8 E625.338 F1080
G1 Y145.2 F9000
G1 X74.94 Y145.2 E629.235 F1080
G1 Y145.6 F9000
G1 X153.06 Y145.6 E633.133 F1080
G1 Y146 F9000
G1 X74.94 Y146 E637.03 F1080
G1 Y146.4 F9000
G1 X153.06 Y146.4 E640.928 F1080
G1 Y146.8 F9000
G1 X74.94 Y146.8 E644.825 F1080
G1 Y147.2 F9000
G1 X153.06 Y147.2 E648.722 F1080
G1 Y147.6 F9000
G1 X74.94 Y147.6 E652.62 F1080
G1 Y148 F9000
G1 X153.06 Y148 E656.517 F1080
G1 Y148.4 F9000
G1 X74.94 Y148.4 E660.415 F1080
G1 Y148.8 F9000
G1 X153.06 Y148.8 E664.312 F1080
G1 Y149.2 F9000
G1 X74.94 Y149.2 E668.21 F1080
G1 Y149.6 F9000
G1 X153.06 Y149.6 E672.107 F1080
G1 Y150 F9000
G1 X74.94 Y150 E676.004 F1080
G1 Y150.4 F9000
G1 X153.06 Y150.4 E679.902 F1080
G1 Y150.8 F9000
G1 X74.94 Y150.8 E683.799 F1080
G1 Y151.2 F9000
G1 X153.06 Y151.2 E687.697 F1080
G1 Y151.6 F9000
G1 X74.94 Y151.6 E691.594 F1080
G1 Y152 F9000
G1 X153.06 Y152 E695.491 F1080
G1 Y152.4 F9000
G1 X74.94 Y152.4 E699.389 F1080
G1 Y152.8 F9000
G1 X153.06 Y152.8 E703.286 F1080
G1 Y153.2 F9000
G1 X74.94 Y153.2 E707.184 F1080
G1 Y153.6 F9000
G1 X153.06 Y153.6 E711.081 F1080
G1 Y154 F9000
G1 X74.94 Y154 E714.979 F1080
G1 Y154.4 F9000
G1 X153.06 Y154.4 E718.876 F1080
G1 Y154.8 F9000
G1 X74.94 Y154.8 E722.773 F1080
G1 Y155.2 F9000
G1 X153.06 Y155.2 E726.671 F1080
G1 Y155.6 F9000
G1 X74.94 Y155.6 E730.568 F1080
G1 Y156 F9000
G1 X153.06 Y156 E734.466 F1080
G1 Y156.4 F9000
G1 X74.94 Y156.4 E738.363 F1080
G1 Y156.8 F9000
G1 X153.06 Y156.8 E742.261 F1080
G1 Y157.2 F9000
G1 X74.94 Y157.2 E746.158 F1080
G1 Y157.6 F9000
G1 X153.06 Y157.6 E750.055 F1080
G1 Y158 F9000
G1 X74.94 Y158 E753.953 F1080
G1 Y158.4 F9000
G1 X153.06 Y158.4 E757.85 F1080
G1 Y158.8 F9000
G1 X74.94 Y158.8 E761.748 F1080
G1 Y159.2 F9000
G1 X153.06 Y159.2 E765.645 F1080
G1 Y159.6 F9000
G1 X74.94 Y159.6 E769.543 F1080
G1 Y160 F9000
G1 X153.06 Y160 E773.44 F1080
G1 Y160.4 F9000
G1 X74.94 Y160.4 E777.337 F1080
G1 Y160.8 F9000
G1 X153.06 Y160.8 E781.235 F1080
G1 Y161.2 F9000
G1 X74.94 Y161.2 E785.132 F1080
G1 Y161.6 F9000
G1 X153.06 Y161.6 E789.03 F1080
G1 Y162 F9000
G1 X74.94 Y162 E792.927 F1080
G1 Y162.4 F9000
G1 X153.06 Y162.4 E796.824 F1080
G1 Y162.8 F9000
G1 X74.94 Y162.8 E800.722 F1080
G1 Y163.2 F9000
G1 X153.06 Y163.2 E804.619 F1080
G1 Y163.6 F9000
G1 X74.94 Y163.6 E808.517 F1080
G1 Y164 F9000
G1 X153.06 Y164 E812.414 F1080
G1 Y164.4 F9000
G1 X74.94 Y164.4 E816.312 F1080
G1 Y164.8 F9000
G1 X153.06 Y164.8 E820.209 F1080
G1 Y165.2 F9000
G1 X74.94 Y165.2 E824.106 F1080
G1 Y165.6 F9000
G1 X153.06 Y165.6 E828.004 F1080
G1 Y166 F9000
G1 X74.94 Y166 E831.901 F1080
; Layer Change GCode
; LAYER:1
; LAYER_HEIGHT:0.3
; TYPE:FILL
G1 X74.6 Y166.4 Z0.6 F9000
; TYPE:WALL-INNER
G1 Y161.48 E832.147 F3600
G1 Y156.55 E832.393
G1 Y151.63 E832.638
G1 Y146.7 E832.884
G1 Y141.78 E833.13
G1 Y136.85 E833.376
G1 Y131.93 E833.621
G1 Y127 E833.867
G1 Y122.08 E834.113
G1 Y117.15 E834.359
G1 Y112.23 E834.604
G1 Y107.3 E834.85
G1 Y102.38 E835.096
G1 Y97.45 E835.342
G1 Y92.52 E835.587
G1 Y87.6 E835.833
G1 X79.53 E836.079
G1 X84.45 E836.324
G1 X89.38 E836.57
G1 X94.3 E836.816
G1 X99.23 E837.061
G1 X104.15 E837.307
G1 X109.08 E837.553
G1 X114 E837.799
G1 X118.93 E838.044
G1 X123.85 E838.29
G1 X128.78 E838.536
G1 X133.7 E838.781
G1 X138.63 E839.027
G1 X143.55 E839.273
G1 X148.48 E839.518
G1 X153.4 E839.764
G1 Y92.52 E840.01
G1 Y97.45 E840.255
G1 Y102.38 E840.501
G1 Y107.3 E840.747
G1 Y112.23 E840.992
G1 Y117.15 E841.238
G1 Y122.08 E841.484
G1 Y127 E841.73
G1 Y131.93 E841.975
G1 Y136.85 E842.221
G1 Y141.78 E842.467
G1 Y146.7 E842.712
G1 Y151.63 E842.958
G1 Y156.55 E843.204
G1 Y161.48 E843.449
G1 Y166.4 E843.695
G1 X148.48 E843.941
G1 X143.56 E844.186
G1 X138.63 E844.432
G1 X133.71 E844.678
G1 X128.79 E844.923
G1 X123.87 E845.169
G1 X118.94 E845.414
G1 X114.02 E845.66
G1 X109.1 E845.906
G1 X104.18 E846.151
G1 X99.25 E846.397
G1 X94.33 E846.643
G1 X89.41 E846.888
G1 X84.49 E847.134
G1 X79.56 E847.379
G1 X74.64 E847.625
G1 X74.6
G1 X74.2 Y166.8 F9000
; TYPE:WALL-OUTER
G1 Y161.83 E847.873 F600
G1 Y156.85 E848.121
G1 Y151.88 E848.37
G1 Y146.9 E848.618
G1 Y141.93 E848.866
G1 Y136.95 E849.114
G1 Y131.98 E849.362
G1 Y127 E849.611
G1 Y122.03 E849.859
G1 Y117.05 E850.107
G1 Y112.08 E850.355
G1 Y107.1 E850.603
G1 Y102.13 E850.851
G1 Y97.15 E851.1
G1 Y92.18 E851.348
G1 Y87.2 E851.596
G1 X79.18 E851.844
G1 X84.15 E852.092
G1 X89.13 E852.341
G1 X94.1 E852.589
G1 X99.08 E852.837
G1 X104.05 E853.085
G1 X109.03 E853.333
G1 X114 E853.581
G1 X118.98 E853.83
G1 X123.95 E854.078
G1 X128.93 E854.326
G1 X133.9 E854.574
G1 X138.88 E854.822
G1 X143.85 E855.071
G1 X148.83 E855.319
G1 X153.8 E855.567
G1 Y92.18 E855.815
G1 Y97.15 E856.063
G1 Y102.13 E856.312
G1 Y107.1 E856.56
G1 Y112.08 E856.808
G1 Y117.05 E857.056
G1 Y122.03 E857.304
G1 Y127 E857.553
G1 Y131.98 E857.801
G1 Y136.95 E858.049
G1 Y141.93 E858.297
G1 Y146.9 E858.545
G1 Y151.88 E858.793
G1 Y156.85 E859.042
G1 Y161.83 E859.29
G1 Y166.8 E859.538
G1 X148.83 E859.786
G1 X143.86 E860.034
G1 X138.88 E860.282
G1 X133.91 E860.531
G1 X128.94 E860.779
G1 X123.97 E861.027
G1 X118.99 E861.275
G1 X114.02 E861.523
G1 X109.05 E861.771
G1 X104.08 E862.019
G1 X99.1 E862.267
G1 X94.13 E862.516
G1 X89.16 E862.764
G1 X84.19 E863.012
G1 X79.21 E863.26
G1 X74.24 E863.508
G1 X74.2
G1 Y163.8
G1 X74.6 Y166.4 F9000
G1 X75.2 Y166.06
; TYPE:FILL
G1 Y161.18 E863.752 F3600
G1 Y156.3 E863.995
G1 Y151.41 E864.239
G1 Y146.53 E864.482
G1 Y141.65 E864.726
G1 Y136.77 E864.969
G1 Y131.88 E865.213
G1 Y127 E865.457
G1 Y122.12 E865.7
G1 Y117.24 E865.944
G1 Y112.35 E866.187
G1 Y107.47 E866.431
G1 Y102.59 E866.674
G1 Y97.71 E866.918
G1 Y92.82 E867.161
G1 Y87.94 E867.405
G1 X75.6 F9000
G1 Y92.82 E867.649 F3600
G1 Y97.71 E867.892
G1 Y102.59 E868.136
G1 Y107.47 E868.38
G1 Y112.35 E868.623
G1 Y117.24 E868.867
G1 Y122.12 E869.11
G1 Y127 E869.354
G1 Y131.88 E869.598
G1 Y136.77 E869.841
G1 Y141.65 E870.085
G1 Y146.53 E870.329
G1 Y151.41 E870.572
G1 Y156.3 E870.816
G1 Y161.18 E871.059
G1 Y166.06 E871.303
G1 X76 F9000
G1 Y161.18 E871.547 F3600
G1 Y156.3 E871.79
G1 Y151.41 E872.034
G1 Y146.53 E872.277
G1 Y141.65 E872.521
G1 Y136.77 E872.764
G1 Y131.88 E873.008
G1 Y127 E873.252
G1 Y122.12 E873.495
G1 Y117.24 E873.739
G1 Y112.35 E873.982
G1 Y107.47 E874.226
G1 Y102.59 E874.469
G1 Y97.71 E874.713
G1 Y92.82 E874.956
G1 Y87.94 E875.2
G1 X76.4 F9000
G1 Y92.82 E875.444 F3600
G1 Y97.71 E875.687
G1 Y102.59 E875.931
G1 Y107.47 E876.175
G1 Y112.35 E876.418
G1 Y117.24 E876.662
G1 Y122.12 E876.905
G1 Y127 E877.149
G1 Y131.88 E877.393
G1 Y136.77 E877.636
G1 Y141.65 E877.88
G1 Y146.53 E878.124
G1 Y151.41 E878.367
G1 Y156.3 E878.611
G1 Y161.18 E878.854
G1 Y166.06 E879.098
G1 X76.8 F9000
G1 Y161.18 E879.342 F3600
G1 Y156.3 E879.585
G1 Y151.41 E879.829
G1 Y146.53 E880.072
G1 Y141.65 E880.316
G1 Y136.77 E880.559
G1 Y131.88 E880.803
G1 Y127 E881.047
G1 Y122.12 E881.29
G1 Y117.24 E881.534
G1 Y112.35 E881.777
G1 Y107.47 E882.021
G1 Y102.59 E882.264
G1 Y97.71 E882.508
G1 Y92.82 E882.751
G1 Y87.94 E882.995
G1 X77.2 F9000
G1 Y92.82 E883.239 F3600
G1 Y97.71 E883.482
G1 Y102.59 E883.726
G1 Y107.47 E883.97
G1 Y112.35 E884.213
G1 Y117.24 E884.457
G1 Y122.12 E884.7
G1 Y127 E884.944
G1 Y131.88 E885.188
G1 Y136.77 E885.431
G1 Y141.65 E885.675
G1 Y146.53 E885.919
G1 Y151.41 E886.162
G1 Y156.3 E886.406
G1 Y161.18 E886.649
G1 Y166.06 E886.893
G1 X77.6 F9000
G1 Y161.18 E887.137 F3600
G1 Y156.3 E887.38
G1 Y151.41 E887.624
G1 Y146.53 E887.867
G1 Y141.65 E888.111
G1 Y136.77 E888.354
G1 Y131.88 E888.598
G1 Y127 E888.842
G1 Y122.12 E889.085
G1 Y117.24 E889.329
G1 Y112.35 E889.572
G1 Y107.47 E889.816
G1 Y102.59 E890.059
G1 Y97.71 E890.303
G1 Y92.82 E890.546
G1 Y87.94 E890.79
G1 X78 F9000
G1 Y92.82 E891.034 F3600
G1 Y97.71 E891.277
G1 Y102.59 E891.521
G1 Y107.47 E891.765
G1 Y112.35 E892.008
G1 Y117.24 E892.252
G1 Y122.12 E892.495
G1 Y127 E892.739
G1 Y131.88 E892.983
G1 Y136.77 E893.226
G1 Y141.65 E893.47
G1 Y146.53 E893.714
G1 Y151.41 E893.957
G1 Y156.3 E894.201
G1 Y161.18 E894.444
G1 Y166.06 E894.688
G1 X78.4 F9000
G1 Y161.18 E894.932 F3600
G1 Y156.3 E895.175
G1 Y151.41 E895.419
G1 Y146.53 E895.662
G1 Y141.65 E895.906
G1 Y136.77 E896.149
G1 Y131.88 E896.393
G1 Y127 E896.637
G1 Y122.12 E896.88
G1 Y117.24 E897.124
G1 Y112.35 E897.367
G1 Y107.47 E897.611
G1 Y102.59 E897.854
G1 Y97.71 E898.098
G1 Y92.82 E898.341
G1 Y87.94 E898.585
G1 X78.8 F9000
G1 Y92.82 E898.829 F3600
G1 Y97.71 E899.072
G1 Y102.59 E899.316
G1 Y107.47 E899.56
G1 Y112.35 E899.803
G1 Y117.24 E900.047
G1 Y122.12 E900.29
G1 Y127 E900.534
G1 Y131.88 E900.778
G1 Y136.77 E901.021
G1 Y141.65 E901.265
G1 Y146.53 E901.509
G1 Y151.41 E901.752
G1 Y156.3 E901.996
G1 Y161.18 E902.239
G1 Y166.06 E902.483
G1 X79.2 F9000
G1 Y161.18 E902.727 F3600
G1 Y156.3 E902.97
G1 Y151.41 E903.214
G1 Y146.53 E903.457
G1 Y141.65 E903.701
G1 Y136.77 E903.944
G1 Y131.88 E904.188
G1 Y127 E904.432
G1 Y122.12 E904.675
G1 Y117.24 E904.919
G1 Y112.35 E905.162
G1 Y107.47 E905.406
G1 Y102.59 E905.649
G1 Y97.71 E905.893
G1 Y92.82 E906.136
G1 Y87.94 E906.38
G1 X79.6 F9000
G1 Y92.82 E906.624 F3600
G1 Y97.71 E906.867
G1 Y102.59 E907.111
G1 Y107.47 E907.354
G1 Y112.35 E907.598
G1 Y117.24 E907.841
G1 Y122.12 E908.085
G1 Y127 E908.329
G1 Y131.88 E908.572
G1 Y136.77 E908.816
G1 Y141.65 E909.059
G1 Y146.53 E909.303
G1 Y151.41 E909.546
G1 Y156.3 E909.79
G1 Y161.18 E910.033
G1 Y166.06 E910.277
G1 X80 F9000
G1 Y161.18 E910.521 F3600
G1 Y156.3 E910.764
G1 Y151.41 E911.008
G1 Y146.53 E911.252
G1 Y141.65 E911.495
G1 Y136.77 E911.739
G1 Y131.88 E911.982
G1 Y127 E912.226
G1 Y122.12 E912.47
G1 Y117.24 E912.713
G1 Y112.35 E912.957
G1 Y107.47 E913.2
G1 Y102.59 E913.444
G1 Y97.71 E913.688
G1 Y92.82 E913.931
G1 Y87.94 E914.175
G1 X80.4 F9000
G1 Y92.82 E914.419 F3600
G1 Y97.71 E914.662
G1 Y102.59 E914.906
G1 Y107.47 E915.149
G1 Y112.35 E915.393
G1 Y117.24 E915.636
G1 Y122.12 E915.88
G1 Y127 E916.124
G1 Y131.88 E916.367
G1 Y136.77 E916.611
G1 Y141.65 E916.854
G1 Y146.53 E917.098
G1 Y151.41 E917.341
G1 Y156.3 E917.585
G1 Y161.18 E917.828
G1 Y166.06 E918.072
G1 X80.8 F9000
G1 Y161.18 E918.316 F3600
G1 Y156.3 E918.559
G1 Y151.41 E918.803
G1 Y146.53 E919.047
G1 Y141.65 E919.29
G1 Y136.77 E919.534
G1 Y131.88 E919.777
G1 Y127 E920.021
G1 Y122.12 E920.265
G1 Y117.24 E920.508
G1 Y112.35 E920.752
G1 Y107.47 E920.996
G1 Y102.59 E921.239
G1 Y97.71 E921.483
G1 Y92.82 E921.726
G1 Y87.94 E921.97
G1 X81.2 F9000
G1 Y92.82 E922.214 F3600
G1 Y97.71 E922.457
G1 Y102.59 E922.701
G1 Y107.47 E922.944
G1 Y112.35 E923.188
G1 Y117.24 E923.431
G1 Y122.12 E923.675
G1 Y127 E923.919
G1 Y131.88 E924.162
G1 Y136.77 E924.406
G1 Y141.65 E924.649
G1 Y146.53 E924.893
G1 Y151.41 E925.136
G1 Y156.3 E925.38
G1 Y161.18 E925.623
G1 Y166.06 E925.867
G1 X81.6 F9000
G1 Y161.18 E926.111 F3600
G1 Y156.3 E926.354
G1 Y151.41 E926.598
G1 Y146.53 E926.842
G1 Y141.65 E927.085
G1 Y136.77 E927.329
G1 Y131.88 E927.572
G1 Y127 E927.816
G1 Y122.12 E928.06
G1 Y117.24 E928.303
G1 Y112.35 E928.547
G1 Y107.47 E928.791
G1 Y102.59 E929.034
G1 Y97.71 E929.278
G1 Y92.82 E929.521
G1 Y87.94 E929.765
G1 X82 F9000
G1 Y92.82 E930.009 F3600
G1 Y97.71 E930.252
G1 Y102.59 E930.496
G1 Y107.47 E930.739
G1 Y112.35 E930.983
G1 Y117.24 E931.226
G1 Y122.12 E931.47
G1 Y127 E931.714
G1 Y131.88 E931.957
G1 Y136.77 E932.201
G1 Y141.65 E932.444
G1 Y146.53 E932.688
G1 Y151.41 E932.931
G1 Y156.3 E933.175
G1 Y161.18 E933.418
G1 Y166.06 E933.662
G1 X82.4 F9000
G1 Y161.18 E933.906 F3600
G1 Y156.3 E934.149
G1 Y151.41 E934.393
G1 Y146.53 E934.637
G1 Y141.65 E934.88
G1 Y136.77 E935.124
G1 Y131.88 E935.367
G1 Y127 E935.611
G1 Y122.12 E935.855
G1 Y117.24 E936.098
G1 Y112.35 E936.342
G1 Y107.47 E936.586
G1 Y102.59 E936.829
G1 Y97.71 E937.073
G1 Y92.82 E937.316
G1 Y87.94 E937.56
G1 X82.8 F9000
G1 Y92.82 E937.804 F3600
G1 Y97.71 E938.047
G1 Y102.59 E938.291
G1 Y107.47 E938.534
G1 Y112.35 E938.778
G1 Y117.24 E939.021
G1 Y122.12 E939.265
G1 Y127 E939.509
G1 Y131.88 E939.752
G1 Y136.77 E939.996
G1 Y141.65 E940.239
G1 Y146.53 E940.483
G1 Y151.41 E940.726
G1 Y156.3 E940.97
G1 Y161.18 E941.213
G1 Y166.06 E941.457
G1 X83.2 F9000
G1 Y161.18 E941.701 F3600
G1 Y156.3 E941.944
G1 Y151.41 E942.188
G1 Y146.53 E942.432
G1 Y141.65 E942.675
G1 Y136.77 E942.919
G1 Y131.88 E943.162
G1 Y127 E943.406
G1 Y122.12 E943.65
G1 Y117.24 E943.893
G1 Y112.35 E944.137
G1 Y107.47 E944.381
G1 Y102.59 E944.624
G1 Y97.71 E944.868
G1 Y92.82 E945.111
G1 Y87.94 E945.355
G1 X83.6 F9000
G1 Y92.82 E945.599 F3600
G1 Y97.71 E945.842
G1 Y102.59 E946.086
G1 Y107.47 E946.329
G1 Y112.35 E946.573
G1 Y117.24 E946.816
G1 Y122.12 E947.06
G1 Y127 E947.304
G1 Y131.88 E947.547
G1 Y136.77 E947.791
G1 Y141.65 E948.034
G1 Y146.53 E948.278
G1 Y151.41 E948.521
G1 Y156.3 E948.765
G1 Y161.18 E949.008
G1 Y166.06 E949.252
G1 X84 F9000
G1 Y161.18 E949.496 F3600
G1 Y156.3 E949.739
G1 Y151.41 E949.983
G1 Y146.53 E950.227
G1 Y141.65 E950.47
G1 Y136.77 E950.714
G1 Y131.88 E950.957
G1 Y127 E951.201
G1 Y122.12 E951.445
G1 Y117.24 E951.688
G1 Y112.35 E951.932
G1 Y107.47 E952.176
G1 Y102.59 E952.419
G1 Y97.71 E952.663
G1 Y92.82 E952.906
G1 Y87.94 E953.15
G1 X84.4 F9000
G1 Y92.82 E953.394 F3600
G1 Y97.71 E953.637
G1 Y102.59 E953.881
G1 Y107.47 E954.124
G1 Y112.35 E954.368
G1 Y117.24 E954.611
G1 Y122.12 E954.855
G1 Y127 E955.099
G1 Y131.88 E955.342
G1 Y136.77 E955.586
G1 Y141.65 E955.829
G1 Y146.53 E956.073
G1 Y151.41 E956.316
G1 Y156.3 E956.56
G1 Y161.18 E956.803
G1 Y166.06 E957.047
G1 X84.8 F9000
G1 Y161.18 E957.291 F3600
G1 Y156.3 E957.534
G1 Y151.41 E957.778
G1 Y146.53 E958.022
G1 Y141.65 E958.265
G1 Y136.77 E958.509
G1 Y131.88 E958.752
G1 Y127 E958.996
G1 Y122.12 E959.24
G1 Y117.24 E959.483
G1 Y112.35 E959.727
G1 Y107.47 E959.971
G1 Y102.59 E960.214
G1 Y97.71 E960.458
G1 Y92.82 E960.701
G1 Y87.94 E960.945
G1 X85.2 F9000
G1 Y92.82 E961.189 F3600
G1 Y97.71 E961.432
G1 Y102.59 E961.676
G1 Y107.47 E961.919
G1 Y112.35 E962.163
G1 Y117.24 E962.406
G1 Y122.12 E962.65
G1 Y127 E962.894
G1 Y131.88 E963.137
G1 Y136.77 E963.381
G1 Y141.65 E963.624
G1 Y146.53 E963.868
G1 Y151.41 E964.111
G1 Y156.3 E964.355
G1 Y161.18 E964.598
G1 Y166.06 E964.842
G1 X85.6 F9000
G1 Y161.18 E965.086 F3600
G1 Y156.3 E965.329
G1 Y151.41 E965.573
G1 Y146.53 E965.817
G1 Y141.65 E966.06
G1 Y136.77 E966.304
G1 Y131.88 E966.547
G1 Y127 E966.791
G1 Y122.12 E967.035
G1 Y117.24 E967.278
G1 Y112.35 E967.522
G1 Y107.47 E967.766
G1 Y102.59 E968.009
G1 Y97.71 E968.253
G1 Y92.82 E968.496
G1 Y87.94 E968.74
G1 X86 F9000
G1 Y92.82 E968.984 F3600
G1 Y97.71 E969.227
G1 Y102.59 E969.471
G1 Y107.47 E969.714
G1 Y112.35 E969.958
G1 Y117.24 E970.201
G1 Y122.12 E970.445
G1 Y127 E970.689
G1 Y131.88 E970.932
G1 Y136.77 E971.176
G1 Y141.65 E971.419
G1 Y146.53 E971.663
G1 Y151.41 E971.906
G1 Y156.3 E972.15
G1 Y161.18 E972.393
G1 Y166.06 E972.637
G1 X86.4 F9000
G1 Y161.18 E972.881 F3600
G1 Y156.3 E973.124
G1 Y151.41 E973.368
G1 Y146.53 E973.612
G1 Y141.65 E973.855
G1 Y136.77 E974.099
G1 Y131.88 E974.342
G1 Y127 E974.586
G1 Y122.12 E974.83
G1 Y117.24 E975.073
G1 Y112.35 E975.317
G1 Y107.47 E975.561
G1 Y102.59 E975.804
G1 Y97.71 E976.048
G1 Y92.82 E976.291
G1 Y87.94 E976.535
G1 X86.8 F9000
G1 Y92.82 E976.779 F3600
G1 Y97.71 E977.022
G1 Y102.59 E977.266
G1 Y107.47 E977.509
G1 Y112.35 E977.753
G1 Y117.24 E977.996
G1 Y122.12 E978.24
G1 Y127 E978.484
G1 Y131.88 E978.727
G1 Y136.77 E978.971
G1 Y141.65 E979.214
G1 Y146.53 E979.458
G1 Y151.41 E979.701
G1 Y156.3 E979.945
G1 Y161.18 E980.188
G1 Y166.06 E980.432
G1 X87.2 F9000
G1 Y161.18 E980.676 F3600
G1 Y156.3 E980.919
G1 Y151.41 E981.163
G1 Y146.53 E981.406
G1 Y141.65 E981.65
G1 Y136.77 E981.893
G1 Y131.88 E982.137
G1 Y127 E982.381
G1 Y122.12 E982.624
G1 Y117.24 E982.868
G1 Y112.35 E983.111
G1 Y107.47 E983.355
G1 Y102.59 E983.598
G1 Y97.71 E983.842
G1 Y92.82 E984.085
G1 Y87.94 E984.329
G1 X87.6 F9000
G1 Y92.82 E984.573 F3600
G1 Y97.71 E984.816
G1 Y102.59 E985.06
G1 Y107.47 E985.304
G1 Y112.35 E985.547
G1 Y117.24 E985.791
G1 Y122.12 E986.034
G1 Y127 E986.278
G1 Y131.88 E986.522
G1 Y136.77 E986.765
G1 Y141.65 E987.009
G1 Y146.53 E987.253
G1 Y151.41 E987.496
G1 Y156.3 E987.74
G1 Y161.18 E987.983
G1 Y166.06 E988.227
G1 X88 F9000
G1 Y161.18 E988.471 F3600
G1 Y156.3 E988.714
G1 Y151.41 E988.958
G1 Y146.53 E989.201
G1 Y141.65 E989.445
G1 Y136.77 E989.688
G1 Y131.88 E989.932
G1 Y127 E990.176
G1 Y122.12 E990.419
G1 Y117.24 E990.663
G1 Y112.35 E990.906
G1 Y107.47 E991.15
G1 Y102.59 E991.393
G1 Y97.71 E991.637
G1 Y92.82 E991.88
G1 Y87.94 E992.124
G1 X88.4 F9000
G1 Y92.82 E992.368 F3600
G1 Y97.71 E992.611
G1 Y102.59 E992.855
G1 Y107.47 E993.099
G1 Y112.35 E993.342
G1 Y117.24 E993.586
G1 Y122.12 E993.829
G1 Y127 E994.073
G1 Y131.88 E994.317
G1 Y136.77 E994.56
G1 Y141.65 E994.804
G1 Y146.53 E995.048
G1 Y151.41 E995.291
G1 Y156.3 E995.535
G1 Y161.18 E995.778
G1 Y166.06 E996.022
G1 X88.8 F9000
G1 Y161.18 E996.266 F3600
G1 Y156.3 E996.509
G1 Y151.41 E996.753
G1 Y146.53 E996.996
G1 Y141.65 E997.24
G1 Y136.77 E997.483
G1 Y131.88 E997.727
G1 Y127 E997.971
G1 Y122.12 E998.214
G1 Y117.24 E998.458
G1 Y112.35 E998.701
G1 Y107.47 E998.945
G1 Y102.59 E999.188
G1 Y97.71 E999.432
G1 Y92.82 E999.675
G1 Y87.94 E999.919
G1 X89.2 F9000
G1 Y92.82 E1000.163 F3600
G1 Y97.71 E1000.406
G1 Y102.59 E1000.65
G1 Y107.47 E1000.894
G1 Y112.35 E1001.137
G1 Y117.24 E1001.381
G1 Y122.12 E1001.624
G1 Y127 E1001.868
G1 Y131.88 E1002.112
G1 Y136.77 E1002.355
G1 Y141.65 E1002.599
G1 Y146.53 E1002.843
G1 Y151.41 E1003.086
G1 Y156.3 E1003.33
G1 Y161.18 E1003.573
G1 Y166.06 E1003.817
G1 X89.6 F9000
G1 Y161.18 E1004.061 F3600
G1 Y156.3 E1004.304
G1 Y151.41 E1004.548
G1 Y146.53 E1004.791
G1 Y141.65 E1005.035
G1 Y136.77 E1005.278
G1 Y131.88 E1005.522
G1 Y127 E1005.766
G1 Y122.12 E1006.009
G1 Y117.24 E1006.253
G1 Y112.35 E1006.496
G1 Y107.47 E1006.74
G1 Y102.59 E1006.983
G1 Y97.71 E1007.227
G1 Y92.82 E1007.47
G1 Y87.94 E1007.714
G1 X90 F9000
G1 Y92.82 E1007.958 F3600
G1 Y97.71 E1008.201
G1 Y102.59 E1008.445
G1 Y107.47 E1008.689
G1 Y112.35 E1008.932
G1 Y117.24 E1009.176
G1 Y122.12 E1009.419
G1 Y127 E1009.663
G1 Y131.88 E1009.907
G1 Y136.77 E1010.15
G1 Y141.65 E1010.394
G1 Y146.53 E1010.638
G1 Y151.41 E1010.881
G1 Y156.3 E1011.125
G1 Y161.18 E1011.368
G1 Y166.06 E1011.612
G1 X90.4 F9000
G1 Y161.18 E1011.856 F3600
G1 Y156.3 E1012.099
G1 Y151.41 E1012.343
G1 Y146.53 E1012.586
G1 Y141.65 E1012.83
G1 Y136.77 E1013.073
G1 Y131.88 E1013.317
G1 Y127 E1013.561
G1 Y122.12 E1013.804
G1 Y117.24 E1014.048
G1 Y112.35 E1014.291
G1 Y107.47 E1014.535
G1 Y102.59 E1014.778
G1 Y97.71 E1015.022
G1 Y92.82 E1015.265
G1 Y87.94 E1015.509
G1 X90.8 F9000
G1 Y92.82 E1015.753 F3600
G1 Y97.71 E1015.996
G1 Y102.59 E1016.24
G1 Y107.47 E1016.484
G1 Y112.35 E1016.727
G1 Y117.24 E1016.971
G1 Y122.12 E1017.214
G1 Y127 E1017.458
G1 Y131.88 E1017.702
G1 Y136.77 E1017.945
G1 Y141.65 E1018.189
G1 Y146.53 E1018.433
G1 Y151.41 E1018.676
G1 Y156.3 E1018.92
G1 Y161.18 E1019.163
G1 Y166.06 E1019.407
G1 X91.2 F9000
G1 Y161.18 E1019.651 F3600
G1 Y156.3 E1019.894
G1 Y151.41 E1020.138
G1 Y146.53 E1020.381
G1 Y141.65 E1020.625
G1 Y136.77 E1020.868
G1 Y131.88 E1021.112
G1 Y127 E1021.356
G1 Y122.12 E1021.599
G1 Y117.24 E1021.843
G1 Y112.35 E1022.086
G1 Y107.47 E1022.33
G1 Y102.59 E1022.573
G1 Y97.71 E1022.817
G1 Y92.82 E1023.06
G1 Y87.94 E1023.304
G1 X91.6 F9000
G1 Y92.82 E1023.548 F3600
G1 Y97.71 E1023.791
G1 Y102.59 E1024.035
G1 Y107.47 E1024.279
G1 Y112.35 E1024.522
G1 Y117.24 E1024.766
G1 Y122.12 E1025.009
G1 Y127 E1025.253
G1 Y131.88 E1025.497
G1 Y136.77 E1025.74
G1 Y141.65 E1025.984
G1 Y146.53 E1026.228
G1 Y151.41 E1026.471
G1 Y156.3 E1026.715
G1 Y161.18 E1026.958
G1 Y166.06 E1027.202
G1 X92 F9000
G1 Y161.18 E1027.446 F3600
G1 Y156.3 E1027.689
G1 Y151.41 E1027.933
G1 Y146.53 E1028.176
G1 Y141.65 E1028.42
G1 Y136.77 E1028.663
G1 Y131.88 E1028.907
G1 Y127 E1029.151
G1 Y122.12 E1029.394
G1 Y117.24 E1029.638
G1 Y112.35 E1029.881
G1 Y107.47 E1030.125
G1 Y102.59 E1030.368
G1 Y97.71 E1030.612
G1 Y92.82 E1030.855
G1 Y87.94 E1031.099
G1 X92.4 F9000
G1 Y92.82 E1031.343 F3600
G1 Y97.71 E1031.586
G1 Y102.59 E1031.83
G1 Y107.47 E1032.074
G1 Y112.35 E1032.317
G1 Y117.24 E1032.561
G1 Y122.12 E1032.804
G1 Y127 E1033.048
G1 Y131.88 E1033.292
G1 Y136.77 E1033.535
G1 Y141.65 E1033.779
G1 Y146.53 E1034.023
G1 Y151.41 E1034.266
G1 Y156.3 E1034.51
G1 Y161.18 E1034.753
G1 Y166.06 E1034.997
G1 X92.8 F9000
G1 Y161.18 E1035.241 F3600
G1 Y156.3 E1035.484
G1 Y151.41 E1035.728
G1 Y146.53 E1035.971
G1 Y141.65 E1036.215
G1 Y136.77 E1036.458
G1 Y131.88 E1036.702
G1 Y127 E1036.946
G1 Y122.12 E1037.189
G1 Y117.24 E1037.433
G1 Y112.35 E1037.676
G1 Y107.47 E1037.92
G1 Y102.59 E1038.163
G1 Y97.71 E1038.407
G1 Y92.82 E1038.65
G1 Y87.94 E1038.894
G1 X93.2 F9000
G1 Y92.82 E1039.138 F3600
G1 Y97.71 E1039.381
G1 Y102.59 E1039.625
G1 Y107.47 E1039.869
G1 Y112.35 E1040.112
G1 Y117.24 E1040.356
G1 Y122.12 E1040.599
G1 Y127 E1040.843
G1 Y131.88 E1041.087
G1 Y136.77 E1041.33
G1 Y141.65 E1041.574
G1 Y146.53 E1041.818
G1 Y151.41 E1042.061
G1 Y156.3 E1042.305
G1 Y161.18 E1042.548
G1 Y166.06 E1042.792
G1 X93.6 F9000
G1 Y161.18 E1043.036 F3600
G1 Y156.3 E1043.279
G1 Y151.41 E1043.523
G1 Y146.53 E1043.766
G1 Y141.65 E1044.01
G1 Y136.77 E1044.253
G1 Y131.88 E1044.497
G1 Y127 E1044.741
G1 Y122.12 E1044.984
G1 Y117.24 E1045.228
G1 Y112.35 E1045.471
G1 Y107.47 E1045.715
G1 Y102.59 E1045.958
G1 Y97.71 E1046.202
G1 Y92.82 E1046.445
G1 Y87.94 E1046.689
G1 X94 F9000
G1 Y92.82 E1046.933 F3600
G1 Y97.71 E1047.176
G1 Y102.59 E1047.42
G1 Y107.47 E1047.663
G1 Y112.35 E1047.907
G1 Y117.24 E1048.15
G1 Y122.12 E1048.394
G1 Y127 E1048.638
G1 Y131.88 E1048.881
G1 Y136.77 E1049.125
G1 Y141.65 E1049.368
G1 Y146.53 E1049.612
G1 Y151.41 E1049.855
G1 Y156.3 E1050.099
G1 Y161.18 E1050.342
G1 Y166.06 E1050.586
G1 X94.4 F9000
G1 Y161.18 E1050.83 F3600
G1 Y156.3 E1051.073
G1 Y151.41 E1051.317
G1 Y146.53 E1051.561
G1 Y141.65 E1051.804
G1 Y136.77 E1052.048
G1 Y131.88 E1052.291
G1 Y127 E1052.535
G1 Y122.12 E1052.779
G1 Y117.24 E1053.022
G1 Y112.35 E1053.266
G1 Y107.47 E1053.51
G1 Y102.59 E1053.753
G1 Y97.71 E1053.997
G1 Y92.82 E1054.24
G1 Y87.94 E1054.484
G1 X94.8 F9000
G1 Y92.82 E1054.728 F3600
G1 Y97.71 E1054.971
G1 Y102.59 E1055.215
G1 Y107.47 E1055.458
G1 Y112.35 E1055.702
G1 Y117.24 E1055.945
G1 Y122.12 E1056.189
G1 Y127 E1056.433
G1 Y131.88 E1056.676
G1 Y136.77 E1056.92
G1 Y141.65 E1057.163
G1 Y146.53 E1057.407
G1 Y151.41 E1057.65
G1 Y156.3 E1057.894
G1 Y161.18 E1058.137
G1 Y166.06 E1058.381
G1 X95.2 F9000
G1 Y161.18 E1058.625 F3600
G1 Y156.3 E1058.868
G1 Y151.41 E1059.112
G1 Y146.53 E1059.356
G1 Y141.65 E1059.599
G1 Y136.77 E1059.843
G1 Y131.88 E1060.086
G1 Y127 E1060.33
G1 Y122.12 E1060.574
G1 Y117.24 E1060.817
G1 Y112.35 E1061.061
G1 Y107.47 E1061.305
G1 Y102.59 E1061.548
G1 Y97.71 E1061.792
G1 Y92.82 E1062.035
G1 Y87.94 E1062.279
G1 X95.6 F9000
G1 Y92.82 E1062.523 F3600
G1 Y97.71 E1062.766
G1 Y102.59 E1063.01
G1 Y107.47 E1063.253
G1 Y112.35 E1063.497
G1 Y117.24 E1063.74
G1 Y122.12 E1063.984
G1 Y127 E1064.228
G1 Y131.88 E1064.471
G1 Y136.77 E1064.715
G1 Y141.65 E1064.958
G1 Y146.53 E1065.202
G1 Y151.41 E1065.445
G1 Y156.3 E1065.689
G1 Y161.18 E1065.932
G1 Y166.06 E1066.176
G1 X96 F9000
G1 Y161.18 E1066.42 F3600
G1 Y156.3 E1066.663
G1 Y151.41 E1066.907
G1 Y146.53 E1067.151
G1 Y141.65 E1067.394
G1 Y136.77 E1067.638
G1 Y131.88 E1067.881
G1 Y127 E1068.125
G1 Y122.12 E1068.369
G1 Y117.24 E1068.612
G1 Y112.35 E1068.856
G1 Y107.47 E1069.1
G1 Y102.59 E1069.343
G1 Y97.71 E1069.587
G1 Y92.82 E1069.83
G1 Y87.94 E1070.074
G1 X96.4 F9000
G1 Y92.82 E1070.318 F3600
G1 Y97.71 E1070.561
G1 Y102.59 E1070.805
G1 Y107.47 E1071.048
G1 Y112.35 E1071.292
G1 Y117.24 E1071.535
G1 Y122.12 E1071.779
G1 Y127 E1072.023
G1 Y131.88 E1072.266
G1 Y136.77 E1072.51
G1 Y141.65 E1072.753
G1 Y146.53 E1072.997
G1 Y151.41 E1073.24
G1 Y156.3 E1073.484
G1 Y161.18 E1073.727
G1 Y166.06 E1073.971
G1 X96.8 F9000
G1 Y161.18 E1074.215 F3600
G1 Y156.3 E1074.458
G1 Y151.41 E1074.702
G1 Y146.53 E1074.946
G1 Y141.65 E1075.189
G1 Y136.77 E1075.433
G1 Y131.88 E1075.676
G1 Y127 E1075.92
G1 Y122.12 E1076.164
G1 Y117.24 E1076.407
G1 Y112.35 E1076.651
G1 Y107.47 E1076.895
G1 Y102.59 E1077.138
G1 Y97.71 E1077.382
G1 Y92.82 E1077.625
G1 Y87.94 E1077.869
G1 X97.2 F9000
G1 Y92.82 E1078.113 F3600
G1 Y97.71 E1078.356
G1 Y102.59 E1078.6
G1 Y107.47 E1078.843
G1 Y112.35 E1079.087
G1 Y117.24 E1079.33
G1 Y122.12 E1079.574
G1 Y127 E1079.818
G1 Y131.88 E1080.061
G1 Y136.77 E1080.305
G1 Y141.65 E1080.548
G1 Y146.53 E1080.792
G1 Y151.41 E1081.035
G1 Y156.3 E1081.279
G1 Y161.18 E1081.522
G1 Y166.06 E1081.766
G1 X97.6 F9000
G1 Y161.18 E1082.01 F3600
G1 Y156.3 E1082.253
G1 Y151.41 E1082.497
G1 Y146.53 E1082.741
G1 Y141.65 E1082.984
G1 Y136.77 E1083.228
G1 Y131.88 E1083.471
G1 Y127 E1083.715
G1 Y122.12 E1083.959
G1 Y117.24 E1084.202
G1 Y112.35 E1084.446
G1 Y107.47 E1084.69
G1 Y102.59 E1084.933
G1 Y97.71 E1085.177
G1 Y92.82 E1085.42
G1 Y87.94 E1085.664
G1 X98 F9000
G1 Y92.82 E1085.908 F3600
G1 Y97.71 E1086.151
G1 Y102.59 E1086.395
G1 Y107.47 E1086.638
G1 Y112.35 E1086.882
G1 Y117.24 E1087.125
G1 Y122.12 E1087.369
G1 Y127 E1087.613
G1 Y131.88 E1087.856
G1 Y136.77 E1088.1
G1 Y141.65 E1088.343
G1 Y146.53 E1088.587
G1 Y151.41 E1088.83
G1 Y156.3 E1089.074
G1 Y161.18 E1089.317
G1 Y166.06 E1089.561
G1 X98.4 F9000
G1 Y161.18 E1089.805 F3600
G1 Y156.3 E1090.048
G1 Y151.41 E1090.292
G1 Y146.53 E1090.536
G1 Y141.65 E1090.779
G1 Y136.77 E1091.023
G1 Y131.88 E1091.266
G1 Y127 E1091.51
G1 Y122.12 E1091.754
G1 Y117.24 E1091.997
G1 Y112.35 E1092.241
G1 Y107.47 E1092.485
G1 Y102.59 E1092.728
G1 Y97.71 E1092.972
G1 Y92.82 E1093.215
G1 Y87.94 E1093.459
G1 X98.8 F9000
G1 Y92.82 E1093.703 F3600
G1 Y97.71 E1093.946
G1 Y102.59 E1094.19
G1 Y107.47 E1094.433
G1 Y112.35 E1094.677
G1 Y117.24 E1094.92
G1 Y122.12 E1095.164
G1 Y127 E1095.408
G1 Y131.88 E1095.651
G1 Y136.77 E1095.895
G1 Y141.65 E1096.138
G1 Y146.53 E1096.382
G1 Y151.41 E1096.625
G1 Y156.3 E1096.869
G1 Y161.18 E1097.112
G1 Y166.06 E1097.356
G1 X99.2 F9000
G1 Y161.18 E1097.6 F3600
G1 Y156.3 E1097.843
G1 Y151.41 E1098.087
G1 Y146.53 E1098.331
G1 Y141.65 E1098.574
G1 Y136.77 E1098.818
G1 Y131.88 E1099.061
G1 Y127 E1099.305
G1 Y122.12 E1099.549
G1 Y117.24 E1099.792
G1 Y112.35 E1100.036
G1 Y107.47 E1100.28
G1 Y102.59 E1100.523
G1 Y97.71 E1100.767
G1 Y92.82 E1101.01
G1 Y87.94 E1101.254
G1 X99.6 F9000
G1 Y92.82 E1101.498 F3600
G1 Y97.71 E1101.741
G1 Y102.59 E1101.985
G1 Y107.47 E1102.228
G1 Y112.35 E1102.472
G1 Y117.24 E1102.715
G1 Y122.12 E1102.959
G1 Y127 E1103.203
G1 Y131.88 E1103.446
G1 Y136.77 E1103.69
G1 Y141.65 E1103.933
G1 Y146.53 E1104.177
G1 Y151.41 E1104.42
G1 Y156.3 E1104.664
G1 Y161.18 E1104.907
G1 Y166.06 E1105.151
G1 X100 F9000
G1 Y161.18 E1105.395 F3600
G1 Y156.3 E1105.638
G1 Y151.41 E1105.882
G1 Y146.53 E1106.126
G1 Y141.65 E1106.369
G1 Y136.77 E1106.613
G1 Y131.88 E1106.856
G1 Y127 E1107.1
G1 Y122.12 E1107.344
G1 Y117.24 E1107.587
G1 Y112.35 E1107.831
G1 Y107.47 E1108.075
G1 Y102.59 E1108.318
G1 Y97.71 E1108.562
G1 Y92.82 E1108.805
G1 Y87.94 E1109.049
G1 X100.4 F9000
G1 Y92.82 E1109.293 F3600
G1 Y97.71 E1109.536
G1 Y102.59 E1109.78
G1 Y107.47 E1110.023
G1 Y112.35 E1110.267
G1 Y117.24 E1110.51
G1 Y122.12 E1110.754
G1 Y127 E1110.998
G1 Y131.88 E1111.241
G1 Y136.77 E1111.485
G1 Y141.65 E1111.728
G1 Y146.53 E1111.972
G1 Y151.41 E1112.215
G1 Y156.3 E1112.459
G1 Y161.18 E1112.702
G1 Y166.06 E1112.946
G1 X100.8 F9000
G1 Y161.18 E1113.19 F3600
G1 Y156.3 E1113.433
G1 Y151.41 E1113.677
G1 Y146.53 E1113.921
G1 Y141.65 E1114.164
G1 Y136.77 E1114.408
G1 Y131.88 E1114.651
G1 Y127 E1114.895
G1 Y122.12 E1115.139
G1 Y117.24 E1115.382
G1 Y112.35 E1115.626
G1 Y107.47 E1115.87
G1 Y102.59 E1116.113
G1 Y97.71 E1116.357
G1 Y92.82 E1116.6
G1 Y87.94 E1116.844
G1 X101.2 F9000
G1 Y92.82 E1117.088 F3600
G1 Y97.71 E1117.331
G1 Y102.59 E1117.575
G1 Y107.47 E1117.818
G1 Y112.35 E1118.062
G1 Y117.24 E1118.305
G1 Y122.12 E1118.549
G1 Y127 E1118.793
G1 Y131.88 E1119.036
G1 Y136.77 E1119.28
G1 Y141.65 E1119.523
G1 Y146.53 E1119.767
G1 Y151.41 E1120.01
G1 Y156.3 E1120.254
G1 Y161.18 E1120.497
G1 Y166.06 E1120.741
G1 X101.6 F9000
G1 Y161.18 E1120.985 F3600
G1 Y156.3 E1121.228
G1 Y151.41 E1121.472
G1 Y146.53 E1121.715
G1 Y141.65 E1121.959
G1 Y136.77 E1122.202
G1 Y131.88 E1122.446
G1 Y127 E1122.69
G1 Y122.12 E1122.933
G1 Y117.24 E1123.177
G1 Y112.35 E1123.42
G1 Y107.47 E1123.664
G1 Y102.59 E1123.907
G1 Y97.71 E1124.151
G1 Y92.82 E1124.394
G1 Y87.94 E1124.638
G1 X102 F9000
G1 Y92.82 E1124.882 F3600
G1 Y97.71 E1125.125
G1 Y102.59 E1125.369
G1 Y107.47 E1125.613
G1 Y112.35 E1125.856
G1 Y117.24 E1126.1
G1 Y122.12 E1126.343
G1 Y127 E1126.587
G1 Y131.88 E1126.831
G1 Y136.77 E1127.074
G1 Y141.65 E1127.318
G1 Y146.53 E1127.562
G1 Y151.41 E1127.805
G1 Y156.3 E1128.049
G1 Y161.18 E1128.292
G1 Y166.06 E1128.536
G1 X102.4 F9000
G1 Y161.18 E1128.78 F3600
G1 Y156.3 E1129.023
G1 Y151.41 E1129.267
G1 Y146.53 E1129.51
G1 Y141.65 E1129.754
G1 Y136.77 E1129.997
G1 Y131.88 E1130.241
G1 Y127 E1130.485
G1 Y122.12 E1130.728
G1 Y117.24 E1130.972
G1 Y112.35 E1131.215
G1 Y107.47 E1131.459
G1 Y102.59 E1131.702
G1 Y97.71 E1131.946
G1 Y92.82 E1132.189
G1 Y87.94 E1132.433
G1 X102.8 F9000
G1 Y92.82 E1132.677 F3600
G1 Y97.71 E1132.92
G1 Y102.59 E1133.164
G1 Y107.47 E1133.408
G1 Y112.35 E1133.651
G1 Y117.24 E1133.895
G1 Y122.12 E1134.138
G1 Y127 E1134.382
G1 Y131.88 E1134.626
G1 Y136.77 E1134.869
G1 Y141.65 E1135.113
G1 Y146.53 E1135.357
G1 Y151.41 E1135.6
G1 Y156.3 E1135.844
G1 Y161.18 E1136.087
G1 Y166.06 E1136.331
G1 X103.2 F9000
G1 Y161.18 E1136.575 F3600
G1 Y156.3 E1136.818
G1 Y151.41 E1137.062
G1 Y146.53 E1137.305
G1 Y141.65 E1137.549
G1 Y136.77 E1137.792
G1 Y131.88 E1138.036
G1 Y127 E1138.28
G1 Y122.12 E1138.523
G1 Y117.24 E1138.767
G1 Y112.35 E1139.01
G1 Y107.47 E1139.254
G1 Y102.59 E1139.497
G1 Y97.71 E1139.741
G1 Y92.82 E1139.984
G1 Y87.94 E1140.228
G1 X103.6 F9000
G1 Y92.82 E1140.472 F3600
G1 Y97.71 E1140.715
G1 Y102.59 E1140.959
G1 Y107.47 E1141.203
G1 Y112.35 E1141.446
G1 Y117.24 E1141.69
G1 Y122.12 E1141.933
G1 Y127 E1142.177
G1 Y131.88 E1142.421
G1 Y136.77 E1142.664
G1 Y141.65 E1142.908
G1 Y146.53 E1143.152
G1 Y151.41 E1143.395
G1 Y156.3 E1143.639
G1 Y161.18 E1143.882
G1 Y166.06 E1144.126
G1 X104 F9000
G1 Y161.18 E1144.37 F3600
G1 Y156.3 E1144.613
G1 Y151.41 E1144.857
G1 Y146.53 E1145.1
G1 Y141.65 E1145.344
G1 Y136.77 E1145.587
G1 Y131.88 E1145.831
G1 Y127 E1146.075
G1 Y122.12 E1146.318
G1 Y117.24 E1146.562
G1 Y112.35 E1146.805
G1 Y107.47 E1147.049
G1 Y102.59 E1147.292
G1 Y97.71 E1147.536
G1 Y92.82 E1147.779
G1 Y87.94 E1148.023
G1 X104.4 F9000
G1 Y92.82 E1148.267 F3600
G1 Y97.71 E1148.51
G1 Y102.59 E1148.754
G1 Y107.47 E1148.998
G1 Y112.35 E1149.241
G1 Y117.24 E1149.485
G1 Y122.12 E1149.728
G1 Y127 E1149.972
G1 Y131.88 E1150.216
G1 Y136.77 E1150.459
G1 Y141.65 E1150.703
G1 Y146.53 E1150.947
G1 Y151.41 E1151.19
G1 Y156.3 E1151.434
G1 Y161.18 E1151.677
G1 Y166.06 E1151.921
G1 X104.8 F9000
G1 Y161.18 E1152.165 F3600
G1 Y156.3 E1152.408
G1 Y151.41 E1152.652
G1 Y146.53 E1152.895
G1 Y141.65 E1153.139
G1 Y136.77 E1153.382
G1 Y131.88 E1153.626
G1 Y127 E1153.87
G1 Y122.12 E1154.113
G1 Y117.24 E1154.357
G1 Y112.35 E1154.6
G1 Y107.47 E1154.844
G1 Y102.59 E1155.087
G1 Y97.71 E1155.331
G1 Y92.82 E1155.574
G1 Y87.94 E1155.818
G1 X105.2 F9000
G1 Y92.82 E1156.062 F3600
G1 Y97.71 E1156.305
G1 Y102.59 E1156.549
G1 Y107.47 E1156.793
G1 Y112.35 E1157.036
G1 Y117.24 E1157.28
G1 Y122.12 E1157.523
G1 Y127 E1157.767
G1 Y131.88 E1158.011
G1 Y136.77 E1158.254
G1 Y141.65 E1158.498
G1 Y146.53 E1158.742
G1 Y151.41 E1158.985
G1 Y156.3 E1159.229
G1 Y161.18 E1159.472
G1 Y166.06 E1159.716
G1 X105.6 F9000
G1 Y161.18 E1159.96 F3600
G1 Y156.3 E1160.203
G1 Y151.41 E1160.447
G1 Y146.53 E1160.69
G1 Y141.65 E1160.934
G1 Y136.77 E1161.177
G1 Y131.88 E1161.421
G1 Y127 E1161.665
G1 Y122.12 E1161.908
G1 Y117.24 E1162.152
G1 Y112.35 E1162.395
G1 Y107.47 E1162.639
G1 Y102.59 E1162.882
G1 Y97.71 E1163.126
G1 Y92.82 E1163.369
G1 Y87.94 E1163.613
G1 X106 F9000
G1 Y92.82 E1163.857 F3600
G1 Y97.71 E1164.1
G1 Y102.59 E1164.344
G1 Y107.47 E1164.588
G1 Y112.35 E1164.831
G1 Y117.24 E1165.075
G1 Y122.12 E1165.318
G1 Y127 E1165.562
G1 Y131.88 E1165.806
G1 Y136.77 E1166.049
G1 Y141.65 E1166.293
G1 Y146.53 E1166.537
G1 Y151.41 E1166.78
G1 Y156.3 E1167.024
G1 Y161.18 E1167.267
G1 Y166.06 E1167.511
G1 X106.4 F9000
G1 Y161.18 E1167.755 F3600
G1 Y156.3 E1167.998
G1 Y151.41 E1168.242
G1 Y146.53 E1168.485
G1 Y141.65 E1168.729
G1 Y136.77 E1168.972
G1 Y131.88 E1169.216
G1 Y127 E1169.46
G1 Y122.12 E1169.703
G1 Y117.24 E1169.947
G1 Y112.35 E1170.19
G1 Y107.47 E1170.434
G1 Y102.59 E1170.677
G1 Y97.71 E1170.921
G1 Y92.82 E1171.164
G1 Y87.94 E1171.408
G1 X106.8 F9000
G1 Y92.82 E1171.652 F3600
G1 Y97.71 E1171.895
G1 Y102.59 E1172.139
G1 Y107.47 E1172.383
G1 Y112.35 E1172.626
G1 Y117.24 E1172.87
G1 Y122.12 E1173.113
G1 Y127 E1173.357
G1 Y131.88 E1173.601
G1 Y136.77 E1173.844
G1 Y141.65 E1174.088
G1 Y146.53 E1174.332
G1 Y151.41 E1174.575
G1 Y156.3 E1174.819
G1 Y161.18 E1175.062
G1 Y166.06 E1175.306
G1 X107.2 F9000
G1 Y161.18 E1175.55 F3600
G1 Y156.3 E1175.793
G1 Y151.41 E1176.037
G1 Y146.53 E1176.28
G1 Y141.65 E1176.524
G1 Y136.77 E1176.767
G1 Y131.88 E1177.011
G1 Y127 E1177.255
G1 Y122.12 E1177.498
G1 Y117.24 E1177.742
G1 Y112.35 E1177.985
G1 Y107.47 E1178.229
G1 Y102.59 E1178.472
G1 Y97.71 E1178.716
G1 Y92.82 E1178.959
G1 Y87.94 E1179.203
G1 X107.6 F9000
G1 Y92.82 E1179.447 F3600
G1 Y97.71 E1179.69
G1 Y102.59 E1179.934
G1 Y107.47 E1180.178
G1 Y112.35 E1180.421
G1 Y117.24 E1180.665
G1 Y122.12 E1180.908
G1 Y127 E1181.152
G1 Y131.88 E1181.396
G1 Y136.77 E1181.639
G1 Y141.65 E1181.883
G1 Y146.53 E1182.127
G1 Y151.41 E1182.37
G1 Y156.3 E1182.614
G1 Y161.18 E1182.857
G1 Y166.06 E1183.101
G1 X108 F9000
G1 Y161.18 E1183.345 F3600
G1 Y156.3 E1183.588
G1 Y151.41 E1183.832
G1 Y146.53 E1184.075
G1 Y141.65 E1184.319
G1 Y136.77 E1184.562
G1 Y131.88 E1184.806
G1 Y127 E1185.05
G1 Y122.12 E1185.293
G1 Y117.24 E1185.537
G1 Y112.35 E1185.78
G1 Y107.47 E1186.024
G1 Y102.59 E1186.267
G1 Y97.71 E1186.511
G1 Y92.82 E1186.754
G1 Y87.94 E1186.998
G1 X108.4 F9000
G1 Y92.82 E1187.242 F3600
G1 Y97.71 E1187.485
G1 Y102.59 E1187.729
G1 Y107.47 E1187.973
G1 Y112.35 E1188.216
G1 Y117.24 E1188.46
G1 Y122.12 E1188.703
G1 Y127 E1188.947
G1 Y131.88 E1189.191
G1 Y136.77 E1189.434
G1 Y141.65 E1189.678
G1 Y146.53 E1189.922
G1 Y151.41 E1190.165
G1 Y156.3 E1190.409
G1 Y161.18 E1190.652
G1 Y166.06 E1190.896
G1 X108.8 F9000
G1 Y161.18 E1191.14 F3600
G1 Y156.3 E1191.383
G1 Y151.41 E1191.627
G1 Y146.53 E1191.87
G1 Y141.65 E1192.114
G1 Y136.77 E1192.357
G1 Y131.88 E1192.601
G1 Y127 E1192.845
G1 Y122.12 E1193.088
G1 Y117.24 E1193.332
G1 Y112.35 E1193.575
G1 Y107.47 E1193.819
G1 Y102.59 E1194.062
G1 Y97.71 E1194.306
G1 Y92.82 E1194.549
G1 Y87.94 E1194.793
G1 X109.2 F9000
G1 Y92.82 E1195.037 F3600
G1 Y97.71 E1195.28
G1 Y102.59 E1195.524
G1 Y107.47 E1195.767
G1 Y112.35 E1196.011
G1 Y117.24 E1196.254
G1 Y122.12 E1196.498
G1 Y127 E1196.742
G1 Y131.88 E1196.985
G1 Y136.77 E1197.229
G1 Y141.65 E1197.472
G1 Y146.53 E1197.716
G1 Y151.41 E1197.959
G1 Y156.3 E1198.203
G1 Y161.18 E1198.446
G1 Y166.06 E1198.69
G1 X109.6 F9000
G1 Y161.18 E1198.934 F3600
G1 Y156.3 E1199.177
G1 Y151.41 E1199.421
G1 Y146.53 E1199.665
G1 Y141.65 E1199.908
G1 Y136.77 E1200.152
G1 Y131.88 E1200.395
G1 Y127 E1200.639
G1 Y122.12 E1200.883
G1 Y117.24 E1201.126
G1 Y112.35 E1201.37
G1 Y107.47 E1201.614
G1 Y102.59 E1201.857
G1 Y97.71 E1202.101
G1 Y92.82 E1202.344
G1 Y87.94 E1202.588
G1 X110 F9000
G1 Y92.82 E1202.832 F3600
G1 Y97.71 E1203.075
G1 Y102.59 E1203.319
G1 Y107.47 E1203.562
G1 Y112.35 E1203.806
G1 Y117.24 E1204.049
G1 Y122.12 E1204.293
G1 Y127 E1204.537
G1 Y131.88 E1204.78
G1 Y136.77 E1205.024
G1 Y141.65 E1205.267
G1 Y146.53 E1205.511
G1 Y151.41 E1205.754
G1 Y156.3 E1205.998
G1 Y161.18 E1206.241
G1 Y166.06 E1206.485
G1 X110.4 F9000
G1 Y161.18 E1206.729 F3600
G1 Y156.3 E1206.972
G1 Y151.41 E1207.216
G1 Y146.53 E1207.46
G1 Y141.65 E1207.703
G1 Y136.77 E1207.947
G1 Y131.88 E1208.19
G1 Y127 E1208.434
G1 Y122.12 E1208.678
G1 Y117.24 E1208.921
G1 Y112.35 E1209.165
G1 Y107.47 E1209.409
G1 Y102.59 E1209.652
G1 Y97.71 E1209.896
G1 Y92.82 E1210.139
G1 Y87.94 E1210.383
G1 X110.8 F9000
G1 Y92.82 E1210.627 F3600
G1 Y97.71 E1210.87
G1 Y102.59 E1211.114
G1 Y107.47 E1211.357
G1 Y112.35 E1211.601
G1 Y117.24 E1211.844
G1 Y122.12 E1212.088
G1 Y127 E1212.332
G1 Y131.88 E1212.575
G1 Y136.77 E1212.819
G1 Y141.65 E1213.062
G1 Y146.53 E1213.306
G1 Y151.41 E1213.549
G1 Y156.3 E1213.793
G1 Y161.18 E1214.036
G1 Y166.06 E1214.28
G1 X111.2 F9000
G1 Y161.18 E1214.524 F3600
G1 Y156.3 E1214.767
G1 Y151.41 E1215.011
G1 Y146.53 E1215.255
G1 Y141.65 E1215.498
G1 Y136.77 E1215.742
G1 Y131.88 E1215.985
G1 Y127 E1216.229
G1 Y122.12 E1216.473
G1 Y117.24 E1216.716
G1 Y112.35 E1216.96
G1 Y107.47 E1217.204
G1 Y102.59 E1217.447
G1 Y97.71 E1217.691
G1 Y92.82 E1217.934
G1 Y87.94 E1218.178
G1 X111.6 F9000
G1 Y92.82 E1218.422 F3600
G1 Y97.71 E1218.665
G1 Y102.59 E1218.909
G1 Y107.47 E1219.152
G1 Y112.35 E1219.396
G1 Y117.24 E1219.639
G1 Y122.12 E1219.883
G1 Y127 E1220.127
G1 Y131.88 E1220.37
G1 Y136.77 E1220.614
G1 Y141.65 E1220.857
G1 Y146.53 E1221.101
G1 Y151.41 E1221.344
G1 Y156.3 E1221.588
G1 Y161.18 E1221.831
G1 Y166.06 E1222.075
G1 X112 F9000
G1 Y161.18 E1222.319 F3600
G1 Y156.3 E1222.562
G1 Y151.41 E1222.806
G1 Y146.53 E1223.05
G1 Y141.65 E1223.293
G1 Y136.77 E1223.537
G1 Y131.88 E1223.78
G1 Y127 E1224.024
G1 Y122.12 E1224.268
G1 Y117.24 E1224.511
G1 Y112.35 E1224.755
G1 Y107.47 E1224.999
G1 Y102.59 E1225.242
G1 Y97.71 E1225.486
G1 Y92.82 E1225.729
G1 Y87.94 E1225.973
G1 X112.4 F9000
G1 Y92.82 E1226.217 F3600
G1 Y97.71 E1226.46
G1 Y102.59 E1226.704
G1 Y107.47 E1226.947
G1 Y112.35 E1227.191
G1 Y117.24 E1227.434
G1 Y122.12 E1227.678
G1 Y127 E1227.922
G1 Y131.88 E1228.165
G1 Y136.77 E1228.409
G1 Y141.65 E1228.652
G1 Y146.53 E1228.896
G1 Y151.41 E1229.139
G1 Y156.3 E1229.383
G1 Y161.18 E1229.626
G1 Y166.06 E1229.87
G1 X112.8 F9000
G1 Y161.18 E1230.114 F3600
G1 Y156.3 E1230.357
G1 Y151.41 E1230.601
G1 Y146.53 E1230.845
G1 Y141.65 E1231.088
G1 Y136.77 E1231.332
G1 Y131.88 E1231.575
G1 Y127 E1231.819
G1 Y122.12 E1232.063
G1 Y117.24 E1232.306
G1 Y112.35 E1232.55
G1 Y107.47 E1232.794
G1 Y102.59 E1233.037
G1 Y97.71 E1233.281
G1 Y92.82 E1233.524
G1 Y87.94 E1233.768
G1 X113.2 F9000
G1 Y92.82 E1234.012 F3600
G1 Y97.71 E1234.255
G1 Y102.59 E1234.499
G1 Y107.47 E1234.742
G1 Y112.35 E1234.986
G1 Y117.24 E1235.229
G1 Y122.12 E1235.473
G1 Y127 E1235.717
G1 Y131.88 E1235.96
G1 Y136.77 E1236.204
G1 Y141.65 E1236.447
G1 Y146.53 E1236.691
G1 Y151.41 E1236.934
G1 Y156.3 E1237.178
G1 Y161.18 E1237.421
G1 Y166.06 E1237.665
G1 X113.6 F9000
G1 Y161.18 E1237.909 F3600
G1 Y156.3 E1238.152
G1 Y151.41 E1238.396
G1 Y146.53 E1238.64
G1 Y141.65 E1238.883
G1 Y136.77 E1239.127
G1 Y131.88 E1239.37
G1 Y127 E1239.614
G1 Y122.12 E1239.858
G1 Y117.24 E1240.101
G1 Y112.35 E1240.345
G1 Y107.47 E1240.589
G1 Y102.59 E1240.832
G1 Y97.71 E1241.076
G1 Y92.82 E1241.319
G1 Y87.94 E1241.563
G1 X114 F9000
G1 Y92.82 E1241.807 F3600
G1 Y97.71 E1242.05
G1 Y102.59 E1242.294
G1 Y107.47 E1242.537
G1 Y112.35 E1242.781
G1 Y117.24 E1243.024
G1 Y122.12 E1243.268
G1 Y127 E1243.512
G1 Y131.88 E1243.755
G1 Y136.77 E1243.999
G1 Y141.65 E1244.242
G1 Y146.53 E1244.486
G1 Y151.41 E1244.729
G1 Y156.3 E1244.973
G1 Y161.18 E1245.216
G1 Y166.06 E1245.46
G1 X114.4 F9000
G1 Y161.18 E1245.704 F3600
G1 Y156.3 E1245.947
G1 Y151.41 E1246.191
G1 Y146.53 E1246.435
G1 Y141.65 E1246.678
G1 Y136.77 E1246.922
G1 Y131.88 E1247.165
G1 Y127 E1247.409
G1 Y122.12 E1247.653
G1 Y117.24 E1247.896
G1 Y112.35 E1248.14
G1 Y107.47 E1248.384
G1 Y102.59 E1248.627
G1 Y97.71 E1248.871
G1 Y92.82 E1249.114
G1 Y87.94 E1249.358
G1 X114.8 F9000
G1 Y92.82 E1249.602 F3600
G1 Y97.71 E1249.845
G1 Y102.59 E1250.089
G1 Y107.47 E1250.332
G1 Y112.35 E1250.576
G1 Y117.24 E1250.819
G1 Y122.12 E1251.063
G1 Y127 E1251.307
G1 Y131.88 E1251.55
G1 Y136.77 E1251.794
G1 Y141.65 E1252.037
G1 Y146.53 E1252.281
G1 Y151.41 E1252.524
G1 Y156.3 E1252.768
G1 Y161.18 E1253.011
G1 Y166.06 E1253.255
G1 X115.2 F9000
G1 Y161.18 E1253.499 F3600
G1 Y156.3 E1253.742
G1 Y151.41 E1253.986
G1 Y146.53 E1254.23
G1 Y141.65 E1254.473
G1 Y136.77 E1254.717
G1 Y131.88 E1254.96
G1 Y127 E1255.204
G1 Y122.12 E1255.448
G1 Y117.24 E1255.691
G1 Y112.35 E1255.935
G1 Y107.47 E1256.179
G1 Y102.59 E1256.422
G1 Y97.71 E1256.666
G1 Y92.82 E1256.909
G1 Y87.94 E1257.153
G1 X115.6 F9000
G1 Y92.82 E1257.397 F3600
G1 Y97.71 E1257.64
G1 Y102.59 E1257.884
G1 Y107.47 E1258.127
G1 Y112.35 E1258.371
G1 Y117.24 E1258.614
G1 Y122.12 E1258.858
G1 Y127 E1259.102
G1 Y131.88 E1259.345
G1 Y136.77 E1259.589
G1 Y141.65 E1259.832
G1 Y146.53 E1260.076
G1 Y151.41 E1260.319
G1 Y156.3 E1260.563
G1 Y161.18 E1260.806
G1 Y166.06 E1261.05
G1 X116 F9000
G1 Y161.18 E1261.294 F3600
G1 Y156.3 E1261.537
G1 Y151.41 E1261.781
G1 Y146.53 E1262.024
G1 Y141.65 E1262.268
G1 Y136.77 E1262.511
G1 Y131.88 E1262.755
G1 Y127 E1262.999
G1 Y122.12 E1263.242
G1 Y117.24 E1263.486
G1 Y112.35 E1263.729
G1 Y107.47 E1263.973
G1 Y102.59 E1264.216
G1 Y97.71 E1264.46
G1 Y92.82 E1264.703
G1 Y87.94 E1264.947
G1 X116.4 F9000
G1 Y92.82 E1265.191 F3600
G1 Y97.71 E1265.434
G1 Y102.59 E1265.678
G1 Y107.47 E1265.922
G1 Y112.35 E1266.165
G1 Y117.24 E1266.409
G1 Y122.12 E1266.652
G1 Y127 E1266.896
G1 Y131.88 E1267.14
G1 Y136.77 E1267.383
G1 Y141.65 E1267.627
G1 Y146.53 E1267.871
G1 Y151.41 E1268.114
G1 Y156.3 E1268.358
G1 Y161.18 E1268.601
G1 Y166.06 E1268.845
G1 X116.8 F9000
G1 Y161.18 E1269.089 F3600
G1 Y156.3 E1269.332
G1 Y151.41 E1269.576
G1 Y146.53 E1269.819
G1 Y141.65 E1270.063
G1 Y136.77 E1270.306
G1 Y131.88 E1270.55
G1 Y127 E1270.794
G1 Y122.12 E1271.037
G1 Y117.24 E1271.281
G1 Y112.35 E1271.524
G1 Y107.47 E1271.768
G1 Y102.59 E1272.011
G1 Y97.71 E1272.255
G1 Y92.82 E1272.498
G1 Y87.94 E1272.742
G1 X117.2 F9000
G1 Y92.82 E1272.986 F3600
G1 Y97.71 E1273.229
G1 Y102.59 E1273.473
G1 Y107.47 E1273.717
G1 Y112.35 E1273.96
G1 Y117.24 E1274.204
G1 Y122.12 E1274.447
G1 Y127 E1274.691
G1 Y131.88 E1274.935
G1 Y136.77 E1275.178
G1 Y141.65 E1275.422
G1 Y146.53 E1275.666
G1 Y151.41 E1275.909
G1 Y156.3 E1276.153
G1 Y161.18 E1276.396
G1 Y166.06 E1276.64
G1 X117.6 F9000
G1 Y161.18 E1276.884 F3600
G1 Y156.3 E1277.127
G1 Y151.41 E1277.371
G1 Y146.53 E1277.614
G1 Y141.65 E1277.858
G1 Y136.77 E1278.101
G1 Y131.88 E1278.345
G1 Y127 E1278.589
G1 Y122.12 E1278.832
G1 Y117.24 E1279.076
G1 Y112.35 E1279.319
G1 Y107.47 E1279.563
G1 Y102.59 E1279.806
G1 Y97.71 E1280.05
G1 Y92.82 E1280.293
G1 Y87.94 E1280.537
G1 X118 F9000
G1 Y92.82 E1280.781 F3600
G1 Y97.71 E1281.024
G1 Y102.59 E1281.268
G1 Y107.47 E1281.512
G1 Y112.35 E1281.755
G1 Y117.24 E1281.999
G1 Y122.12 E1282.242
G1 Y127 E1282.486
G1 Y131.88 E1282.73
G1 Y136.77 E1282.973
G1 Y141.65 E1283.217
G1 Y146.53 E1283.461
G1 Y151.41 E1283.704
G1 Y156.3 E1283.948
G1 Y161.18 E1284.191
G1 Y166.06 E1284.435
G1 X118.4 F9000
G1 Y161.18 E1284.679 F3600
G1 Y156.3 E1284.922
G1 Y151.41 E1285.166
G1 Y146.53 E1285.409
G1 Y141.65 E1285.653
G1 Y136.77 E1285.896
G1 Y131.88 E1286.14
G1 Y127 E1286.384
G1 Y122.12 E1286.627
G1 Y117.24 E1286.871
G1 Y112.35 E1287.114
G1 Y107.47 E1287.358
G1 Y102.59 E1287.601
G1 Y97.71 E1287.845
G1 Y92.82 E1288.088
G1 Y87.94 E1288.332
G1 X118.8 F9000
G1 Y92.82 E1288.576 F3600
G1 Y97.71 E1288.819
G1 Y102.59 E1289.063
G1 Y107.47 E1289.307
G1 Y112.35 E1289.55
G1 Y117.24 E1289.794
G1 Y122.12 E1290.037
G1 Y127 E1290.281
G1 Y131.88 E1290.525
G1 Y136.77 E1290.768
G1 Y141.65 E1291.012
G1 Y146.53 E1291.256
G1 Y151.41 E1291.499
G1 Y156.3 E1291.743
G1 Y161.18 E1291.986
G1 Y166.06 E1292.23
G1 X119.2 Y166.06 F9000
G1 Y161.18 E1292.474 F3600
G1 Y156.3 E1292.717
G1 Y151.41 E1292.961
G1 Y146.53 E1293.204
G1 Y141.65 E1293.448
G1 Y136.77 E1293.691
G1 Y131.88 E1293.935
G1 Y127 E1294.179
G1 Y122.12 E1294.422
G1 Y117.24 E1294.666
G1 Y112.35 E1294.909
G1 Y107.47 E1295.153
G1 Y102.59 E1295.396
G1 Y97.71 E1295.64
G1 Y92.82 E1295.883
G1 Y87.94 E1296.127
G1 X119.6 F9000
G1 Y92.82 E1296.371 F3600
G1 Y97.71 E1296.614
G1 Y102.59 E1296.858
G1 Y107.47 E1297.102
G1 Y112.35 E1297.345
G1 Y117.24 E1297.589
G1 Y122.12 E1297.832
G1 Y127 E1298.076
G1 Y131.88 E1298.32
G1 Y136.77 E1298.563
G1 Y141.65 E1298.807
G1 Y146.53 E1299.051
G1 Y151.41 E1299.294
G1 Y156.3 E1299.538
G1 Y161.18 E1299.781
G1 Y166.06 E1300.025
G1 X120 F9000
G1 Y161.18 E1300.269 F3600
G1 Y156.3 E1300.512
G1 Y151.41 E1300.756
G1 Y146.53 E1300.999
G1 Y141.65 E1301.243
G1 Y136.77 E1301.486
G1 Y131.88 E1301.73
G1 Y127 E1301.974
G1 Y122.12 E1302.217
G1 Y117.24 E1302.461
G1 Y112.35 E1302.704
G1 Y107.47 E1302.948
G1 Y102.59 E1303.191
G1 Y97.71 E1303.435
G1 Y92.82 E1303.678
G1 Y87.94 E1303.922
G1 X120.4 F9000
G1 Y92.82 E1304.166 F3600
G1 Y97.71 E1304.409
G1 Y102.59 E1304.653
G1 Y107.47 E1304.896
G1 Y112.35 E1305.14
G1 Y117.24 E1305.383
G1 Y122.12 E1305.627
G1 Y127 E1305.871
G1 Y131.88 E1306.114
G1 Y136.77 E1306.358
G1 Y141.65 E1306.601
G1 Y146.53 E1306.845
G1 Y151.41 E1307.088
G1 Y156.3 E1307.332
G1 Y161.18 E1307.575
G1 Y166.06 E1307.819
G1 X120.8 F9000
G1 Y161.18 E1308.063 F3600
G1 Y156.3 E1308.306
G1 Y151.41 E1308.55
G1 Y146.53 E1308.794
G1 Y141.65 E1309.037
G1 Y136.77 E1309.281
G1 Y131.88 E1309.524
G1 Y127 E1309.768
G1 Y122.12 E1310.012
G1 Y117.24 E1310.255
G1 Y112.35 E1310.499
G1 Y107.47 E1310.743
G1 Y102.59 E1310.986
G1 Y97.71 E1311.23
G1 Y92.82 E1311.473
G1 Y87.94 E1311.717
G1 X121.2 F9000
G1 Y92.82 E1311.961 F3600
G1 Y97.71 E1312.204
G1 Y102.59 E1312.448
G1 Y107.47 E1312.691
G1 Y112.35 E1312.935
G1 Y117.24 E1313.178
G1 Y122.12 E1313.422
G1 Y127 E1313.666
G1 Y131.88 E1313.909
G1 Y136.77 E1314.153
G1 Y141.65 E1314.396
G1 Y146.53 E1314.64
G1 Y151.41 E1314.883
G1 Y156.3 E1315.127
G1 Y161.18 E1315.37
G1 Y166.06 E1315.614
G1 X121.6 F9000
G1 Y161.18 E1315.858 F3600
G1 Y156.3 E1316.101
G1 Y151.41 E1316.345
G1 Y146.53 E1316.589
G1 Y141.65 E1316.832
G1 Y136.77 E1317.076
G1 Y131.88 E1317.319
G1 Y127 E1317.563
G1 Y122.12 E1317.807
G1 Y117.24 E1318.05
G1 Y112.35 E1318.294
G1 Y107.47 E1318.538
G1 Y102.59 E1318.781
G1 Y97.71 E1319.025
G1 Y92.82 E1319.268
G1 Y87.94 E1319.512
G1 X122 F9000
G1 Y92.82 E1319.756 F3600
G1 Y97.71 E1319.999
G1 Y102.59 E1320.243
G1 Y107.47 E1320.486
G1 Y112.35 E1320.73
G1 Y117.24 E1320.973
G1 Y122.12 E1321.217
G1 Y127 E1321.461
G1 Y131.88 E1321.704
G1 Y136.77 E1321.948
G1 Y141.65 E1322.191
G1 Y146.53 E1322.435
G1 Y151.41 E1322.678
G1 Y156.3 E1322.922
G1 Y161.18 E1323.165
G1 Y166.06 E1323.409
G1 X122.4 F9000
G1 Y161.18 E1323.653 F3600
G1 Y156.3 E1323.896
G1 Y151.41 E1324.14
G1 Y146.53 E1324.384
G1 Y141.65 E1324.627
G1 Y136.77 E1324.871
G1 Y131.88 E1325.114
G1 Y127 E1325.358
G1 Y122.12 E1325.602
G1 Y117.24 E1325.845
G1 Y112.35 E1326.089
G1 Y107.47 E1326.333
G1 Y102.59 E1326.576
G1 Y97.71 E1326.82
G1 Y92.82 E1327.063
G1 Y87.94 E1327.307
G1 X122.8 F9000
G1 Y92.82 E1327.551 F3600
G1 Y97.71 E1327.794
G1 Y102.59 E1328.038
G1 Y107.47 E1328.281
G1 Y112.35 E1328.525
G1 Y117.24 E1328.768
G1 Y122.12 E1329.012
G1 Y127 E1329.256
G1 Y131.88 E1329.499
G1 Y136.77 E1329.743
G1 Y141.65 E1329.986
G1 Y146.53 E1330.23
G1 Y151.41 E1330.473
G1 Y156.3 E1330.717
G1 Y161.18 E1330.96
G1 Y166.06 E1331.204
G1 X123.2 F9000
G1 Y161.18 E1331.448 F3600
G1 Y156.3 E1331.691
G1 Y151.41 E1331.935
G1 Y146.53 E1332.178
G1 Y141.65 E1332.422
G1 Y136.77 E1332.665
G1 Y131.88 E1332.909
G1 Y127 E1333.153
G1 Y122.12 E1333.396
G1 Y117.24 E1333.64
G1 Y112.35 E1333.883
G1 Y107.47 E1334.127
G1 Y102.59 E1334.37
G1 Y97.71 E1334.614
G1 Y92.82 E1334.857
G1 Y87.94 E1335.101
G1 X123.6 F9000
G1 Y92.82 E1335.345 F3600
G1 Y97.71 E1335.588
G1 Y102.59 E1335.832
G1 Y107.47 E1336.076
G1 Y112.35 E1336.319
G1 Y117.24 E1336.563
G1 Y122.12 E1336.806
G1 Y127 E1337.05
G1 Y131.88 E1337.294
G1 Y136.77 E1337.537
G1 Y141.65 E1337.781
G1 Y146.53 E1338.025
G1 Y151.41 E1338.268
G1 Y156.3 E1338.512
G1 Y161.18 E1338.755
G1 Y166.06 E1338.999
G1 X124 F9000
G1 Y161.18 E1339.243 F3600
G1 Y156.3 E1339.486
G1 Y151.41 E1339.73
G1 Y146.53 E1339.973
G1 Y141.65 E1340.217
G1 Y136.77 E1340.46
G1 Y131.88 E1340.704
G1 Y127 E1340.948
G1 Y122.12 E1341.191
G1 Y117.24 E1341.435
G1 Y112.35 E1341.678
G1 Y107.47 E1341.922
G1 Y102.59 E1342.165
G1 Y97.71 E1342.409
G1 Y92.82 E1342.652
G1 Y87.94 E1342.896
G1 X124.4 F9000
G1 Y92.82 E1343.14 F3600
G1 Y97.71 E1343.383
G1 Y102.59 E1343.627
G1 Y107.47 E1343.871
G1 Y112.35 E1344.114
G1 Y117.24 E1344.358
G1 Y122.12 E1344.601
G1 Y127 E1344.845
G1 Y131.88 E1345.089
G1 Y136.77 E1345.332
G1 Y141.65 E1345.576
G1 Y146.53 E1345.82
G1 Y151.41 E1346.063
G1 Y156.3 E1346.307
G1 Y161.18 E1346.55
G1 Y166.06 E1346.794
G1 X124.8 F9000
G1 Y161.18 E1347.038 F3600
G1 Y156.3 E1347.281
G1 Y151.41 E1347.525
G1 Y146.53 E1347.768
G1 Y141.65 E1348.012
G1 Y136.77 E1348.255
G1 Y131.88 E1348.499
G1 Y127 E1348.743
G1 Y122.12 E1348.986
G1 Y117.24 E1349.23
G1 Y112.35 E1349.473
G1 Y107.47 E1349.717
G1 Y102.59 E1349.96
G1 Y97.71 E1350.204
G1 Y92.82 E1350.447
G1 Y87.94 E1350.691
G1 X125.2 F9000
G1 Y92.82 E1350.935 F3600
G1 Y97.71 E1351.178
G1 Y102.59 E1351.422
G1 Y107.47 E1351.666
G1 Y112.35 E1351.909
G1 Y117.24 E1352.153
G1 Y122.12 E1352.396
G1 Y127 E1352.64
G1 Y131.88 E1352.884
G1 Y136.77 E1353.127
G1 Y141.65 E1353.371
G1 Y146.53 E1353.615
G1 Y151.41 E1353.858
G1 Y156.3 E1354.102
G1 Y161.18 E1354.345
G1 Y166.06 E1354.589
G1 X125.6 F9000
G1 Y161.18 E1354.833 F3600
G1 Y156.3 E1355.076
G1 Y151.41 E1355.32
G1 Y146.53 E1355.563
G1 Y141.65 E1355.807
G1 Y136.77 E1356.05
G1 Y131.88 E1356.294
G1 Y127 E1356.538
G1 Y122.12 E1356.781
G1 Y117.24 E1357.025
G1 Y112.35 E1357.268
G1 Y107.47 E1357.512
G1 Y102.59 E1357.755
G1 Y97.71 E1357.999
G1 Y92.82 E1358.242
G1 Y87.94 E1358.486
G1 X126 F9000
G1 Y92.82 E1358.73 F3600
G1 Y97.71 E1358.973
G1 Y102.59 E1359.217
G1 Y107.47 E1359.46
G1 Y112.35 E1359.704
G1 Y117.24 E1359.947
G1 Y122.12 E1360.191
G1 Y127 E1360.435
G1 Y131.88 E1360.678
G1 Y136.77 E1360.922
G1 Y141.65 E1361.165
G1 Y146.53 E1361.409
G1 Y151.41 E1361.652
G1 Y156.3 E1361.896
G1 Y161.18 E1362.139
G1 Y166.06 E1362.383
G1 X126.4 F9000
G1 Y161.18 E1362.627 F3600
G1 Y156.3 E1362.87
G1 Y151.41 E1363.114
G1 Y146.53 E1363.358
G1 Y141.65 E1363.601
G1 Y136.77 E1363.845
G1 Y131.88 E1364.088
G1 Y127 E1364.332
G1 Y122.12 E1364.576
G1 Y117.24 E1364.819
G1 Y112.35 E1365.063
G1 Y107.47 E1365.307
G1 Y102.59 E1365.55
G1 Y97.71 E1365.794
G1 Y92.82 E1366.037
G1 Y87.94 E1366.281
G1 X126.8 F9000
G1 Y92.82 E1366.525 F3600
G1 Y97.71 E1366.768
G1 Y102.59 E1367.012
G1 Y107.47 E1367.255
G1 Y112.35 E1367.499
G1 Y117.24 E1367.742
G1 Y122.12 E1367.986
G1 Y127 E1368.23
G1 Y131.88 E1368.473
G1 Y136.77 E1368.717
G1 Y141.65 E1368.96
G1 Y146.53 E1369.204
G1 Y151.41 E1369.447
G1 Y156.3 E1369.691
G1 Y161.18 E1369.934
G1 Y166.06 E1370.178
G1 X127.2 F9000
G1 Y161.18 E1370.422 F3600
G1 Y156.3 E1370.665
G1 Y151.41 E1370.909
G1 Y146.53 E1371.153
G1 Y141.65 E1371.396
G1 Y136.77 E1371.64
G1 Y131.88 E1371.883
G1 Y127 E1372.127
G1 Y122.12 E1372.371
G1 Y117.24 E1372.614
G1 Y112.35 E1372.858
G1 Y107.47 E1373.102
G1 Y102.59 E1373.345
G1 Y97.71 E1373.589
G1 Y92.82 E1373.832
G1 Y87.94 E1374.076
G1 X127.6 F9000
G1 Y92.82 E1374.32 F3600
G1 Y97.71 E1374.563
G1 Y102.59 E1374.807
G1 Y107.47 E1375.05
G1 Y112.35 E1375.294
G1 Y117.24 E1375.537
G1 Y122.12 E1375.781
G1 Y127 E1376.025
G1 Y131.88 E1376.268
G1 Y136.77 E1376.512
G1 Y141.65 E1376.755
G1 Y146.53 E1376.999
G1 Y151.41 E1377.242
G1 Y156.3 E1377.486
G1 Y161.18 E1377.729
G1 Y166.06 E1377.973
G1 X128 F9000
G1 Y161.18 E1378.217 F3600
G1 Y156.3 E1378.46
G1 Y151.41 E1378.704
G1 Y146.53 E1378.948
G1 Y141.65 E1379.191
G1 Y136.77 E1379.435
G1 Y131.88 E1379.678
G1 Y127 E1379.922
G1 Y122.12 E1380.166
G1 Y117.24 E1380.409
G1 Y112.35 E1380.653
G1 Y107.47 E1380.897
G1 Y102.59 E1381.14
G1 Y97.71 E1381.384
G1 Y92.82 E1381.627
G1 Y87.94 E1381.871
G1 X128.4 F9000
G1 Y92.82 E1382.115 F3600
G1 Y97.71 E1382.358
G1 Y102.59 E1382.602
G1 Y107.47 E1382.845
G1 Y112.35 E1383.089
G1 Y117.24 E1383.332
G1 Y122.12 E1383.576
G1 Y127 E1383.82
G1 Y131.88 E1384.063
G1 Y136.77 E1384.307
G1 Y141.65 E1384.55
G1 Y146.53 E1384.794
G1 Y151.41 E1385.037
G1 Y156.3 E1385.281
G1 Y161.18 E1385.524
G1 Y166.06 E1385.768
G1 X128.8 F9000
G1 Y161.18 E1386.012 F3600
G1 Y156.3 E1386.255
G1 Y151.41 E1386.499
G1 Y146.53 E1386.742
G1 Y141.65 E1386.986
G1 Y136.77 E1387.229
G1 Y131.88 E1387.473
G1 Y127 E1387.717
G1 Y122.12 E1387.96
G1 Y117.24 E1388.204
G1 Y112.35 E1388.447
G1 Y107.47 E1388.691
G1 Y102.59 E1388.934
G1 Y97.71 E1389.178
G1 Y92.82 E1389.421
G1 Y87.94 E1389.665
G1 X129.2 F9000
G1 Y92.82 E1389.909 F3600
G1 Y97.71 E1390.152
G1 Y102.59 E1390.396
G1 Y107.47 E1390.64
G1 Y112.35 E1390.883
G1 Y117.24 E1391.127
G1 Y122.12 E1391.37
G1 Y127 E1391.614
G1 Y131.88 E1391.858
G1 Y136.77 E1392.101
G1 Y141.65 E1392.345
G1 Y146.53 E1392.589
G1 Y151.41 E1392.832
G1 Y156.3 E1393.076
G1 Y161.18 E1393.319
G1 Y166.06 E1393.563
G1 X129.6 F9000
G1 Y161.18 E1393.807 F3600
G1 Y156.3 E1394.05
G1 Y151.41 E1394.294
G1 Y146.53 E1394.537
G1 Y141.65 E1394.781
G1 Y136.77 E1395.024
G1 Y131.88 E1395.268
G1 Y127 E1395.512
G1 Y122.12 E1395.755
G1 Y117.24 E1395.999
G1 Y112.35 E1396.242
G1 Y107.47 E1396.486
G1 Y102.59 E1396.729
G1 Y97.71 E1396.973
G1 Y92.82 E1397.216
G1 Y87.94 E1397.46
G1 X130 F9000
G1 Y92.82 E1397.704 F3600
G1 Y97.71 E1397.947
G1 Y102.59 E1398.191
G1 Y107.47 E1398.435
G1 Y112.35 E1398.678
G1 Y117.24 E1398.922
G1 Y122.12 E1399.165
G1 Y127 E1399.409
G1 Y131.88 E1399.653
G1 Y136.77 E1399.896
G1 Y141.65 E1400.14
G1 Y146.53 E1400.384
G1 Y151.41 E1400.627
G1 Y156.3 E1400.871
G1 Y161.18 E1401.114
G1 Y166.06 E1401.358
G1 X130.4 F9000
G1 Y161.18 E1401.602 F3600
G1 Y156.3 E1401.845
G1 Y151.41 E1402.089
G1 Y146.53 E1402.332
G1 Y141.65 E1402.576
G1 Y136.77 E1402.819
G1 Y131.88 E1403.063
G1 Y127 E1403.307
G1 Y122.12 E1403.55
G1 Y117.24 E1403.794
G1 Y112.35 E1404.037
G1 Y107.47 E1404.281
G1 Y102.59 E1404.524
G1 Y97.71 E1404.768
G1 Y92.82 E1405.011
G1 Y87.94 E1405.255
G1 X130.8 F9000
G1 Y92.82 E1405.499 F3600
G1 Y97.71 E1405.742
G1 Y102.59 E1405.986
G1 Y107.47 E1406.229
G1 Y112.35 E1406.473
G1 Y117.24 E1406.716
G1 Y122.12 E1406.96
G1 Y127 E1407.204
G1 Y131.88 E1407.447
G1 Y136.77 E1407.691
G1 Y141.65 E1407.934
G1 Y146.53 E1408.178
G1 Y151.41 E1408.421
G1 Y156.3 E1408.665
G1 Y161.18 E1408.908
G1 Y166.06 E1409.152
G1 X131.2 F9000
G1 Y161.18 E1409.396 F3600
G1 Y156.3 E1409.639
G1 Y151.41 E1409.883
G1 Y146.53 E1410.127
G1 Y141.65 E1410.37
G1 Y136.77 E1410.614
G1 Y131.88 E1410.857
G1 Y127 E1411.101
G1 Y122.12 E1411.345
G1 Y117.24 E1411.588
G1 Y112.35 E1411.832
G1 Y107.47 E1412.076
G1 Y102.59 E1412.319
G1 Y97.71 E1412.563
G1 Y92.82 E1412.806
G1 Y87.94 E1413.05
G1 X131.6 F9000
G1 Y92.82 E1413.294 F3600
G1 Y97.71 E1413.537
G1 Y102.59 E1413.781
G1 Y107.47 E1414.024
G1 Y112.35 E1414.268
G1 Y117.24 E1414.511
G1 Y122.12 E1414.755
G1 Y127 E1414.999
G1 Y131.88 E1415.242
G1 Y136.77 E1415.486
G1 Y141.65 E1415.729
G1 Y146.53 E1415.973
G1 Y151.41 E1416.216
G1 Y156.3 E1416.46
G1 Y161.18 E1416.703
G1 Y166.06 E1416.947
G1 X132 F9000
G1 Y161.18 E1417.191 F3600
G1 Y156.3 E1417.434
G1 Y151.41 E1417.678
G1 Y146.53 E1417.922
G1 Y141.65 E1418.165
G1 Y136.77 E1418.409
G1 Y131.88 E1418.652
G1 Y127 E1418.896
G1 Y122.12 E1419.14
G1 Y117.24 E1419.383
G1 Y112.35 E1419.627
G1 Y107.47 E1419.871
G1 Y102.59 E1420.114
G1 Y97.71 E1420.358
G1 Y92.82 E1420.601
G1 Y87.94 E1420.845
G1 X132.4 F9000
G1 Y92.82 E1421.089 F3600
G1 Y97.71 E1421.332
G1 Y102.59 E1421.576
G1 Y107.47 E1421.819
G1 Y112.35 E1422.063
G1 Y117.24 E1422.306
G1 Y122.12 E1422.55
G1 Y127 E1422.794
G1 Y131.88 E1423.037
G1 Y136.77 E1423.281
G1 Y141.65 E1423.524
G1 Y146.53 E1423.768
G1 Y151.41 E1424.011
G1 Y156.3 E1424.255
G1 Y161.18 E1424.498
G1 Y166.06 E1424.742
G1 X132.8 F9000
G1 Y161.18 E1424.986 F3600
G1 Y156.3 E1425.229
G1 Y151.41 E1425.473
G1 Y146.53 E1425.717
G1 Y141.65 E1425.96
G1 Y136.77 E1426.204
G1 Y131.88 E1426.447
G1 Y127 E1426.691
G1 Y122.12 E1426.935
G1 Y117.24 E1427.178
G1 Y112.35 E1427.422
G1 Y107.47 E1427.666
G1 Y102.59 E1427.909
G1 Y97.71 E1428.153
G1 Y92.82 E1428.396
G1 Y87.94 E1428.64
G1 X133.2 F9000
G1 Y92.82 E1428.884 F3600
G1 Y97.71 E1429.127
G1 Y102.59 E1429.371
G1 Y107.47 E1429.614
G1 Y112.35 E1429.858
G1 Y117.24 E1430.101
G1 Y122.12 E1430.345
G1 Y127 E1430.589
G1 Y131.88 E1430.832
G1 Y136.77 E1431.076
G1 Y141.65 E1431.319
G1 Y146.53 E1431.563
G1 Y151.41 E1431.806
G1 Y156.3 E1432.05
G1 Y161.18 E1432.293
G1 Y166.06 E1432.537
G1 X133.6 F9000
G1 Y161.18 E1432.781 F3600
G1 Y156.3 E1433.024
G1 Y151.41 E1433.268
G1 Y146.53 E1433.511
G1 Y141.65 E1433.755
G1 Y136.77 E1433.998
G1 Y131.88 E1434.242
G1 Y127 E1434.486
G1 Y122.12 E1434.729
G1 Y117.24 E1434.973
G1 Y112.35 E1435.216
G1 Y107.47 E1435.46
G1 Y102.59 E1435.703
G1 Y97.71 E1435.947
G1 Y92.82 E1436.19
G1 Y87.94 E1436.434
G1 X134 F9000
G1 Y92.82 E1436.678 F3600
G1 Y97.71 E1436.921
G1 Y102.59 E1437.165
G1 Y107.47 E1437.409
G1 Y112.35 E1437.652
G1 Y117.24 E1437.896
G1 Y122.12 E1438.139
G1 Y127 E1438.383
G1 Y131.88 E1438.627
G1 Y136.77 E1438.87
G1 Y141.65 E1439.114
G1 Y146.53 E1439.358
G1 Y151.41 E1439.601
G1 Y156.3 E1439.845
G1 Y161.18 E1440.088
G1 Y166.06 E1440.332
G1 X134.4 F9000
G1 Y161.18 E1440.576 F3600
G1 Y156.3 E1440.819
G1 Y151.41 E1441.063
G1 Y146.53 E1441.306
G1 Y141.65 E1441.55
G1 Y136.77 E1441.793
G1 Y131.88 E1442.037
G1 Y127 E1442.281
G1 Y122.12 E1442.524
G1 Y117.24 E1442.768
G1 Y112.35 E1443.011
G1 Y107.47 E1443.255
G1 Y102.59 E1443.498
G1 Y97.71 E1443.742
G1 Y92.82 E1443.985
G1 Y87.94 E1444.229
G1 X134.8 F9000
G1 Y92.82 E1444.473 F3600
G1 Y97.71 E1444.716
G1 Y102.59 E1444.96
G1 Y107.47 E1445.204
G1 Y112.35 E1445.447
G1 Y117.24 E1445.691
G1 Y122.12 E1445.934
G1 Y127 E1446.178
G1 Y131.88 E1446.422
G1 Y136.77 E1446.665
G1 Y141.65 E1446.909
G1 Y146.53 E1447.153
G1 Y151.41 E1447.396
G1 Y156.3 E1447.64
G1 Y161.18 E1447.883
G1 Y166.06 E1448.127
G1 X135.2 F9000
G1 Y161.18 E1448.371 F3600
G1 Y156.3 E1448.614
G1 Y151.41 E1448.858
G1 Y146.53 E1449.101
G1 Y141.65 E1449.345
G1 Y136.77 E1449.588
G1 Y131.88 E1449.832
G1 Y127 E1450.076
G1 Y122.12 E1450.319
G1 Y117.24 E1450.563
G1 Y112.35 E1450.806
G1 Y107.47 E1451.05
G1 Y102.59 E1451.293
G1 Y97.71 E1451.537
G1 Y92.82 E1451.78
G1 Y87.94 E1452.024
G1 X135.6 F9000
G1 Y92.82 E1452.268 F3600
G1 Y97.71 E1452.511
G1 Y102.59 E1452.755
G1 Y107.47 E1452.999
G1 Y112.35 E1453.242
G1 Y117.24 E1453.486
G1 Y122.12 E1453.729
G1 Y127 E1453.973
G1 Y131.88 E1454.217
G1 Y136.77 E1454.46
G1 Y141.65 E1454.704
G1 Y146.53 E1454.948
G1 Y151.41 E1455.191
G1 Y156.3 E1455.435
G1 Y161.18 E1455.678
G1 Y166.06 E1455.922
G1 X136 F9000
G1 Y161.18 E1456.166 F3600
G1 Y156.3 E1456.409
G1 Y151.41 E1456.653
G1 Y146.53 E1456.896
G1 Y141.65 E1457.14
G1 Y136.77 E1457.383
G1 Y131.88 E1457.627
G1 Y127 E1457.871
G1 Y122.12 E1458.114
G1 Y117.24 E1458.358
G1 Y112.35 E1458.601
G1 Y107.47 E1458.845
G1 Y102.59 E1459.088
G1 Y97.71 E1459.332
G1 Y92.82 E1459.575
G1 Y87.94 E1459.819
G1 X136.4 F9000
G1 Y92.82 E1460.063 F3600
G1 Y97.71 E1460.306
G1 Y102.59 E1460.55
G1 Y107.47 E1460.793
G1 Y112.35 E1461.037
G1 Y117.24 E1461.28
G1 Y122.12 E1461.524
G1 Y127 E1461.768
G1 Y131.88 E1462.011
G1 Y136.77 E1462.255
G1 Y141.65 E1462.498
G1 Y146.53 E1462.742
G1 Y151.41 E1462.985
G1 Y156.3 E1463.229
G1 Y161.18 E1463.472
G1 Y166.06 E1463.716
G1 X136.8 F9000
G1 Y161.18 E1463.96 F3600
G1 Y156.3 E1464.203
G1 Y151.41 E1464.447
G1 Y146.53 E1464.691
G1 Y141.65 E1464.934
G1 Y136.77 E1465.178
G1 Y131.88 E1465.421
G1 Y127 E1465.665
G1 Y122.12 E1465.909
G1 Y117.24 E1466.152
G1 Y112.35 E1466.396
G1 Y107.47 E1466.64
G1 Y102.59 E1466.883
G1 Y97.71 E1467.127
G1 Y92.82 E1467.37
G1 Y87.94 E1467.614
G1 X137.2 F9000
G1 Y92.82 E1467.858 F3600
G1 Y97.71 E1468.101
G1 Y102.59 E1468.345
G1 Y107.47 E1468.588
G1 Y112.35 E1468.832
G1 Y117.24 E1469.075
G1 Y122.12 E1469.319
G1 Y127 E1469.563
G1 Y131.88 E1469.806
G1 Y136.77 E1470.05
G1 Y141.65 E1470.293
G1 Y146.53 E1470.537
G1 Y151.41 E1470.78
G1 Y156.3 E1471.024
G1 Y161.18 E1471.267
G1 Y166.06 E1471.511
G1 X137.6 F9000
G1 Y161.18 E1471.755 F3600
G1 Y156.3 E1471.998
G1 Y151.41 E1472.242
G1 Y146.53 E1472.486
G1 Y141.65 E1472.729
G1 Y136.77 E1472.973
G1 Y131.88 E1473.216
G1 Y127 E1473.46
G1 Y122.12 E1473.704
G1 Y117.24 E1473.947
G1 Y112.35 E1474.191
G1 Y107.47 E1474.435
G1 Y102.59 E1474.678
G1 Y97.71 E1474.922
G1 Y92.82 E1475.165
G1 Y87.94 E1475.409
G1 X138 F9000
G1 Y92.82 E1475.653 F3600
G1 Y97.71 E1475.896
G1 Y102.59 E1476.14
G1 Y107.47 E1476.383
G1 Y112.35 E1476.627
G1 Y117.24 E1476.87
G1 Y122.12 E1477.114
G1 Y127 E1477.358
G1 Y131.88 E1477.601
G1 Y136.77 E1477.845
G1 Y141.65 E1478.088
G1 Y146.53 E1478.332
G1 Y151.41 E1478.575
G1 Y156.3 E1478.819
G1 Y161.18 E1479.062
G1 Y166.06 E1479.306
G1 X138.4 F9000
G1 Y161.18 E1479.55 F3600
G1 Y156.3 E1479.793
G1 Y151.41 E1480.037
G1 Y146.53 E1480.28
G1 Y141.65 E1480.524
G1 Y136.77 E1480.767
G1 Y131.88 E1481.011
G1 Y127 E1481.255
G1 Y122.12 E1481.498
G1 Y117.24 E1481.742
G1 Y112.35 E1481.985
G1 Y107.47 E1482.229
G1 Y102.59 E1482.472
G1 Y97.71 E1482.716
G1 Y92.82 E1482.959
G1 Y87.94 E1483.203
G1 X138.8 F9000
G1 Y92.82 E1483.447 F3600
G1 Y97.71 E1483.69
G1 Y102.59 E1483.934
G1 Y107.47 E1484.178
G1 Y112.35 E1484.421
G1 Y117.24 E1484.665
G1 Y122.12 E1484.908
G1 Y127 E1485.152
G1 Y131.88 E1485.396
G1 Y136.77 E1485.639
G1 Y141.65 E1485.883
G1 Y146.53 E1486.127
G1 Y151.41 E1486.37
G1 Y156.3 E1486.614
G1 Y161.18 E1486.857
G1 Y166.06 E1487.101
G1 X139.2 F9000
G1 Y161.18 E1487.345 F3600
G1 Y156.3 E1487.588
G1 Y151.41 E1487.832
G1 Y146.53 E1488.075
G1 Y141.65 E1488.319
G1 Y136.77 E1488.562
G1 Y131.88 E1488.806
G1 Y127 E1489.05
G1 Y122.12 E1489.293
G1 Y117.24 E1489.537
G1 Y112.35 E1489.78
G1 Y107.47 E1490.024
G1 Y102.59 E1490.267
G1 Y97.71 E1490.511
G1 Y92.82 E1490.754
G1 Y87.94 E1490.998
G1 X139.6 F9000
G1 Y92.82 E1491.242 F3600
G1 Y97.71 E1491.485
G1 Y102.59 E1491.729
G1 Y107.47 E1491.973
G1 Y112.35 E1492.216
G1 Y117.24 E1492.46
G1 Y122.12 E1492.703
G1 Y127 E1492.947
G1 Y131.88 E1493.191
G1 Y136.77 E1493.434
G1 Y141.65 E1493.678
G1 Y146.53 E1493.922
G1 Y151.41 E1494.165
G1 Y156.3 E1494.409
G1 Y161.18 E1494.652
G1 Y166.06 E1494.896
G1 X140 F9000
G1 Y161.18 E1495.14 F3600
G1 Y156.3 E1495.383
G1 Y151.41 E1495.627
G1 Y146.53 E1495.87
G1 Y141.65 E1496.114
G1 Y136.77 E1496.357
G1 Y131.88 E1496.601
G1 Y127 E1496.845
G1 Y122.12 E1497.088
G1 Y117.24 E1497.332
G1 Y112.35 E1497.575
G1 Y107.47 E1497.819
G1 Y102.59 E1498.062
G1 Y97.71 E1498.306
G1 Y92.82 E1498.549
G1 Y87.94 E1498.793
G1 X140.4 F9000
G1 Y92.82 E1499.037 F3600
G1 Y97.71 E1499.28
G1 Y102.59 E1499.524
G1 Y107.47 E1499.768
G1 Y112.35 E1500.011
G1 Y117.24 E1500.255
G1 Y122.12 E1500.498
G1 Y127 E1500.742
G1 Y131.88 E1500.986
G1 Y136.77 E1501.229
G1 Y141.65 E1501.473
G1 Y146.53 E1501.717
G1 Y151.41 E1501.96
G1 Y156.3 E1502.204
G1 Y161.18 E1502.447
G1 Y166.06 E1502.691
G1 X140.8 F9000
G1 Y161.18 E1502.935 F3600
G1 Y156.3 E1503.178
G1 Y151.41 E1503.422
G1 Y146.53 E1503.665
G1 Y141.65 E1503.909
G1 Y136.77 E1504.152
G1 Y131.88 E1504.396
G1 Y127 E1504.64
G1 Y122.12 E1504.883
G1 Y117.24 E1505.127
G1 Y112.35 E1505.37
G1 Y107.47 E1505.614
G1 Y102.59 E1505.857
G1 Y97.71 E1506.101
G1 Y92.82 E1506.344
G1 Y87.94 E1506.588
G1 X141.2 F9000
G1 Y92.82 E1506.832 F3600
G1 Y97.71 E1507.075
G1 Y102.59 E1507.319
G1 Y107.47 E1507.562
G1 Y112.35 E1507.806
G1 Y117.24 E1508.049
G1 Y122.12 E1508.293
G1 Y127 E1508.537
G1 Y131.88 E1508.78
G1 Y136.77 E1509.024
G1 Y141.65 E1509.267
G1 Y146.53 E1509.511
G1 Y151.41 E1509.754
G1 Y156.3 E1509.998
G1 Y161.18 E1510.241
G1 Y166.06 E1510.485
G1 X141.6 F9000
G1 Y161.18 E1510.729 F3600
G1 Y156.3 E1510.972
G1 Y151.41 E1511.216
G1 Y146.53 E1511.46
G1 Y141.65 E1511.703
G1 Y136.77 E1511.947
G1 Y131.88 E1512.19
G1 Y127 E1512.434
G1 Y122.12 E1512.678
G1 Y117.24 E1512.921
G1 Y112.35 E1513.165
G1 Y107.47 E1513.409
G1 Y102.59 E1513.652
G1 Y97.71 E1513.896
G1 Y92.82 E1514.139
G1 Y87.94 E1514.383
G1 X142 F9000
G1 Y92.82 E1514.627 F3600
G1 Y97.71 E1514.87
G1 Y102.59 E1515.114
G1 Y107.47 E1515.357
G1 Y112.35 E1515.601
G1 Y117.24 E1515.844
G1 Y122.12 E1516.088
G1 Y127 E1516.332
G1 Y131.88 E1516.575
G1 Y136.77 E1516.819
G1 Y141.65 E1517.062
G1 Y146.53 E1517.306
G1 Y151.41 E1517.549
G1 Y156.3 E1517.793
G1 Y161.18 E1518.036
G1 Y166.06 E1518.28
G1 X142.4 F9000
G1 Y161.18 E1518.524 F3600
G1 Y156.3 E1518.767
G1 Y151.41 E1519.011
G1 Y146.53 E1519.255
G1 Y141.65 E1519.498
G1 Y136.77 E1519.742
G1 Y131.88 E1519.985
G1 Y127 E1520.229
G1 Y122.12 E1520.473
G1 Y117.24 E1520.716
G1 Y112.35 E1520.96
G1 Y107.47 E1521.204
G1 Y102.59 E1521.447
G1 Y97.71 E1521.691
G1 Y92.82 E1521.934
G1 Y87.94 E1522.178
G1 X142.8 F9000
G1 Y92.82 E1522.422 F3600
G1 Y97.71 E1522.665
G1 Y102.59 E1522.909
G1 Y107.47 E1523.152
G1 Y112.35 E1523.396
G1 Y117.24 E1523.639
G1 Y122.12 E1523.883
G1 Y127 E1524.127
G1 Y131.88 E1524.37
G1 Y136.77 E1524.614
G1 Y141.65 E1524.857
G1 Y146.53 E1525.101
G1 Y151.41 E1525.344
G1 Y156.3 E1525.588
G1 Y161.18 E1525.831
G1 Y166.06 E1526.075
G1 X143.2 F9000
G1 Y161.18 E1526.319 F3600
G1 Y156.3 E1526.562
G1 Y151.41 E1526.806
G1 Y146.53 E1527.05
G1 Y141.65 E1527.293
G1 Y136.77 E1527.537
G1 Y131.88 E1527.78
G1 Y127 E1528.024
G1 Y122.12 E1528.268
G1 Y117.24 E1528.511
G1 Y112.35 E1528.755
G1 Y107.47 E1528.999
G1 Y102.59 E1529.242
G1 Y97.71 E1529.486
G1 Y92.82 E1529.729
G1 Y87.94 E1529.973
G1 X143.6 F9000
G1 Y92.82 E1530.217 F3600
G1 Y97.71 E1530.46
G1 Y102.59 E1530.704
G1 Y107.47 E1530.947
G1 Y112.35 E1531.191
G1 Y117.24 E1531.434
G1 Y122.12 E1531.678
G1 Y127 E1531.922
G1 Y131.88 E1532.165
G1 Y136.77 E1532.409
G1 Y141.65 E1532.652
G1 Y146.53 E1532.896
G1 Y151.41 E1533.139
G1 Y156.3 E1533.383
G1 Y161.18 E1533.626
G1 Y166.06 E1533.87
G1 X144 F9000
G1 Y161.18 E1534.114 F3600
G1 Y156.3 E1534.357
G1 Y151.41 E1534.601
G1 Y146.53 E1534.844
G1 Y141.65 E1535.088
G1 Y136.77 E1535.331
G1 Y131.88 E1535.575
G1 Y127 E1535.819
G1 Y122.12 E1536.062
G1 Y117.24 E1536.306
G1 Y112.35 E1536.549
G1 Y107.47 E1536.793
G1 Y102.59 E1537.036
G1 Y97.71 E1537.28
G1 Y92.82 E1537.523
G1 Y87.94 E1537.767
G1 X144.4 F9000
G1 Y92.82 E1538.011 F3600
G1 Y97.71 E1538.254
G1 Y102.59 E1538.498
G1 Y107.47 E1538.742
G1 Y112.35 E1538.985
G1 Y117.24 E1539.229
G1 Y122.12 E1539.472
G1 Y127 E1539.716
G1 Y131.88 E1539.96
G1 Y136.77 E1540.203
G1 Y141.65 E1540.447
G1 Y146.53 E1540.691
G1 Y151.41 E1540.934
G1 Y156.3 E1541.178
G1 Y161.18 E1541.421
G1 Y166.06 E1541.665
G1 X144.8 F9000
G1 Y161.18 E1541.909 F3600
G1 Y156.3 E1542.152
G1 Y151.41 E1542.396
G1 Y146.53 E1542.639
G1 Y141.65 E1542.883
G1 Y136.77 E1543.126
G1 Y131.88 E1543.37
G1 Y127 E1543.614
G1 Y122.12 E1543.857
G1 Y117.24 E1544.101
G1 Y112.35 E1544.344
G1 Y107.47 E1544.588
G1 Y102.59 E1544.831
G1 Y97.71 E1545.075
G1 Y92.82 E1545.318
G1 Y87.94 E1545.562
G1 X145.2 F9000
G1 Y92.82 E1545.806 F3600
G1 Y97.71 E1546.049
G1 Y102.59 E1546.293
G1 Y107.47 E1546.537
G1 Y112.35 E1546.78
G1 Y117.24 E1547.024
G1 Y122.12 E1547.267
G1 Y127 E1547.511
G1 Y131.88 E1547.755
G1 Y136.77 E1547.998
G1 Y141.65 E1548.242
G1 Y146.53 E1548.486
G1 Y151.41 E1548.729
G1 Y156.3 E1548.973
G1 Y161.18 E1549.216
G1 Y166.06 E1549.46
G1 X145.6 F9000
G1 Y161.18 E1549.704 F3600
G1 Y156.3 E1549.947
G1 Y151.41 E1550.191
G1 Y146.53 E1550.434
G1 Y141.65 E1550.678
G1 Y136.77 E1550.921
G1 Y131.88 E1551.165
G1 Y127 E1551.409
G1 Y122.12 E1551.652
G1 Y117.24 E1551.896
G1 Y112.35 E1552.139
G1 Y107.47 E1552.383
G1 Y102.59 E1552.626
G1 Y97.71 E1552.87
G1 Y92.82 E1553.113
G1 Y87.94 E1553.357
G1 X146 F9000
G1 Y92.82 E1553.601 F3600
G1 Y97.71 E1553.844
G1 Y102.59 E1554.088
G1 Y107.47 E1554.332
G1 Y112.35 E1554.575
G1 Y117.24 E1554.819
G1 Y122.12 E1555.062
G1 Y127 E1555.306
G1 Y131.88 E1555.55
G1 Y136.77 E1555.793
G1 Y141.65 E1556.037
G1 Y146.53 E1556.281
G1 Y151.41 E1556.524
G1 Y156.3 E1556.768
G1 Y161.18 E1557.011
G1 Y166.06 E1557.255
G1 X146.4 F9000
G1 Y161.18 E1557.499 F3600
G1 Y156.3 E1557.742
G1 Y151.41 E1557.986
G1 Y146.53 E1558.229
G1 Y141.65 E1558.473
G1 Y136.77 E1558.716
G1 Y131.88 E1558.96
G1 Y127 E1559.204
G1 Y122.12 E1559.447
G1 Y117.24 E1559.691
G1 Y112.35 E1559.934
G1 Y107.47 E1560.178
G1 Y102.59 E1560.421
G1 Y97.71 E1560.665
G1 Y92.82 E1560.908
G1 Y87.94 E1561.152
G1 X146.8 F9000
G1 Y92.82 E1561.396 F3600
G1 Y97.71 E1561.639
G1 Y102.59 E1561.883
G1 Y107.47 E1562.126
G1 Y112.35 E1562.37
G1 Y117.24 E1562.613
G1 Y122.12 E1562.857
G1 Y127 E1563.101
G1 Y131.88 E1563.344
G1 Y136.77 E1563.588
G1 Y141.65 E1563.831
G1 Y146.53 E1564.075
G1 Y151.41 E1564.318
G1 Y156.3 E1564.562
G1 Y161.18 E1564.805
G1 Y166.06 E1565.049
G1 X147.2 F9000
G1 Y161.18 E1565.293 F3600
G1 Y156.3 E1565.536
G1 Y151.41 E1565.78
G1 Y146.53 E1566.024
G1 Y141.65 E1566.267
G1 Y136.77 E1566.511
G1 Y131.88 E1566.754
G1 Y127 E1566.998
G1 Y122.12 E1567.242
G1 Y117.24 E1567.485
G1 Y112.35 E1567.729
G1 Y107.47 E1567.973
G1 Y102.59 E1568.216
G1 Y97.71 E1568.46
G1 Y92.82 E1568.703
G1 Y87.94 E1568.947
G1 X147.6 F9000
G1 Y92.82 E1569.191 F3600
G1 Y97.71 E1569.434
G1 Y102.59 E1569.678
G1 Y107.47 E1569.921
G1 Y112.35 E1570.165
G1 Y117.24 E1570.408
G1 Y122.12 E1570.652
G1 Y127 E1570.896
G1 Y131.88 E1571.139
G1 Y136.77 E1571.383
G1 Y141.65 E1571.626
G1 Y146.53 E1571.87
G1 Y151.41 E1572.113
G1 Y156.3 E1572.357
G1 Y161.18 E1572.6
G1 Y166.06 E1572.844
G1 X148 F9000
G1 Y161.18 E1573.088 F3600
G1 Y156.3 E1573.331
G1 Y151.41 E1573.575
G1 Y146.53 E1573.819
G1 Y141.65 E1574.062
G1 Y136.77 E1574.306
G1 Y131.88 E1574.549
G1 Y127 E1574.793
G1 Y122.12 E1575.037
G1 Y117.24 E1575.28
G1 Y112.35 E1575.524
G1 Y107.47 E1575.768
G1 Y102.59 E1576.011
G1 Y97.71 E1576.255
G1 Y92.82 E1576.498
G1 Y87.94 E1576.742
G1 X148.4 F9000
G1 Y92.82 E1576.986 F3600
G1 Y97.71 E1577.229
G1 Y102.59 E1577.473
G1 Y107.47 E1577.716
G1 Y112.35 E1577.96
G1 Y117.24 E1578.203
G1 Y122.12 E1578.447
G1 Y127 E1578.691
G1 Y131.88 E1578.934
G1 Y136.77 E1579.178
G1 Y141.65 E1579.421
G1 Y146.53 E1579.665
G1 Y151.41 E1579.908
G1 Y156.3 E1580.152
G1 Y161.18 E1580.395
G1 Y166.06 E1580.639
G1 X148.8 F9000
G1 Y161.18 E1580.883 F3600
G1 Y156.3 E1581.126
G1 Y151.41 E1581.37
G1 Y146.53 E1581.613
G1 Y141.65 E1581.857
G1 Y136.77 E1582.1
G1 Y131.88 E1582.344
G1 Y127 E1582.588
G1 Y122.12 E1582.831
G1 Y117.24 E1583.075
G1 Y112.35 E1583.318
G1 Y107.47 E1583.562
G1 Y102.59 E1583.805
G1 Y97.71 E1584.049
G1 Y92.82 E1584.292
G1 Y87.94 E1584.536
G1 X149.2 F9000
G1 Y92.82 E1584.78 F3600
G1 Y97.71 E1585.023
G1 Y102.59 E1585.267
G1 Y107.47 E1585.511
G1 Y112.35 E1585.754
G1 Y117.24 E1585.998
G1 Y122.12 E1586.241
G1 Y127 E1586.485
G1 Y131.88 E1586.729
G1 Y136.77 E1586.972
G1 Y141.65 E1587.216
G1 Y146.53 E1587.46
G1 Y151.41 E1587.703
G1 Y156.3 E1587.947
G1 Y161.18 E1588.19
G1 Y166.06 E1588.434
G1 X149.6 F9000
G1 Y161.18 E1588.678 F3600
G1 Y156.3 E1588.921
G1 Y151.41 E1589.165
G1 Y146.53 E1589.408
G1 Y141.65 E1589.652
G1 Y136.77 E1589.895
G1 Y131.88 E1590.139
G1 Y127 E1590.383
G1 Y122.12 E1590.626
G1 Y117.24 E1590.87
G1 Y112.35 E1591.113
G1 Y107.47 E1591.357
G1 Y102.59 E1591.6
G1 Y97.71 E1591.844
G1 Y92.82 E1592.087
G1 Y87.94 E1592.331
G1 X150 F9000
G1 Y92.82 E1592.575 F3600
G1 Y97.71 E1592.818
G1 Y102.59 E1593.062
G1 Y107.47 E1593.306
G1 Y112.35 E1593.549
G1 Y117.24 E1593.793
G1 Y122.12 E1594.036
G1 Y127 E1594.28
G1 Y131.88 E1594.524
G1 Y136.77 E1594.767
G1 Y141.65 E1595.011
G1 Y146.53 E1595.255
G1 Y151.41 E1595.498
G1 Y156.3 E1595.742
G1 Y161.18 E1595.985
G1 Y166.06 E1596.229
G1 X150.4 F9000
G1 Y161.18 E1596.473 F3600
G1 Y156.3 E1596.716
G1 Y151.41 E1596.96
G1 Y146.53 E1597.203
G1 Y141.65 E1597.447
G1 Y136.77 E1597.69
G1 Y131.88 E1597.934
G1 Y127 E1598.178
G1 Y122.12 E1598.421
G1 Y117.24 E1598.665
G1 Y112.35 E1598.908
G1 Y107.47 E1599.152
G1 Y102.59 E1599.395
G1 Y97.71 E1599.639
G1 Y92.82 E1599.882
G1 Y87.94 E1600.126
G1 X150.8 F9000
G1 Y92.82 E1600.37 F3600
G1 Y97.71 E1600.613
G1 Y102.59 E1600.857
G1 Y107.47 E1601.101
G1 Y112.35 E1601.344
G1 Y117.24 E1601.588
G1 Y122.12 E1601.831
G1 Y127 E1602.075
G1 Y131.88 E1602.319
G1 Y136.77 E1602.562
G1 Y141.65 E1602.806
G1 Y146.53 E1603.05
G1 Y151.41 E1603.293
G1 Y156.3 E1603.537
G1 Y161.18 E1603.78
G1 Y166.06 E1604.024
G1 X151.2 F9000
G1 Y161.18 E1604.268 F3600
G1 Y156.3 E1604.511
G1 Y151.41 E1604.755
G1 Y146.53 E1604.998
G1 Y141.65 E1605.242
G1 Y136.77 E1605.485
G1 Y131.88 E1605.729
G1 Y127 E1605.973
G1 Y122.12 E1606.216
G1 Y117.24 E1606.46
G1 Y112.35 E1606.703
G1 Y107.47 E1606.947
G1 Y102.59 E1607.19
G1 Y97.71 E1607.434
G1 Y92.82 E1607.677
G1 Y87.94 E1607.921
G1 X151.6 F9000
G1 Y92.82 E1608.165 F3600
G1 Y97.71 E1608.408
G1 Y102.59 E1608.652
G1 Y107.47 E1608.895
G1 Y112.35 E1609.139
G1 Y117.24 E1609.382
G1 Y122.12 E1609.626
G1 Y127 E1609.87
G1 Y131.88 E1610.113
G1 Y136.77 E1610.357
G1 Y141.65 E1610.6
G1 Y146.53 E1610.844
G1 Y151.41 E1611.087
G1 Y156.3 E1611.331
G1 Y161.18 E1611.574
G1 Y166.06 E1611.818
G1 X152 F9000
G1 Y161.18 E1612.062 F3600
G1 Y156.3 E1612.305
G1 Y151.41 E1612.549
G1 Y146.53 E1612.793
G1 Y141.65 E1613.036
G1 Y136.77 E1613.28
G1 Y131.88 E1613.523
G1 Y127 E1613.767
G1 Y122.12 E1614.011
G1 Y117.24 E1614.254
G1 Y112.35 E1614.498
G1 Y107.47 E1614.742
G1 Y102.59 E1614.985
G1 Y97.71 E1615.229
G1 Y92.82 E1615.472
G1 Y87.94 E1615.716
G1 X152.4 F9000
G1 Y92.82 E1615.96 F3600
G1 Y97.71 E1616.203
G1 Y102.59 E1616.447
G1 Y107.47 E1616.69
G1 Y112.35 E1616.934
G1 Y117.24 E1617.177
G1 Y122.12 E1617.421
G1 Y127 E1617.665
G1 Y131.88 E1617.908
G1 Y136.77 E1618.152
G1 Y141.65 E1618.395
G1 Y146.53 E1618.639
G1 Y151.41 E1618.882
G1 Y156.3 E1619.126
G1 Y161.18 E1619.369
G1 Y166.06 E1619.613
G1 X152.8 F9000
G1 Y161.18 E1619.857 F3600
G1 Y156.3 E1620.1
G1 Y151.41 E1620.344
G1 Y146.53 E1620.588
G1 Y141.65 E1620.831
G1 Y136.77 E1621.075
G1 Y131.88 E1621.318
G1 Y127 E1621.562
G1 Y122.12 E1621.806
G1 Y117.24 E1622.049
G1 Y112.35 E1622.293
G1 Y107.47 E1622.537
G1 Y102.59 E1622.78
G1 Y97.71 E1623.024
G1 Y92.82 E1623.267
G1 Y87.94 E1623.511
; Layer Change GCode
; LAYER:2
; LAYER_HEIGHT:0.3
; TYPE:FILL
G1 X153.4 Y87.6 Z0.9 F9000
; TYPE:WALL-INNER
G1 Y92.53 E1623.757 F3600
G1 Y97.45 E1624.002
G1 Y102.38 E1624.248
G1 Y107.3 E1624.494
G1 Y112.23 E1624.739
G1 Y117.15 E1624.985
G1 Y122.08 E1625.231
G1 Y127 E1625.477
G1 Y131.93 E1625.722
G1 Y136.85 E1625.968
G1 Y141.78 E1626.214
G1 Y146.7 E1626.459
G1 Y151.63 E1626.705
G1 Y156.55 E1626.951
G1 Y161.48 E1627.196
G1 Y166.4 E1627.442
G1 X148.48 E1627.688
G1 X143.55 E1627.933
G1 X138.63 E1628.179
G1 X133.7 E1628.425
G1 X128.78 E1628.67
G1 X123.85 E1628.916
G1 X118.93 E1629.162
G1 X114 E1629.408
G1 X109.08 E1629.653
G1 X104.15 E1629.899
G1 X99.23 E1630.145
G1 X94.3 E1630.39
G1 X89.38 E1630.636
G1 X84.45 E1630.882
G1 X79.53 E1631.127
G1 X74.6 E1631.373
G1 Y161.48 E1631.619
G1 Y156.55 E1631.865
G1 Y151.63 E1632.11
G1 Y146.7 E1632.356
G1 Y141.78 E1632.602
G1 Y136.85 E1632.848
G1 Y131.93 E1633.093
G1 Y127 E1633.339
G1 Y122.08 E1633.585
G1 Y117.15 E1633.831
G1 Y112.23 E1634.076
G1 Y107.3 E1634.322
G1 Y102.38 E1634.568
G1 Y97.45 E1634.814
G1 Y92.52 E1635.059
G1 Y87.6 E1635.305
G1 X79.52 E1635.551
G1 X84.45 E1635.796
G1 X89.37 E1636.042
G1 X94.29 E1636.287
G1 X99.21 E1636.533
G1 X104.14 E1636.778
G1 X109.06 E1637.024
G1 X113.98 E1637.27
G1 X118.9 E1637.515
G1 X123.83 E1637.761
G1 X128.75 E1638.006
G1 X133.67 E1638.252
G1 X138.59 E1638.497
G1 X143.52 E1638.743
G1 X148.44 E1638.988
G1 X153.36 E1639.234
G1 X153.4
G1 X153.8 Y87.2 F9000
; TYPE:WALL-OUTER
G1 Y92.18 E1639.482 F600
G1 Y97.15 E1639.73
G1 Y102.13 E1639.979
G1 Y107.1 E1640.227
G1 Y112.08 E1640.475
G1 Y117.05 E1640.723
G1 Y122.03 E1640.971
G1 Y127 E1641.22
G1 Y131.98 E1641.468
G1 Y136.95 E1641.716
G1 Y141.93 E1641.964
G1 Y146.9 E1642.212
G1 Y151.88 E1642.46
G1 Y156.85 E1642.709
G1 Y161.83 E1642.957
G1 Y166.8 E1643.205
G1 X148.83 E1643.453
G1 X143.85 E1643.702
G1 X138.88 E1643.95
G1 X133.9 E1644.198
G1 X128.93 E1644.446
G1 X123.95 E1644.695
G1 X118.98 E1644.943
G1 X114 E1645.191
G1 X109.03 E1645.439
G1 X104.05 E1645.688
G1 X99.08 E1645.936
G1 X94.1 E1646.184
G1 X89.13 E1646.432
G1 X84.15 E1646.681
G1 X79.18 E1646.929
G1 X74.2 E1647.177
G1 Y161.83 E1647.425
G1 Y156.85 E1647.673
G1 Y151.88 E1647.922
G1 Y146.9 E1648.17
G1 Y141.93 E1648.418
G1 Y136.95 E1648.666
G1 Y131.98 E1648.914
G1 Y127 E1649.163
G1 Y122.03 E1649.411
G1 Y117.05 E1649.659
G1 Y112.08 E1649.907
G1 Y107.1 E1650.155
G1 Y102.13 E1650.403
G1 Y97.15 E1650.652
G1 Y92.18 E1650.9
G1 Y87.2 E1651.148
G1 X79.17 E1651.396
G1 X84.15 E1651.644
G1 X89.12 E1651.892
G1 X94.09 E1652.14
G1 X99.06 E1652.388
G1 X104.04 E1652.636
G1 X109.01 E1652.884
G1 X113.98 E1653.133
G1 X118.95 E1653.381
G1 X123.93 E1653.629
G1 X128.9 E1653.877
G1 X133.87 E1654.125
G1 X138.84 E1654.373
G1 X143.82 E1654.621
G1 X148.79 E1654.869
G1 X153.76 E1655.117
G1 X153.8
G1 Y90.2
G1 X153.4 Y87.6 F9000
G1 X153.06 Y88
; TYPE:FILL
G1 X148.18 E1655.361 F3600
G1 X143.3 E1655.604
G1 X138.41 E1655.848
G1 X133.53 E1656.092
G1 X128.65 E1656.335
G1 X123.77 E1656.579
G1 X118.88 E1656.822
G1 X114 E1657.066
G1 X109.12 E1657.31
G1 X104.24 E1657.553
G1 X99.35 E1657.797
G1 X94.47 E1658.041
G1 X89.59 E1658.284
G1 X84.71 E1658.528
G1 X79.82 E1658.771
G1 X74.94 E1659.015
G1 Y88.4 F9000
G1 X79.82 E1659.259 F3600
G1 X84.71 E1659.502
G1 X89.59 E1659.746
G1 X94.47 E1659.989
G1 X99.35 E1660.233
G1 X104.24 E1660.476
G1 X109.12 E1660.72
G1 X114 E1660.964
G1 X118.88 E1661.207
G1 X123.77 E1661.451
G1 X128.65 E1661.694
G1 X133.53 E1661.938
G1 X138.41 E1662.181
G1 X143.3 E1662.425
G1 X148.18 E1662.668
G1 X153.06 E1662.912
G1 Y88.8 F9000
G1 X148.18 E1663.156 F3600
G1 X143.3 E1663.399
G1 X138.41 E1663.643
G1 X133.53 E1663.887
G1 X128.65 E1664.13
G1 X123.77 E1664.374
G1 X118.88 E1664.617
G1 X114 E1664.861
G1 X109.12 E1665.105
G1 X104.24 E1665.348
G1 X99.35 E1665.592
G1 X94.47 E1665.836
G1 X89.59 E1666.079
G1 X84.71 E1666.323
G1 X79.82 E1666.566
G1 X74.94 E1666.81
G1 Y89.2 F9000
G1 X79.82 E1667.054 F3600
G1 X84.71 E1667.297
G1 X89.59 E1667.541
G1 X94.47 E1667.784
G1 X99.35 E1668.028
G1 X104.24 E1668.271
G1 X109.12 E1668.515
G1 X114 E1668.759
G1 X118.88 E1669.002
G1 X123.77 E1669.246
G1 X128.65 E1669.489
G1 X133.53 E1669.733
G1 X138.41 E1669.976
G1 X143.3 E1670.22
G1 X148.18 E1670.463
G1 X153.06 E1670.707
G1 Y89.6 F9000
G1 X148.18 E1670.951 F3600
G1 X143.3 E1671.194
G1 X138.41 E1671.438
G1 X133.53 E1671.681
G1 X128.65 E1671.925
G1 X123.77 E1672.168
G1 X118.88 E1672.412
G1 X114 E1672.656
G1 X109.12 E1672.899
G1 X104.24 E1673.143
G1 X99.35 E1673.386
G1 X94.47 E1673.63
G1 X89.59 E1673.873
G1 X84.71 E1674.117
G1 X79.82 E1674.36
G1 X74.94 E1674.604
G1 Y90 F9000
G1 X79.82 E1674.848 F3600
G1 X84.71 E1675.091
G1 X89.59 E1675.335
G1 X94.47 E1675.579
G1 X99.35 E1675.822
G1 X104.24 E1676.066
G1 X109.12 E1676.309
G1 X114 E1676.553
G1 X118.88 E1676.797
G1 X123.77 E1677.04
G1 X128.65 E1677.284
G1 X133.53 E1677.528
G1 X138.41 E1677.771
G1 X143.3 E1678.015
G1 X148.18 E1678.258
G1 X153.06 E1678.502
G1 Y90.4 F9000
G1 X148.18 E1678.746 F3600
G1 X143.3 E1678.989
G1 X138.41 E1679.233
G1 X133.53 E1679.476
G1 X128.65 E1679.72
G1 X123.77 E1679.963
G1 X118.88 E1680.207
G1 X114 E1680.451
G1 X109.12 E1680.694
G1 X104.24 E1680.938
G1 X99.35 E1681.181
G1 X94.47 E1681.425
G1 X89.59 E1681.668
G1 X84.71 E1681.912
G1 X79.82 E1682.155
G1 X74.94 E1682.399
G1 Y90.8 F9000
G1 X79.82 E1682.643 F3600
G1 X84.71 E1682.886
G1 X89.59 E1683.13
G1 X94.47 E1683.374
G1 X99.35 E1683.617
G1 X104.24 E1683.861
G1 X109.12 E1684.104
G1 X114 E1684.348
G1 X118.88 E1684.592
G1 X123.77 E1684.835
G1 X128.65 E1685.079
G1 X133.53 E1685.323
G1 X138.41 E1685.566
G1 X143.3 E1685.81
G1 X148.18 E1686.053
G1 X153.06 E1686.297
G1 Y91.2 F9000
G1 X148.18 E1686.541 F3600
G1 X143.3 E1686.784
G1 X138.41 E1687.028
G1 X133.53 E1687.271
G1 X128.65 E1687.515
G1 X123.77 E1687.758
G1 X118.88 E1688.002
G1 X114 E1688.246
G1 X109.12 E1688.489
G1 X104.24 E1688.733
G1 X99.35 E1688.976
G1 X94.47 E1689.22
G1 X89.59 E1689.463
G1 X84.71 E1689.707
G1 X79.82 E1689.95
G1 X74.94 E1690.194
G1 Y91.6 F9000
G1 X79.82 E1690.438 F3600
G1 X84.71 E1690.681
G1 X89.59 E1690.925
G1 X94.47 E1691.168
G1 X99.35 E1691.412
G1 X104.24 E1691.655
G1 X109.12 E1691.899
G1 X114 E1692.143
G1 X118.88 E1692.386
G1 X123.77 E1692.63
G1 X128.65 E1692.873
G1 X133.53 E1693.117
G1 X138.41 E1693.36
G1 X143.3 E1693.604
G1 X148.18 E1693.847
G1 X153.06 E1694.091
G1 Y92 F9000
G1 X148.18 E1694.335 F3600
G1 X143.3 E1694.578
G1 X138.41 E1694.822
G1 X133.53 E1695.066
G1 X128.65 E1695.309
G1 X123.77 E1695.553
G1 X118.88 E1695.796
G1 X114 E1696.04
G1 X109.12 E1696.284
G1 X104.24 E1696.527
G1 X99.35 E1696.771
G1 X94.47 E1697.015
G1 X89.59 E1697.258
G1 X84.71 E1697.502
G1 X79.82 E1697.745
G1 X74.94 E1697.989
G1 Y92.4 F9000
G1 X79.82 E1698.233 F3600
G1 X84.71 E1698.476
G1 X89.59 E1698.72
G1 X94.47 E1698.963
G1 X99.35 E1699.207
G1 X104.24 E1699.45
G1 X109.12 E1699.694
G1 X114 E1699.938
G1 X118.88 E1700.181
G1 X123.77 E1700.425
G1 X128.65 E1700.668
G1 X133.53 E1700.912
G1 X138.41 E1701.155
G1 X143.3 E1701.399
G1 X148.18 E1701.642
G1 X153.06 E1701.886
G1 Y92.8 F9000
G1 X148.18 E1702.13 F3600
G1 X143.3 E1702.373
G1 X138.41 E1702.617
G1 X133.53 E1702.861
G1 X128.65 E1703.104
G1 X123.77 E1703.348
G1 X118.88 E1703.591
G1 X114 E1703.835
G1 X109.12 E1704.079
G1 X104.24 E1704.322
G1 X99.35 E1704.566
G1 X94.47 E1704.81
G1 X89.59 E1705.053
G1 X84.71 E1705.297
G1 X79.82 E1705.54
G1 X74.94 E1705.784
G1 Y93.2 F9000
G1 X79.82 E1706.028 F3600
G1 X84.71 E1706.271
G1 X89.59 E1706.515
G1 X94.47 E1706.758
G1 X99.35 E1707.002
G1 X104.24 E1707.245
G1 X109.12 E1707.489
G1 X114 E1707.733
G1 X118.88 E1707.976
G1 X123.77 E1708.22
G1 X128.65 E1708.463
G1 X133.53 E1708.707
G1 X138.41 E1708.95
G1 X143.3 E1709.194
G1 X148.18 E1709.437
G1 X153.06 E1709.681
G1 Y93.6 F9000
G1 X148.18 E1709.925 F3600
G1 X143.3 E1710.168
G1 X138.41 E1710.412
G1 X133.53 E1710.656
G1 X128.65 E1710.899
G1 X123.77 E1711.143
G1 X118.88 E1711.386
G1 X114 E1711.63
G1 X109.12 E1711.874
G1 X104.24 E1712.117
G1 X99.35 E1712.361
G1 X94.47 E1712.605
G1 X89.59 E1712.848
G1 X84.71 E1713.092
G1 X79.82 E1713.335
G1 X74.94 E1713.579
G1 Y94 F9000
G1 X79.82 E1713.823 F3600
G1 X84.71 E1714.066
G1 X89.59 E1714.31
G1 X94.47 E1714.553
G1 X99.35 E1714.797
G1 X104.24 E1715.04
G1 X109.12 E1715.284
G1 X114 E1715.528
G1 X118.88 E1715.771
G1 X123.77 E1716.015
G1 X128.65 E1716.258
G1 X133.53 E1716.502
G1 X138.41 E1716.745
G1 X143.3 E1716.989
G1 X148.18 E1717.232
G1 X153.06 E1717.476
G1 Y94.4 F9000
G1 X148.18 E1717.72 F3600
G1 X143.3 E1717.963
G1 X138.41 E1718.207
G1 X133.53 E1718.45
G1 X128.65 E1718.694
G1 X123.77 E1718.937
G1 X118.88 E1719.181
G1 X114 E1719.425
G1 X109.12 E1719.668
G1 X104.24 E1719.912
G1 X99.35 E1720.155
G1 X94.47 E1720.399
G1 X89.59 E1720.642
G1 X84.71 E1720.886
G1 X79.82 E1721.129
G1 X74.94 E1721.373
G1 Y94.8 F9000
G1 X79.82 E1721.617 F3600
G1 X84.71 E1721.86
G1 X89.59 E1722.104
G1 X94.47 E1722.348
G1 X99.35 E1722.591
G1 X104.24 E1722.835
G1 X109.12 E1723.078
G1 X114 E1723.322
G1 X118.88 E1723.566
G1 X123.77 E1723.809
G1 X128.65 E1724.053
G1 X133.53 E1724.297
G1 X138.41 E1724.54
G1 X143.3 E1724.784
G1 X148.18 E1725.027
G1 X153.06 E1725.271
G1 Y95.2 F9000
G1 X148.18 E1725.515 F3600
G1 X143.3 E1725.758
G1 X138.41 E1726.002
G1 X133.53 E1726.245
G1 X128.65 E1726.489
G1 X123.77 E1726.732
G1 X118.88 E1726.976
G1 X114 E1727.22
G1 X109.12 E1727.463
G1 X104.24 E1727.707
G1 X99.35 E1727.95
G1 X94.47 E1728.194
G1 X89.59 E1728.437
G1 X84.71 E1728.681
G1 X79.82 E1728.924
G1 X74.94 E1729.168
G1 Y95.6 F9000
G1 X79.82 E1729.412 F3600
G1 X84.71 E1729.655
G1 X89.59 E1729.899
G1 X94.47 E1730.143
G1 X99.35 E1730.386
G1 X104.24 E1730.63
G1 X109.12 E1730.873
G1 X114 E1731.117
G1 X118.88 E1731.361
G1 X123.77 E1731.604
G1 X128.65 E1731.848
G1 X133.53 E1732.092
G1 X138.41 E1732.335
G1 X143.3 E1732.579
G1 X148.18 E1732.822
G1 X153.06 E1733.066
G1 Y96 F9000
G1 X148.18 E1733.31 F3600
G1 X143.3 E1733.553
G1 X138.41 E1733.797
G1 X133.53 E1734.04
G1 X128.65 E1734.284
G1 X123.77 E1734.527
G1 X118.88 E1734.771
G1 X114 E1735.015
G1 X109.12 E1735.258
G1 X104.24 E1735.502
G1 X99.35 E1735.745
G1 X94.47 E1735.989
G1 X89.59 E1736.232
G1 X84.71 E1736.476
G1 X79.82 E1736.719
G1 X74.94 E1736.963
G1 Y96.4 F9000
G1 X79.82 E1737.207 F3600
G1 X84.71 E1737.45
G1 X89.59 E1737.694
G1 X94.47 E1737.938
G1 X99.35 E1738.181
G1 X104.24 E1738.425
G1 X109.12 E1738.668
G1 X114 E1738.912
G1 X118.88 E1739.156
G1 X123.77 E1739.399
G1 X128.65 E1739.643
G1 X133.53 E1739.887
G1 X138.41 E1740.13
G1 X143.3 E1740.374
G1 X148.18 E1740.617
G1 X153.06 E1740.861
G1 Y96.8 F9000
G1 X148.18 E1741.105 F3600
G1 X143.3 E1741.348
G1 X138.41 E1741.592
G1 X133.53 E1741.835
G1 X128.65 E1742.079
G1 X123.77 E1742.322
G1 X118.88 E1742.566
G1 X114 E1742.81
G1 X109.12 E1743.053
G1 X104.24 E1743.297
G1 X99.35 E1743.54
G1 X94.47 E1743.784
G1 X89.59 E1744.027
G1 X84.71 E1744.271
G1 X79.82 E1744.514
G1 X74.94 E1744.758
G1 Y97.2 F9000
G1 X79.82 E1745.002 F3600
G1 X84.71 E1745.245
G1 X89.59 E1745.489
G1 X94.47 E1745.732
G1 X99.35 E1745.976
G1 X104.24 E1746.219
G1 X109.12 E1746.463
G1 X114 E1746.707
G1 X118.88 E1746.95
G1 X123.77 E1747.194
G1 X128.65 E1747.437
G1 X133.53 E1747.681
G1 X138.41 E1747.924
G1 X143.3 E1748.168
G1 X148.18 E1748.411
G1 X153.06 E1748.655
G1 Y97.6 F9000
G1 X148.18 E1748.899 F3600
G1 X143.3 E1749.142
G1 X138.41 E1749.386
G1 X133.53 E1749.63
G1 X128.65 E1749.873
G1 X123.77 E1750.117
G1 X118.88 E1750.36
G1 X114 E1750.604
G1 X109.12 E1750.848
G1 X104.24 E1751.091
G1 X99.35 E1751.335
G1 X94.47 E1751.579
G1 X89.59 E1751.822
G1 X84.71 E1752.066
G1 X79.82 E1752.309
G1 X74.94 E1752.553
G1 Y98 F9000
G1 X79.82 E1752.797 F3600
G1 X84.71 E1753.04
G1 X89.59 E1753.284
G1 X94.47 E1753.527
G1 X99.35 E1753.771
G1 X104.24 E1754.014
G1 X109.12 E1754.258
G1 X114 E1754.502
G1 X118.88 E1754.745
G1 X123.77 E1754.989
G1 X128.65 E1755.232
G1 X133.53 E1755.476
G1 X138.41 E1755.719
G1 X143.3 E1755.963
G1 X148.18 E1756.206
G1 X153.06 E1756.45
G1 Y98.4 F9000
G1 X148.18 E1756.694 F3600
G1 X143.3 E1756.937
G1 X138.41 E1757.181
G1 X133.53 E1757.425
G1 X128.65 E1757.668
G1 X123.77 E1757.912
G1 X118.88 E1758.155
G1 X114 E1758.399
G1 X109.12 E1758.643
G1 X104.24 E1758.886
G1 X99.35 E1759.13
G1 X94.47 E1759.374
G1 X89.59 E1759.617
G1 X84.71 E1759.861
G1 X79.82 E1760.104
G1 X74.94 E1760.348
G1 Y98.8 F9000
G1 X79.82 E1760.592 F3600
G1 X84.71 E1760.835
G1 X89.59 E1761.079
G1 X94.47 E1761.322
G1 X99.35 E1761.566
G1 X104.24 E1761.809
G1 X109.12 E1762.053
G1 X114 E1762.297
G1 X118.88 E1762.54
G1 X123.77 E1762.784
G1 X128.65 E1763.027
G1 X133.53 E1763.271
G1 X138.41 E1763.514
G1 X143.3 E1763.758
G1 X148.18 E1764.001
G1 X153.06 E1764.245
G1 Y99.2 F9000
G1 X148.18 E1764.489 F3600
G1 X143.3 E1764.732
G1 X138.41 E1764.976
G1 X133.53 E1765.22
G1 X128.65 E1765.463
G1 X123.77 E1765.707
G1 X118.88 E1765.95
G1 X114 E1766.194
G1 X109.12 E1766.438
G1 X104.24 E1766.681
G1 X99.35 E1766.925
G1 X94.47 E1767.169
G1 X89.59 E1767.412
G1 X84.71 E1767.656
G1 X79.82 E1767.899
G1 X74.94 E1768.143
G1 Y99.6 F9000
G1 X79.82 E1768.387 F3600
G1 X84.71 E1768.63
G1 X89.59 E1768.874
G1 X94.47 E1769.117
G1 X99.35 E1769.361
G1 X104.24 E1769.604
G1 X109.12 E1769.848
G1 X114 E1770.092
G1 X118.88 E1770.335
G1 X123.77 E1770.579
G1 X128.65 E1770.822
G1 X133.53 E1771.066
G1 X138.41 E1771.309
G1 X143.3 E1771.553
G1 X148.18 E1771.796
G1 X153.06 E1772.04
G1 Y100 F9000
G1 X148.18 E1772.284 F3600
G1 X143.3 E1772.527
G1 X138.41 E1772.771
G1 X133.53 E1773.014
G1 X128.65 E1773.258
G1 X123.77 E1773.501
G1 X118.88 E1773.745
G1 X114 E1773.989
G1 X109.12 E1774.232
G1 X104.24 E1774.476
G1 X99.35 E1774.719
G1 X94.47 E1774.963
G1 X89.59 E1775.206
G1 X84.71 E1775.45
G1 X79.82 E1775.693
G1 X74.94 E1775.937
G1 Y100.4 F9000
G1 X79.82 E1776.181 F3600
G1 X84.71 E1776.424
G1 X89.59 E1776.668
G1 X94.47 E1776.912
G1 X99.35 E1777.155
G1 X104.24 E1777.399
G1 X109.12 E1777.642
G1 X114 E1777.886
G1 X118.88 E1778.13
G1 X123.77 E1778.373
G1 X128.65 E1778.617
G1 X133.53 E1778.861
G1 X138.41 E1779.104
G1 X143.3 E1779.348
G1 X148.18 E1779.591
G1 X153.06 E1779.835
G1 Y100.8 F9000
G1 X148.18 E1780.079 F3600
G1 X143.3 E1780.322
G1 X138.41 E1780.566
G1 X133.53 E1780.809
G1 X128.65 E1781.053
G1 X123.77 E1781.296
G1 X118.88 E1781.54
G1 X114 E1781.784
G1 X109.12 E1782.027
G1 X104.24 E1782.271
G1 X99.35 E1782.514
G1 X94.47 E1782.758
G1 X89.59 E1783.001
G1 X84.71 E1783.245
G1 X79.82 E1783.488
G1 X74.94 E1783.732
G1 Y101.2 F9000
G1 X79.82 E1783.976 F3600
G1 X84.71 E1784.219
G1 X89.59 E1784.463
G1 X94.47 E1784.707
G1 X99.35 E1784.95
G1 X104.24 E1785.194
G1 X109.12 E1785.437
G1 X114 E1785.681
G1 X118.88 E1785.925
G1 X123.77 E1786.168
G1 X128.65 E1786.412
G1 X133.53 E1786.656
G1 X138.41 E1786.899
G1 X143.3 E1787.143
G1 X148.18 E1787.386
G1 X153.06 E1787.63
G1 Y101.6 F9000
G1 X148.18 E1787.874 F3600
G1 X143.3 E1788.117
G1 X138.41 E1788.361
G1 X133.53 E1788.604
G1 X128.65 E1788.848
G1 X123.77 E1789.091
G1 X118.88 E1789.335
G1 X114 E1789.579
G1 X109.12 E1789.822
G1 X104.24 E1790.066
G1 X99.35 E1790.309
G1 X94.47 E1790.553
G1 X89.59 E1790.796
G1 X84.71 E1791.04
G1 X79.82 E1791.283
G1 X74.94 E1791.527
G1 Y102 F9000
G1 X79.82 E1791.771 F3600
G1 X84.71 E1792.014
G1 X89.59 E1792.258
G1 X94.47 E1792.501
G1 X99.35 E1792.745
G1 X104.24 E1792.988
G1 X109.12 E1793.232
G1 X114 E1793.476
G1 X118.88 E1793.719
G1 X123.77 E1793.963
G1 X128.65 E1794.206
G1 X133.53 E1794.45
G1 X138.41 E1794.693
G1 X143.3 E1794.937
G1 X148.18 E1795.18
G1 X153.06 E1795.424
G1 Y102.4 F9000
G1 X148.18 E1795.668 F3600
G1 X143.3 E1795.911
G1 X138.41 E1796.155
G1 X133.53 E1796.399
G1 X128.65 E1796.642
G1 X123.77 E1796.886
G1 X118.88 E1797.129
G1 X114 E1797.373
G1 X109.12 E1797.617
G1 X104.24 E1797.86
G1 X99.35 E1798.104
G1 X94.47 E1798.348
G1 X89.59 E1798.591
G1 X84.71 E1798.835
G1 X79.82 E1799.078
G1 X74.94 E1799.322
G1 Y102.8 F9000
G1 X79.82 E1799.566 F3600
G1 X84.71 E1799.809
G1 X89.59 E1800.053
G1 X94.47 E1800.296
G1 X99.35 E1800.54
G1 X104.24 E1800.783
G1 X109.12 E1801.027
G1 X114 E1801.271
G1 X118.88 E1801.514
G1 X123.77 E1801.758
G1 X128.65 E1802.001
G1 X133.53 E1802.245
G1 X138.41 E1802.488
G1 X143.3 E1802.732
G1 X148.18 E1802.975
G1 X153.06 E1803.219
G1 Y103.2 F9000
G1 X148.18 E1803.463 F3600
G1 X143.3 E1803.706
G1 X138.41 E1803.95
G1 X133.53 E1804.194
G1 X128.65 E1804.437
G1 X123.77 E1804.681
G1 X118.88 E1804.924
G1 X114 E1805.168
G1 X109.12 E1805.412
G1 X104.24 E1805.655
G1 X99.35 E1805.899
G1 X94.47 E1806.143
G1 X89.59 E1806.386
G1 X84.71 E1806.63
G1 X79.82 E1806.873
G1 X74.94 E1807.117
G1 Y103.6 F9000
G1 X79.82 E1807.361 F3600
G1 X84.71 E1807.604
G1 X89.59 E1807.848
G1 X94.47 E1808.091
G1 X99.35 E1808.335
G1 X104.24 E1808.578
G1 X109.12 E1808.822
G1 X114 E1809.066
G1 X118.88 E1809.309
G1 X123.77 E1809.553
G1 X128.65 E1809.796
G1 X133.53 E1810.04
G1 X138.41 E1810.283
G1 X143.3 E1810.527
G1 X148.18 E1810.77
G1 X153.06 E1811.014
G1 Y104 F9000
G1 X148.18 E1811.258 F3600
G1 X143.3 E1811.501
G1 X138.41 E1811.745
G1 X133.53 E1811.989
G1 X128.65 E1812.232
G1 X123.77 E1812.476
G1 X118.88 E1812.719
G1 X114 E1812.963
G1 X109.12 E1813.207
G1 X104.24 E1813.45
G1 X99.35 E1813.694
G1 X94.47 E1813.938
G1 X89.59 E1814.181
G1 X84.71 E1814.425
G1 X79.82 E1814.668
G1 X74.94 E1814.912
G1 Y104.4 F9000
G1 X79.82 E1815.156 F3600
G1 X84.71 E1815.399
G1 X89.59 E1815.643
G1 X94.47 E1815.886
G1 X99.35 E1816.13
G1 X104.24 E1816.373
G1 X109.12 E1816.617
G1 X114 E1816.861
G1 X118.88 E1817.104
G1 X123.77 E1817.348
G1 X128.65 E1817.591
G1 X133.53 E1817.835
G1 X138.41 E1818.078
G1 X143.3 E1818.322
G1 X148.18 E1818.565
G1 X153.06 E1818.809
G1 Y104.8 F9000
G1 X148.18 E1819.053 F3600
G1 X143.3 E1819.296
G1 X138.41 E1819.54
G1 X133.53 E1819.783
G1 X128.65 E1820.027
G1 X123.77 E1820.27
G1 X118.88 E1820.514
G1 X114 E1820.758
G1 X109.12 E1821.001
G1 X104.24 E1821.245
G1 X99.35 E1821.488
G1 X94.47 E1821.732
G1 X89.59 E1821.975
G1 X84.71 E1822.219
G1 X79.82 E1822.462
G1 X74.94 E1822.706
G1 Y105.2 F9000
G1 X79.82 E1822.95 F3600
G1 X84.71 E1823.193
G1 X89.59 E1823.437
G1 X94.47 E1823.681
G1 X99.35 E1823.924
G1 X104.24 E1824.168
G1 X109.12 E1824.411
G1 X114 E1824.655
G1 X118.88 E1824.899
G1 X123.77 E1825.142
G1 X128.65 E1825.386
G1 X133.53 E1825.63
G1 X138.41 E1825.873
G1 X143.3 E1826.117
G1 X148.18 E1826.36
G1 X153.06 E1826.604
G1 Y105.6 F9000
G1 X148.18 E1826.848 F3600
G1 X143.3 E1827.091
G1 X138.41 E1827.335
G1 X133.53 E1827.578
G1 X128.65 E1827.822
G1 X123.77 E1828.065
G1 X118.88 E1828.309
G1 X114 E1828.553
G1 X109.12 E1828.796
G1 X104.24 E1829.04
G1 X99.35 E1829.283
G1 X94.47 E1829.527
G1 X89.59 E1829.77
G1 X84.71 E1830.014
G1 X79.82 E1830.257
G1 X74.94 E1830.501
G1 Y106 F9000
G1 X79.82 E1830.745 F3600
G1 X84.71 E1830.988
G1 X89.59 E1831.232
G1 X94.47 E1831.476
G1 X99.35 E1831.719
G1 X104.24 E1831.963
G1 X109.12 E1832.206
G1 X114 E1832.45
G1 X118.88 E1832.694
G1 X123.77 E1832.937
G1 X128.65 E1833.181
G1 X133.53 E1833.425
G1 X138.41 E1833.668
G1 X143.3 E1833.912
G1 X148.18 E1834.155
G1 X153.06 E1834.399
G1 Y106.4 F9000
G1 X148.18 E1834.643 F3600
G1 X143.3 E1834.886
G1 X138.41 E1835.13
G1 X133.53 E1835.373
G1 X128.65 E1835.617
G1 X123.77 E1835.86
G1 X118.88 E1836.104
G1 X114 E1836.348
G1 X109.12 E1836.591
G1 X104.24 E1836.835
G1 X99.35 E1837.078
G1 X94.47 E1837.322
G1 X89.59 E1837.565
G1 X84.71 E1837.809
G1 X79.82 E1838.052
G1 X74.94 E1838.296
G1 Y106.8 F9000
G1 X79.82 E1838.54 F3600
G1 X84.71 E1838.783
G1 X89.59 E1839.027
G1 X94.47 E1839.271
G1 X99.35 E1839.514
G1 X104.24 E1839.758
G1 X109.12 E1840.001
G1 X114 E1840.245
G1 X118.88 E1840.489
G1 X123.77 E1840.732
G1 X128.65 E1840.976
G1 X133.53 E1841.22
G1 X138.41 E1841.463
G1 X143.3 E1841.707
G1 X148.18 E1841.95
G1 X153.06 E1842.194
G1 Y107.2 F9000
G1 X148.18 E1842.438 F3600
G1 X143.3 E1842.681
G1 X138.41 E1842.925
G1 X133.53 E1843.168
G1 X128.65 E1843.412
G1 X123.77 E1843.655
G1 X118.88 E1843.899
G1 X114 E1844.143
G1 X109.12 E1844.386
G1 X104.24 E1844.63
G1 X99.35 E1844.873
G1 X94.47 E1845.117
G1 X89.59 E1845.36
G1 X84.71 E1845.604
G1 X79.82 E1845.847
G1 X74.94 E1846.091
G1 Y107.6 F9000
G1 X79.82 E1846.335 F3600
