; generated by Slic3r 1.3.0 on 2019-05-15 at 16:46:11

; external perimeters extrusion width = 0.55mm (4.37mm^3/s)
; perimeters extrusion width = 0.70mm (11.44mm^3/s)
; infill extrusion width = 0.62mm (13.45mm^3/s)
; solid infill extrusion width = 0.70mm (3.81mm^3/s)
; top infill extrusion width = 0.70mm (2.86mm^3/s)

M107
M104 S200 ; set temperature
G28 ; home all axes
G1 Z5 F5000 ; lift nozzle

; Filament gcode

M109 S200 ; set temperature and wait for it to be reached
G21 ; set units to millimeters
G90 ; use absolute coordinates
M82 ; use absolute distances for extrusion
G92 E0
G1 Z0.350 F7800.000
G1 E-2.00000 F2400.00000
G92 E0
G1 X67.017 Y60.985 F7800.000
G1 E2.00000 F2400.00000
G1 F1800
G1 X67.437 Y60.582 E2.01799
G1 X68.183 Y59.999 E2.04730
G1 X75.177 Y55.322 E2.30764
G1 X75.899 Y54.904 E2.33345
G1 X76.395 Y54.673 E2.35039
G1 X84.640 Y51.258 E2.62650
G1 X85.476 Y50.974 E2.65381
G1 X86.022 Y50.843 E2.67119
G1 X94.132 Y49.229 E2.92706
G1 X94.824 Y49.129 E2.94869
G1 X95.733 Y49.090 E2.97685
G1 X104.460 Y49.090 E3.24688
G1 X105.051 Y49.118 E3.26518
G1 X105.866 Y49.229 E3.29062
G1 X113.977 Y50.842 E3.54649
G1 X114.524 Y50.974 E3.56390
G1 X115.359 Y51.258 E3.59120
G1 X123.603 Y54.672 E3.86730
G1 X124.099 Y54.903 E3.88423
G1 X124.821 Y55.322 E3.91005
G1 X131.697 Y59.916 E4.16592
G1 X131.922 Y60.072 E4.17440
G1 X132.562 Y60.581 E4.19971
G1 X139.418 Y67.437 E4.49968
G1 X139.927 Y68.077 E4.52500
G1 X140.083 Y68.302 E4.53346
G1 X144.678 Y75.177 E4.78933
G1 X145.097 Y75.899 E4.81516
G1 X145.327 Y76.395 E4.83208
G1 X148.742 Y84.640 E5.10819
G1 X149.026 Y85.476 E5.13551
G1 X149.157 Y86.022 E5.15289
G1 X150.771 Y94.132 E5.40876
G1 X150.871 Y94.824 E5.43038
G1 X150.910 Y95.733 E5.45854
G1 X150.910 Y104.460 E5.72857
G1 X150.871 Y105.175 E5.75070
G1 X150.771 Y105.866 E5.77231
G1 X149.158 Y113.977 E6.02818
G1 X149.026 Y114.524 E6.04561
G1 X148.742 Y115.359 E6.07290
G1 X145.328 Y123.603 E6.34900
G1 X145.098 Y124.099 E6.36590
G1 X144.678 Y124.821 E6.39174
G1 X140.084 Y131.697 E6.64761
G1 X139.927 Y131.924 E6.65616
G1 X139.419 Y132.562 E6.68139
G1 X132.563 Y139.417 E6.98136
G1 X131.923 Y139.928 E7.00670
G1 X131.698 Y140.083 E7.01515
G1 X124.823 Y144.678 E7.27102
G1 X124.100 Y145.097 E7.29686
G1 X123.605 Y145.327 E7.31377
G1 X115.360 Y148.742 E7.58988
G1 X114.525 Y149.026 E7.61719
G1 X113.978 Y149.157 E7.63458
G1 X105.868 Y150.771 E7.89045
G1 X105.176 Y150.871 E7.91206
G1 X104.267 Y150.910 E7.94024
G1 X95.540 Y150.910 E8.21026
G1 X94.825 Y150.871 E8.23241
G1 X94.134 Y150.771 E8.25401
G1 X86.023 Y149.158 E8.50988
G1 X85.476 Y149.026 E8.52729
G1 X84.641 Y148.743 E8.55459
G1 X76.397 Y145.328 E8.83069
G1 X75.901 Y145.097 E8.84761
G1 X75.179 Y144.678 E8.87343
G1 X68.303 Y140.084 E9.12931
G1 X68.078 Y139.929 E9.13777
G1 X67.438 Y139.419 E9.16309
G1 X60.582 Y132.563 E9.46309
G1 X60.072 Y131.923 E9.48839
G1 X59.917 Y131.698 E9.49685
G1 X55.322 Y124.823 E9.75272
G1 X54.903 Y124.101 E9.77855
G1 X54.673 Y123.605 E9.79547
G1 X51.258 Y115.360 E10.07158
G1 X50.974 Y114.525 E10.09888
G1 X50.843 Y113.978 E10.11627
G1 X49.229 Y105.868 E10.37214
G1 X49.129 Y105.176 E10.39376
G1 X49.090 Y104.282 E10.42147
G1 X49.090 Y95.540 E10.69196
G1 X49.118 Y94.949 E10.71026
G1 X49.229 Y94.134 E10.73570
G1 X50.842 Y86.023 E10.99157
G1 X50.974 Y85.477 E11.00897
G1 X51.257 Y84.641 E11.03628
G1 X54.672 Y76.397 E11.31238
G1 X54.903 Y75.901 E11.32931
G1 X55.322 Y75.179 E11.35513
G1 X59.916 Y68.303 E11.61100
G1 X60.072 Y68.077 E11.61949
G1 X60.582 Y67.437 E11.64480
G1 X66.964 Y61.038 E11.92445
G1 E9.92445 F2400.00000
G92 E0
G1 X122.296 Y116.311 F7800.000
G1 E2.00000 F2400.00000
G1 F1800
G1 X121.496 Y117.357 E2.04075
G1 X120.740 Y118.253 E2.07704
G1 X119.946 Y119.117 E2.11333
G1 X119.117 Y119.946 E2.14962
G1 X118.253 Y120.740 E2.18591
G1 X117.359 Y121.494 E2.22212
G1 X116.429 Y122.213 E2.25849
G1 X115.471 Y122.890 E2.29478
G1 X114.486 Y123.526 E2.33107
G1 X113.474 Y124.120 E2.36736
G1 X112.438 Y124.670 E2.40365
G1 X111.380 Y125.176 E2.43993
G1 X110.341 Y125.619 E2.47489
G1 X109.205 Y126.050 E2.51247
G1 X108.090 Y126.417 E2.54880
G1 X106.962 Y126.737 E2.58509
G1 X105.821 Y127.008 E2.62138
G1 X104.669 Y127.231 E2.65767
G1 X103.509 Y127.404 E2.69396
G1 X102.343 Y127.529 E2.73025
G1 X101.216 Y127.601 E2.76520
G1 X100.001 Y127.628 E2.80279
G1 X98.827 Y127.603 E2.83911
G1 X97.657 Y127.529 E2.87540
G1 X96.491 Y127.404 E2.91169
G1 X95.331 Y127.231 E2.94798
G1 X94.222 Y127.016 E2.98294
G1 X93.039 Y126.737 E3.02052
G1 X91.910 Y126.417 E3.05685
G1 X90.796 Y126.050 E3.09314
G1 X89.699 Y125.636 E3.12943
G1 X88.620 Y125.176 E3.16571
G1 X87.562 Y124.670 E3.20200
G1 X86.530 Y124.122 E3.23813
G1 X85.514 Y123.526 E3.27458
G1 X84.529 Y122.890 E3.31087
G1 X83.571 Y122.213 E3.34716
G1 X82.643 Y121.496 E3.38345
G1 X81.747 Y120.740 E3.41974
G1 X80.883 Y119.946 E3.45603
G1 X80.084 Y119.148 E3.49098
G1 X79.261 Y118.254 E3.52857
G1 X78.504 Y117.357 E3.56489
G1 X77.787 Y116.429 E3.60118
G1 X77.110 Y115.471 E3.63747
G1 X76.474 Y114.486 E3.67376
G1 X75.880 Y113.474 E3.71005
G1 X75.330 Y112.438 E3.74634
G1 X74.843 Y111.419 E3.78130
G1 X74.365 Y110.303 E3.81888
G1 X73.950 Y109.204 E3.85521
G1 X73.583 Y108.090 E3.89150
G1 X73.263 Y106.962 E3.92779
G1 X72.992 Y105.821 E3.96407
G1 X72.769 Y104.669 E4.00036
G1 X72.596 Y103.509 E4.03665
G1 X72.471 Y102.343 E4.07294
G1 X72.397 Y101.173 E4.10923
G1 X72.372 Y100.000 E4.14552
G1 X72.397 Y98.827 E4.18181
G1 X72.471 Y97.657 E4.21810
G1 X72.596 Y96.491 E4.25439
G1 X72.769 Y95.331 E4.29068
G1 X72.992 Y94.179 E4.32697
G1 X73.263 Y93.038 E4.36326
G1 X73.583 Y91.910 E4.39954
G1 X73.950 Y90.796 E4.43583
G1 X74.364 Y89.699 E4.47212
G1 X74.824 Y88.620 E4.50841
G1 X75.330 Y87.562 E4.54470
G1 X75.880 Y86.526 E4.58099
G1 X76.474 Y85.514 E4.61728
G1 X77.086 Y84.565 E4.65223
G1 X77.786 Y83.572 E4.68982
G1 X78.504 Y82.643 E4.72615
G1 X79.260 Y81.747 E4.76244
G1 X80.054 Y80.883 E4.79872
G1 X80.883 Y80.054 E4.83501
G1 X81.747 Y79.260 E4.87130
G1 X82.643 Y78.504 E4.90759
G1 X83.571 Y77.787 E4.94388
G1 X84.529 Y77.110 E4.98017
G1 X85.514 Y76.474 E5.01646
G1 X86.530 Y75.878 E5.05291
G1 X87.562 Y75.330 E5.08904
G1 X88.620 Y74.824 E5.12533
G1 X89.699 Y74.364 E5.16162
G1 X90.796 Y73.950 E5.19791
G1 X91.910 Y73.583 E5.23419
G1 X93.038 Y73.263 E5.27048
G1 X94.179 Y72.992 E5.30677
G1 X95.331 Y72.769 E5.34306
G1 X96.491 Y72.596 E5.37935
G1 X97.657 Y72.471 E5.41564
G1 X98.827 Y72.397 E5.45193
G1 X99.957 Y72.373 E5.48688
G1 X101.171 Y72.397 E5.52447
G1 X102.343 Y72.471 E5.56080
G1 X103.509 Y72.596 E5.59709
G1 X104.669 Y72.769 E5.63337
G1 X105.821 Y72.992 E5.66966
G1 X106.962 Y73.263 E5.70595
G1 X108.090 Y73.583 E5.74224
G1 X109.204 Y73.950 E5.77853
G1 X110.301 Y74.364 E5.81482
G1 X111.380 Y74.824 E5.85111
G1 X112.438 Y75.330 E5.88740
G1 X113.474 Y75.880 E5.92369
G1 X114.486 Y76.474 E5.95998
G1 X115.471 Y77.110 E5.99627
G1 X116.429 Y77.787 E6.03256
G1 X117.359 Y78.506 E6.06893
G1 X118.253 Y79.260 E6.10514
G1 X119.117 Y80.054 E6.14142
G1 X119.946 Y80.883 E6.17771
G1 X120.740 Y81.747 E6.21400
G1 X121.496 Y82.643 E6.25029
G1 X122.187 Y83.537 E6.28524
G1 X122.890 Y84.528 E6.32283
G1 X123.526 Y85.514 E6.35916
G1 X124.120 Y86.526 E6.39545
G1 X124.670 Y87.562 E6.43173
G1 X125.176 Y88.620 E6.46802
G1 X125.636 Y89.699 E6.50431
G1 X126.050 Y90.796 E6.54060
G1 X126.417 Y91.910 E6.57689
G1 X126.725 Y92.997 E6.61185
G1 X127.008 Y94.178 E6.64943
G1 X127.231 Y95.331 E6.68576
G1 X127.404 Y96.491 E6.72205
G1 X127.529 Y97.657 E6.75834
G1 X127.601 Y98.784 E6.79329
G1 X127.628 Y99.999 E6.83088
G1 X127.603 Y101.173 E6.86720
G1 X127.529 Y102.343 E6.90349
G1 X127.404 Y103.509 E6.93978
G1 X127.231 Y104.669 E6.97607
G1 X127.016 Y105.778 E7.01102
G1 X126.737 Y106.961 E7.04861
G1 X126.417 Y108.090 E7.08494
G1 X126.050 Y109.204 E7.12123
G1 X125.636 Y110.301 E7.15752
G1 X125.176 Y111.380 E7.19380
G1 X124.670 Y112.438 E7.23009
G1 X124.120 Y113.474 E7.26638
G1 X123.526 Y114.486 E7.30267
G1 X122.890 Y115.471 E7.33896
G1 X122.340 Y116.250 E7.36846
G1 X121.786 Y115.950 F7800.000
G1 F1800
G1 X121.009 Y116.964 E7.40798
G1 X120.271 Y117.840 E7.44345
G1 X119.495 Y118.685 E7.47892
G1 X118.685 Y119.495 E7.51439
G1 X117.840 Y120.271 E7.54986
G1 X116.966 Y121.008 E7.58524
G1 X116.057 Y121.710 E7.62079
G1 X115.121 Y122.372 E7.65626
G1 X114.158 Y122.994 E7.69173
G1 X113.169 Y123.574 E7.72720
G1 X112.157 Y124.112 E7.76267
G1 X111.123 Y124.606 E7.79813
G1 X110.108 Y125.039 E7.83228
G1 X108.997 Y125.460 E7.86905
G1 X107.907 Y125.820 E7.90454
G1 X106.804 Y126.132 E7.94001
G1 X105.689 Y126.397 E7.97547
G1 X104.564 Y126.615 E8.01094
G1 X103.430 Y126.784 E8.04641
G1 X102.290 Y126.906 E8.08188
G1 X101.189 Y126.976 E8.11603
G1 X100.001 Y127.003 E8.15279
G1 X98.854 Y126.979 E8.18828
G1 X97.710 Y126.906 E8.22375
G1 X96.570 Y126.784 E8.25922
G1 X95.436 Y126.615 E8.29469
G1 X94.353 Y126.405 E8.32884
G1 X93.197 Y126.132 E8.36560
G1 X92.093 Y125.820 E8.40109
G1 X91.004 Y125.461 E8.43656
G1 X89.932 Y125.056 E8.47203
G1 X88.877 Y124.606 E8.50750
G1 X87.843 Y124.112 E8.54296
G1 X86.835 Y123.577 E8.57827
G1 X85.842 Y122.994 E8.61390
G1 X84.879 Y122.372 E8.64937
G1 X83.943 Y121.710 E8.68484
G1 X83.036 Y121.009 E8.72030
G1 X82.160 Y120.271 E8.75577
G1 X81.315 Y119.495 E8.79124
G1 X80.535 Y118.715 E8.82539
G1 X79.730 Y117.841 E8.86215
G1 X78.991 Y116.964 E8.89764
G1 X78.290 Y116.057 E8.93311
G1 X77.628 Y115.121 E8.96858
G1 X77.006 Y114.158 E9.00405
G1 X76.426 Y113.169 E9.03952
G1 X75.888 Y112.157 E9.07499
G1 X75.412 Y111.161 E9.10913
G1 X74.944 Y110.069 E9.14590
G1 X74.539 Y108.996 E9.18139
G1 X74.180 Y107.907 E9.21686
G1 X73.868 Y106.804 E9.25233
G1 X73.603 Y105.689 E9.28779
G1 X73.385 Y104.564 E9.32326
G1 X73.216 Y103.430 E9.35873
G1 X73.094 Y102.290 E9.39420
G1 X73.021 Y101.146 E9.42967
G1 X72.997 Y100.000 E9.46514
G1 X73.021 Y98.854 E9.50060
G1 X73.094 Y97.710 E9.53607
G1 X73.216 Y96.570 E9.57154
G1 X73.385 Y95.436 E9.60701
G1 X73.603 Y94.311 E9.64248
G1 X73.868 Y93.196 E9.67794
G1 X74.180 Y92.093 E9.71341
G1 X74.539 Y91.004 E9.74888
G1 X74.944 Y89.932 E9.78435
G1 X75.394 Y88.877 E9.81982
G1 X75.888 Y87.843 E9.85529
G1 X76.426 Y86.831 E9.89075
G1 X77.006 Y85.842 E9.92622
G1 X77.604 Y84.915 E9.96037
G1 X78.289 Y83.944 E9.99713
G1 X78.991 Y83.036 E10.03263
G1 X79.729 Y82.160 E10.06809
G1 X80.505 Y81.315 E10.10356
G1 X81.315 Y80.505 E10.13903
G1 X82.160 Y79.729 E10.17450
G1 X83.036 Y78.991 E10.20997
G1 X83.943 Y78.290 E10.24543
G1 X84.879 Y77.628 E10.28090
G1 X85.842 Y77.006 E10.31637
G1 X86.835 Y76.423 E10.35200
G1 X87.843 Y75.888 E10.38731
G1 X88.877 Y75.394 E10.42278
G1 X89.932 Y74.944 E10.45824
G1 X91.004 Y74.539 E10.49371
G1 X92.093 Y74.180 E10.52918
G1 X93.196 Y73.868 E10.56465
G1 X94.311 Y73.603 E10.60012
G1 X95.436 Y73.385 E10.63558
G1 X96.570 Y73.216 E10.67105
G1 X97.710 Y73.094 E10.70652
G1 X98.854 Y73.021 E10.74199
G1 X99.957 Y72.998 E10.77614
G1 X101.145 Y73.021 E10.81290
G1 X102.290 Y73.094 E10.84839
G1 X103.430 Y73.216 E10.88386
G1 X104.564 Y73.385 E10.91933
G1 X105.689 Y73.603 E10.95480
G1 X106.804 Y73.868 E10.99027
G1 X107.907 Y74.180 E11.02573
G1 X108.996 Y74.539 E11.06120
G1 X110.068 Y74.944 E11.09667
G1 X111.123 Y75.394 E11.13214
G1 X112.157 Y75.888 E11.16761
G1 X113.169 Y76.426 E11.20307
G1 X114.158 Y77.006 E11.23854
G1 X115.121 Y77.628 E11.27401
G1 X116.057 Y78.290 E11.30948
G1 X116.966 Y78.992 E11.34503
G1 X117.840 Y79.729 E11.38042
G1 X118.685 Y80.505 E11.41588
G1 X119.495 Y81.315 E11.45135
G1 X120.271 Y82.160 E11.48682
G1 X121.009 Y83.036 E11.52229
G1 X121.684 Y83.909 E11.55644
G1 X122.372 Y84.878 E11.59320
G1 X122.994 Y85.842 E11.62869
G1 X123.574 Y86.831 E11.66416
G1 X124.112 Y87.843 E11.69963
G1 X124.606 Y88.877 E11.73510
G1 X125.056 Y89.932 E11.77057
G1 X125.461 Y91.004 E11.80603
G1 X125.820 Y92.093 E11.84150
G1 X126.120 Y93.155 E11.87565
G1 X126.397 Y94.310 E11.91241
G1 X126.615 Y95.436 E11.94790
G1 X126.784 Y96.570 E11.98337
G1 X126.906 Y97.710 E12.01884
G1 X126.976 Y98.811 E12.05299
G1 X127.003 Y99.999 E12.08975
G1 X126.979 Y101.146 E12.12525
G1 X126.906 Y102.290 E12.16071
G1 X126.784 Y103.430 E12.19618
G1 X126.615 Y104.564 E12.23165
G1 X126.405 Y105.647 E12.26580
G1 X126.132 Y106.803 E12.30256
G1 X125.820 Y107.907 E12.33805
G1 X125.461 Y108.996 E12.37352
G1 X125.056 Y110.068 E12.40899
G1 X124.606 Y111.123 E12.44446
G1 X124.112 Y112.157 E12.47993
G1 X123.574 Y113.169 E12.51539
G1 X122.994 Y114.158 E12.55086
G1 X122.372 Y115.121 E12.58633
G1 X121.830 Y115.889 E12.61542
G1 X121.276 Y115.589 F7800.000
G1 F1800
G1 X120.523 Y116.571 E12.65371
G1 X119.801 Y117.427 E12.68836
G1 X119.044 Y118.252 E12.72301
G1 X118.252 Y119.044 E12.75765
G1 X117.427 Y119.801 E12.79230
G1 X116.573 Y120.521 E12.82687
G1 X115.685 Y121.208 E12.86160
G1 X114.771 Y121.855 E12.89624
G1 X113.830 Y122.462 E12.93089
G1 X112.864 Y123.029 E12.96554
G1 X111.876 Y123.554 E13.00018
G1 X110.865 Y124.037 E13.03483
G1 X109.874 Y124.459 E13.06817
G1 X108.788 Y124.871 E13.10412
G1 X107.724 Y125.222 E13.13877
G1 X106.647 Y125.527 E13.17342
G1 X105.557 Y125.786 E13.20807
G1 X104.458 Y125.999 E13.24271
G1 X103.350 Y126.165 E13.27736
G1 X102.237 Y126.283 E13.31201
G1 X101.162 Y126.352 E13.34535
G1 X100.000 Y126.378 E13.38129
G1 X98.880 Y126.354 E13.41595
G1 X97.763 Y126.283 E13.45060
G1 X96.650 Y126.165 E13.48524
G1 X95.542 Y125.999 E13.51989
G1 X94.484 Y125.794 E13.55323
G1 X93.354 Y125.527 E13.58918
G1 X92.276 Y125.222 E13.62383
G1 X91.212 Y124.871 E13.65848
G1 X90.165 Y124.476 E13.69313
G1 X89.135 Y124.037 E13.72777
G1 X88.124 Y123.554 E13.76242
G1 X87.140 Y123.031 E13.79691
G1 X86.170 Y122.462 E13.83171
G1 X85.229 Y121.855 E13.86636
G1 X84.315 Y121.208 E13.90101
G1 X83.429 Y120.523 E13.93566
G1 X82.573 Y119.801 E13.97030
G1 X81.748 Y119.044 E14.00495
G1 X80.986 Y118.282 E14.03829
G1 X80.199 Y117.428 E14.07424
G1 X79.477 Y116.571 E14.10889
G1 X78.792 Y115.685 E14.14354
G1 X78.145 Y114.771 E14.17819
G1 X77.538 Y113.830 E14.21283
G1 X76.971 Y112.864 E14.24748
G1 X76.446 Y111.876 E14.28213
G1 X75.982 Y110.903 E14.31547
G1 X75.524 Y109.836 E14.35141
G1 X75.129 Y108.788 E14.38607
G1 X74.778 Y107.724 E14.42072
G1 X74.473 Y106.647 E14.45536
G1 X74.214 Y105.557 E14.49001
G1 X74.001 Y104.458 E14.52466
G1 X73.835 Y103.350 E14.55931
G1 X73.717 Y102.237 E14.59395
G1 X73.646 Y101.120 E14.62860
G1 X73.622 Y100.000 E14.66325
G1 X73.646 Y98.880 E14.69789
G1 X73.717 Y97.763 E14.73254
G1 X73.835 Y96.650 E14.76719
G1 X74.001 Y95.542 E14.80184
G1 X74.214 Y94.443 E14.83648
G1 X74.473 Y93.353 E14.87113
G1 X74.778 Y92.276 E14.90578
G1 X75.129 Y91.212 E14.94042
G1 X75.524 Y90.165 E14.97507
G1 X75.963 Y89.135 E15.00972
G1 X76.446 Y88.124 E15.04437
G1 X76.971 Y87.136 E15.07901
G1 X77.538 Y86.170 E15.11366
G1 X78.123 Y85.264 E15.14700
G1 X78.792 Y84.315 E15.18295
G1 X79.477 Y83.429 E15.21760
G1 X80.199 Y82.573 E15.25225
G1 X80.956 Y81.748 E15.28690
G1 X81.748 Y80.956 E15.32154
G1 X82.573 Y80.199 E15.35619
G1 X83.429 Y79.477 E15.39084
G1 X84.315 Y78.792 E15.42549
G1 X85.229 Y78.145 E15.46013
G1 X86.170 Y77.538 E15.49478
G1 X87.140 Y76.969 E15.52958
G1 X88.124 Y76.446 E15.56407
G1 X89.135 Y75.963 E15.59872
G1 X90.165 Y75.524 E15.63337
G1 X91.212 Y75.129 E15.66802
G1 X92.276 Y74.778 E15.70266
G1 X93.353 Y74.473 E15.73731
G1 X94.443 Y74.214 E15.77196
G1 X95.542 Y74.001 E15.80660
G1 X96.650 Y73.836 E15.84125
G1 X97.763 Y73.717 E15.87590
G1 X98.880 Y73.646 E15.91055
G1 X99.958 Y73.623 E15.94389
G1 X101.119 Y73.646 E15.97983
G1 X102.237 Y73.717 E16.01449
G1 X103.350 Y73.835 E16.04913
G1 X104.458 Y74.001 E16.08378
G1 X105.557 Y74.214 E16.11843
G1 X106.647 Y74.473 E16.15308
G1 X107.724 Y74.778 E16.18772
G1 X108.788 Y75.129 E16.22237
G1 X109.835 Y75.524 E16.25702
G1 X110.865 Y75.963 E16.29166
G1 X111.876 Y76.446 E16.32631
G1 X112.864 Y76.971 E16.36096
G1 X113.830 Y77.538 E16.39561
G1 X114.771 Y78.145 E16.43025
G1 X115.685 Y78.792 E16.46490
G1 X116.573 Y79.479 E16.49963
G1 X117.427 Y80.199 E16.53420
G1 X118.252 Y80.956 E16.56884
G1 X119.044 Y81.748 E16.60349
G1 X119.801 Y82.573 E16.63814
G1 X120.523 Y83.429 E16.67278
G1 X121.182 Y84.281 E16.70613
G1 X121.854 Y85.229 E16.74207
G1 X122.462 Y86.170 E16.77673
G1 X123.028 Y87.136 E16.81137
G1 X123.554 Y88.124 E16.84602
