; Generated with MatterSlice 2.20.4
; filamentDiameter = 1.75
; extrusionWidth = 0.4
; firstLayerExtrusionWidth = 0.4
; layerThickness = 0.3
; firstLayerThickness = 0.3
; automatic settings before start_gcode
G21 ; set units to millimeters
M107 ; fan off
M140 S25 ; start heating the bed
M104 T0 S210 ; start heating T0
M190 S25 ; wait for bed temperature to be reached
T0 ; set the active extruder to 0
; settings from start_gcode
G28 X0 Y0 Z0 ; home all axes
G1 Z5 F5000
M109 S210 ; set the extruder temp and wait
G28 X0 Y0 Z0 ; Home Z again in case there was filament on nozzle
G29 ; probe the bed
; automatic settings after start_gcode
T0 ; set the active extruder to 0
G90 ; use absolute coordinates
G92 E0 ; reset the expected extruder position
M82 ; use absolute distance for extrusion
; Layer count: 64
; Layer Change GCode
; LAYER:0
; LAYER_HEIGHT:0.3
; TYPE:FILL
M400
M107
G1 X0 Y0 Z0.8 F9000
G1 X83.56 Y99.85
G1 X88.01
G1 Y97.51
; TYPE:SKIRT
G1 Z0.3
G1 F1800
G1 X102.64 Y95.7 E0.735 F1080
G1 X110.14 E1.11
G1 X147.51 Y97.41 E2.976
G1 Y110.28 E3.618
G1 X142.28 Y156.85 E5.956
G1 X80.7 E9.028
G1 X79.2 Y116.11 E11.062
G1 Y110.18 E11.358
G1 X88.01 Y97.51 E12.128
G1 X88.24 Y97.89 F9000
G1 X102.66 Y96.1 E12.853 F1080
G1 X110.13 E13.225
G1 X147.11 Y97.79 E15.072
G1 Y110.25 E15.694
G1 X141.92 Y156.45 E18.013
G1 X81.09 E21.048
G1 X79.6 Y116.11 E23.062
G1 Y110.3 E23.352
G1 X88.24 Y97.89 E24.106
G1 E21.106 F1800
G1 Z0.8
G1 X88.55 Y98.4 F9000
G1 Y99.85
G1 X89.57 Y100.45
G1 X91.29 Y102.95
G1 X92.19 Y103.84
G1 X91.49 Y103.15
; TYPE:WALL-OUTER
G1 Z0.3
G1 E24.106 F1800
G1 X103.17 E24.689 F1080
G1 X103.37 Y103.56 E24.712
G1 X103.66 Y104.04 E24.74
G1 X103.97 Y104.46 E24.766
G1 X104.32 Y104.84 E24.792
G1 X104.68 Y105.14 E24.815
G1 X105.05 Y105.37 E24.836
G1 X105.46 Y105.53 E24.858
G1 X105.86 Y105.61 E24.879
G1 X106.25 Y105.61 E24.899
G1 X106.67 Y105.53 E24.92
G1 X107.07 Y105.38 E24.941
G1 X107.43 Y105.15 E24.963
G1 X107.81 Y104.84 E24.987
G1 X108.14 Y104.48 E25.011
G1 X108.46 Y104.06 E25.038
G1 X108.76 Y103.56 E25.067
G1 X108.96 Y103.15 E25.09
G1 X141.51 E26.713
G1 Y109.75 E27.042
G1 X91.49 E29.538
G1 Y103.19 E29.865
G1 Y103.15
G1 X94.49
G1 X91.89 Y103.55 F9000
; TYPE:WALL-INNER
G1 X102.92 E30.415 F1080
G1 X103.02 Y103.75 E30.427
G1 X103.33 Y104.26 E30.456
G1 X103.66 Y104.72 E30.485
G1 X104.05 Y105.13 E30.513
G1 X104.45 Y105.47 E30.539
G1 X104.87 Y105.73 E30.563
G1 X105.34 Y105.92 E30.589
G1 X105.82 Y106.01 E30.613
G1 X106.29 Y106.01 E30.637
G1 X106.79 Y105.92 E30.662
G1 X107.25 Y105.73 E30.687
G1 X107.67 Y105.48 E30.711
G1 X108.08 Y105.13 E30.738
G1 X108.45 Y104.74 E30.765
G1 X108.79 Y104.28 E30.794
G1 X109.11 Y103.75 E30.824
G1 X109.21 Y103.55 E30.836
G1 X141.11 E32.427
G1 Y109.35 E32.716
G1 X91.89 E35.172
G1 Y103.59 E35.459
G1 Y103.55
G1 X92.23 Y104.06 F9000
; TYPE:BOTTOM-FILL
G1 X92.4 Y103.89 E35.471 F1080
G1 X92.97 F9000
G1 X92.23 Y104.63 E35.524 F1080
G1 Y105.19 F9000
G1 X93.53 Y103.89 E35.616 F1080
G1 X94.1 F9000
G1 X92.23 Y105.76 E35.747 F1080
G1 Y106.32 F9000
G1 X94.67 Y103.89 E35.919 F1080
G1 X95.23 F9000
G1 X92.23 Y106.89 E36.131 F1080
G1 Y107.46 F9000
G1 X95.8 Y103.89 E36.383 F1080
G1 X96.36 F9000
G1 X92.23 Y108.02 E36.674 F1080
G1 Y108.59 F9000
G1 X96.93 Y103.89 E37.006 F1080
G1 X97.5 Y103.89 F9000
G1 X92.38 Y109.01 E37.367 F1080
G1 X92.94 F9000
G1 X98.06 Y103.89 E37.728 F1080
G1 X98.63 F9000
G1 X93.51 Y109.01 E38.09 F1080
G1 X94.07 F9000
G1 X99.19 Y103.89 E38.451 F1080
G1 X99.76 F9000
G1 X94.64 Y109.01 E38.812 F1080
G1 X95.2 F9000
G1 X100.32 Y103.89 E39.173 F1080
G1 X100.89 F9000
G1 X95.77 Y109.01 E39.534 F1080
G1 X96.33 F9000
G1 X101.45 Y103.89 E39.896 F1080
G1 X102.02 F9000
G1 X96.9 Y109.01 E40.257 F1080
G1 X97.47 F9000
G1 X102.59 Y103.89 E40.618 F1080
G1 X102.87 Y104.17 F9000
G1 X98.03 Y109.01 E40.96 F1080
G1 X98.6 F9000
G1 X103.09 Y104.51 E41.277 F1080
G1 X103.33 Y104.84 F9000
G1 X99.16 Y109.01 E41.571 F1080
G1 X99.73 F9000
G1 X103.59 Y105.14 E41.844 F1080
G1 X103.87 Y105.43 F9000
G1 X100.29 Y109.01 E42.096 F1080
G1 X100.86 F9000
G1 X104.18 Y105.69 E42.331 F1080
G1 X104.52 Y105.91 F9000
G1 X101.43 Y109.01 E42.549 F1080
G1 X101.99 F9000
G1 X104.9 Y106.1 E42.754 F1080
G1 X105.31 Y106.26 F9000
G1 X102.56 Y109.01 E42.948 F1080
G1 X103.12 F9000
G1 X105.78 Y106.35 E43.136 F1080
G1 X106.35 Y106.35 F9000
G1 X103.69 Y109.01 E43.323 F1080
G1 X104.25 F9000
G1 X107.11 Y106.16 E43.525 F1080
G1 X107.08 Y109.01 F9000
G1 X112.2 Y103.89 E43.886 F1080
G1 X112.77 F9000
G1 X107.65 Y109.01 E44.247 F1080
G1 X108.21 F9000
G1 X113.33 Y103.89 E44.608 F1080
G1 X113.9 F9000
G1 X108.78 Y109.01 E44.969 F1080
G1 X109.35 F9000
G1 X114.46 Y103.89 E45.33 F1080
G1 X115.03 F9000
G1 X109.91 Y109.01 E45.692 F1080
G1 X110.48 F9000
G1 X115.6 Y103.89 E46.053 F1080
G1 X116.16 F9000
G1 X111.04 Y109.01 E46.414 F1080
G1 X111.61 F9000
G1 X116.73 Y103.89 E46.775 F1080
G1 X117.29 F9000
G1 X112.17 Y109.01 E47.136 F1080
G1 X112.74 F9000
G1 X117.86 Y103.89 E47.497 F1080
G1 X118.42 F9000
G1 X113.31 Y109.01 E47.858 F1080
G1 X113.87 F9000
G1 X118.99 Y103.89 E48.219 F1080
G1 X119.56 F9000
G1 X114.44 Y109.01 E48.581 F1080
G1 X115 F9000
G1 X120.12 Y103.89 E48.942 F1080
G1 X120.69 F9000
G1 X115.57 Y109.01 E49.303 F1080
G1 X116.13 F9000
G1 X121.25 Y103.89 E49.664 F1080
G1 X121.82 F9000
G1 X116.7 Y109.01 E50.025 F1080
G1 X117.26 F9000
G1 X122.38 Y103.89 E50.386 F1080
G1 X122.95 F9000
G1 X117.83 Y109.01 E50.747 F1080
G1 X118.4 F9000
G1 X123.52 Y103.89 E51.109 F1080
G1 X124.08 F9000
G1 X118.96 Y109.01 E51.47 F1080
G1 X119.53 F9000
G1 X124.65 Y103.89 E51.831 F1080
G1 X125.21 F9000
G1 X120.09 Y109.01 E52.192 F1080
G1 X120.66 F9000
G1 X125.78 Y103.89 E52.553 F1080
G1 X126.34 F9000
G1 X121.22 Y109.01 E52.915 F1080
G1 X121.79 F9000
G1 X126.91 Y103.89 E53.276 F1080
G1 X127.48 F9000
G1 X122.36 Y109.01 E53.637 F1080
G1 X122.92 F9000
G1 X128.04 Y103.89 E53.998 F1080
G1 X128.61 F9000
G1 X123.49 Y109.01 E54.359 F1080
G1 X124.05 F9000
G1 X129.17 Y103.89 E54.721 F1080
G1 X129.74 F9000
G1 X124.62 Y109.01 E55.082 F1080
G1 X125.18 F9000
G1 X130.3 Y103.89 E55.443 F1080
G1 X130.87 F9000
G1 X125.75 Y109.01 E55.804 F1080
G1 X126.32 F9000
G1 X131.43 Y103.89 E56.165 F1080
G1 X132 F9000
G1 X126.88 Y109.01 E56.527 F1080
G1 X127.45 F9000
G1 X132.57 Y103.89 E56.888 F1080
G1 X133.13 F9000
G1 X128.01 Y109.01 E57.249 F1080
G1 X128.58 F9000
G1 X133.7 Y103.89 E57.61 F1080
G1 X134.26 F9000
G1 X129.14 Y109.01 E57.971 F1080
G1 X129.71 F9000
G1 X134.83 Y103.89 E58.332 F1080
G1 X135.39 F9000
G1 X130.28 Y109.01 E58.694 F1080
G1 X130.84 F9000
G1 X135.96 Y103.89 E59.055 F1080
G1 X136.53 F9000
G1 X131.41 Y109.01 E59.416 F1080
G1 X131.97 F9000
G1 X137.09 Y103.89 E59.777 F1080
G1 X137.66 F9000
G1 X132.54 Y109.01 E60.138 F1080
G1 X133.1 F9000
G1 X138.22 Y103.89 E60.5 F1080
G1 X138.79 F9000
G1 X133.67 Y109.01 E60.861 F1080
G1 X134.24 F9000
G1 X139.35 Y103.89 E61.222 F1080
G1 X139.92 F9000
G1 X134.8 Y109.01 E61.583 F1080
G1 X135.37 F9000
G1 X140.49 Y103.89 E61.944 F1080
G1 X140.77 Y104.17 F9000
G1 X135.93 Y109.01 E62.285 F1080
G1 X136.5 F9000
G1 X140.77 Y104.74 E62.587 F1080
G1 Y105.31 F9000
G1 X137.06 Y109.01 E62.848 F1080
G1 X137.63 F9000
G1 X140.77 Y105.87 E63.069 F1080
G1 Y106.44 F9000
G1 X138.19 Y109.01 E63.251 F1080
G1 X138.76 F9000
G1 X140.77 Y107 E63.393 F1080
G1 Y107.57 F9000
G1 X139.33 Y109.01 E63.494 F1080
G1 X139.89 F9000
G1 X140.77 Y108.13 E63.556 F1080
G1 Y108.7 F9000
G1 X140.46 Y109.01 E63.578 F1080
G1 E60.578 F1800
G1 Z0.8
G1 Y108.86 F9000
G1 X111.64 Y103.89
G1 Z0.3
G1 E63.578 F1800
G1 X106.52 Y109.01 E63.939 F1080
G1 X105.95 F9000
G1 X111.07 Y103.89 E64.3 F1080
G1 X110.5 F9000
G1 X105.39 Y109.01 E64.661 F1080
G1 X104.82 F9000
G1 X109.94 Y103.89 E65.022 F1080
G1 E62.022 F1800
G1 Z0.8
G1 X107.5 Y105.6 F9000
G1 X106.62 Y105.34
G1 X106.75 Y105.93
G1 X112.08 Y128.62
G1 Y127.72
G1 X112.48 Y128.42
; TYPE:WALL-OUTER
G1 Z0.3
G1 E65.022 F1800
G1 X112.07 Y128.42 E65.043 F1080
G1 X111.87 Y128.45 E65.053
G1 X111.48 Y128.56 E65.073
G1 X111.09 Y128.75 E65.095
G1 X110.73 Y129.01 E65.117
G1 X110.38 Y129.34 E65.141
G1 X110.06 Y129.73 E65.166
G1 X109.74 Y130.2 E65.194
G1 X109.46 Y130.7 E65.223
G1 X109.21 Y131.25 E65.253
G1 X108.97 Y131.89 E65.287
G1 X108.71 Y132.81 E65.335
G1 X108.51 Y133.87 E65.389
G1 X108.39 Y134.93 E65.442
G1 X108.35 Y136.05 E65.498
G1 X108.39 Y137.16 E65.554
G1 X108.51 Y138.26 E65.609
G1 X108.7 Y139.25 E65.659
G1 X108.89 Y139.96 E65.696
G1 X109.18 Y140.79 E65.739
G1 X109.42 Y141.35 E65.77
G1 X109.73 Y141.91 E65.802
G1 X110.04 Y142.38 E65.83
G1 X110.37 Y142.77 E65.855
G1 X110.71 Y143.1 E65.879
G1 X111.08 Y143.36 E65.902
G1 X111.48 Y143.57 E65.924
G1 X111.87 Y143.68 E65.944
G1 X112.27 Y143.72 E65.965
G1 X112.67 Y143.69 E65.985
G1 X113.06 Y143.57 E66.005
G1 X113.45 Y143.38 E66.026
G1 X113.83 Y143.11 E66.05
G1 X114.18 Y142.78 E66.074
G1 X114.5 Y142.39 E66.099
G1 X114.81 Y141.94 E66.126
G1 X115.13 Y141.35 E66.159
G1 X115.46 Y140.56 E66.202
G1 X115.75 Y139.65 E66.25
G1 X115.92 Y138.92 E66.288
G1 X116.09 Y137.91 E66.339
G1 X116.19 Y136.8 E66.394
G1 X116.2 Y135.72 E66.448
G1 X116.16 Y134.94 E66.487
G1 X116.09 Y134.21 E66.524
G1 X115.93 Y133.26 E66.572
G1 X115.75 Y132.49 E66.611
G1 X115.47 Y131.59 E66.658
G1 X115.23 Y131.01 E66.689
G1 X114.95 Y130.44 E66.721
G1 X114.66 Y129.97 E66.749
G1 X114.35 Y129.55 E66.775
G1 X114.02 Y129.19 E66.8
G1 X113.66 Y128.89 E66.823
G1 X113.27 Y128.65 E66.846
G1 X112.88 Y128.49 E66.866
G1 X112.52 Y128.42 E66.885
G1 X112.48 Y128.42
G1 X112.07 Y128.42
G1 X111.87 Y128.45
G1 X111.48 Y128.56
G1 X111.09 Y128.75
G1 X110.73 Y129.01
G1 X110.38 Y129.34
G1 X110.06 Y129.73
G1 X109.99 Y129.83
G1 X112.52 Y128.02 F9000
; TYPE:WALL-INNER
G1 X112.04 Y128.02 E66.909 F1080
G1 X111.78 Y128.06 E66.922
G1 X111.33 Y128.19 E66.945
G1 X110.89 Y128.41 E66.97
G1 X110.47 Y128.7 E66.995
G1 X110.09 Y129.06 E67.021
G1 X109.74 Y129.48 E67.049
G1 X109.4 Y129.99 E67.079
G1 X109.1 Y130.52 E67.109
G1 X108.84 Y131.09 E67.141
G1 X108.59 Y131.77 E67.177
G1 X108.32 Y132.72 E67.226
G1 X108.11 Y133.81 E67.282
G1 X107.99 Y134.9 E67.336
G1 X107.95 Y136.05 E67.393
G1 X107.99 Y137.19 E67.451
G1 X108.11 Y138.32 E67.507
G1 X108.31 Y139.34 E67.559
G1 X108.5 Y140.08 E67.597
G1 X108.8 Y140.94 E67.643
G1 X109.07 Y141.53 E67.675
G1 X109.38 Y142.12 E67.708
G1 X109.72 Y142.62 E67.739
G1 X110.07 Y143.05 E67.766
G1 X110.45 Y143.41 E67.792
G1 X110.87 Y143.71 E67.818
G1 X111.33 Y143.94 E67.843
G1 X111.79 Y144.08 E67.868
G1 X112.27 Y144.13 E67.892
G1 X112.75 Y144.08 E67.915
G1 X113.21 Y143.94 E67.94
G1 X113.65 Y143.73 E67.964
G1 X114.08 Y143.42 E67.991
G1 X114.47 Y143.06 E68.017
G1 X114.82 Y142.63 E68.045
G1 X115.15 Y142.15 E68.074
G1 X115.49 Y141.53 E68.109
G1 X115.84 Y140.7 E68.154
G1 X116.14 Y139.75 E68.203
G1 X116.32 Y139 E68.242
G1 X116.49 Y137.95 E68.295
G1 X116.59 Y136.82 E68.352
G1 X116.6 Y135.71 E68.407
G1 X116.56 Y134.91 E68.447
G1 X116.49 Y134.16 E68.485
G1 X116.33 Y133.18 E68.534
G1 X116.14 Y132.38 E68.575
G1 X115.85 Y131.45 E68.624
G1 X115.6 Y130.84 E68.656
G1 X115.3 Y130.25 E68.69
G1 X115 Y129.74 E68.719
G1 X114.66 Y129.29 E68.747
G1 X114.29 Y128.89 E68.774
G1 X113.89 Y128.56 E68.8
G1 X113.45 Y128.29 E68.826
G1 X112.99 Y128.11 E68.851
G1 X112.56 Y128.02 E68.873
G1 X112.52 Y128.02
G1 E65.873 F1800
G1 Z0.8
G1 Y127.57 F9000
G1 X114.14 Y127.17
G1 X136.89 Y115.37
; TYPE:WALL-OUTER
G1 Z0.3
G1 E68.873 F1800
G1 Y150.85 E70.643 F1080
G1 X86.49 E73.157
G1 Y115.37 E74.927
G1 X136.85 E77.44
G1 X136.89
G1 Y118.37
G1 X136.49 Y115.77 F9000
; TYPE:WALL-INNER
G1 Y150.45 E79.17 F1080
G1 X86.89 E81.645
G1 Y115.77 E83.375
G1 X136.45 E85.847
G1 X136.49
G1 X136.15 Y116.15 F9000
; TYPE:BOTTOM-FILL
G1 X116.92 Y135.37 E87.204 F1080
G1 X116.89 Y134.84 F9000
G1 X135.62 Y116.11 E88.525 F1080
G1 X135.06 F9000
G1 X116.84 Y134.32 E89.81 F1080
G1 X116.78 Y133.82 F9000
G1 X134.49 Y116.11 E91.06 F1080
G1 X133.92 F9000
G1 X116.7 Y133.34 E92.276 F1080
G1 X116.6 Y132.86 F9000
G1 X133.36 Y116.11 E93.458 F1080
G1 X132.79 F9000
G1 X116.5 Y132.41 E94.608 F1080
G1 X116.37 Y131.97 F9000
G1 X132.23 Y116.11 E95.727 F1080
G1 X131.66 F9000
G1 X116.23 Y131.54 E96.815 F1080
G1 X116.08 Y131.12 F9000
G1 X131.1 Y116.11 E97.874 F1080
G1 X130.53 F9000
G1 X115.92 Y130.72 E98.906 F1080
G1 X115.73 Y130.34 F9000
G1 X129.96 Y116.11 E99.91 F1080
G1 X129.4 F9000
G1 X115.53 Y129.97 E100.888 F1080
G1 X115.32 Y129.62 F9000
G1 X128.83 Y116.11 E101.841 F1080
G1 X128.27 F9000
G1 X115.09 Y129.29 E102.771 F1080
G1 X114.83 Y128.98 F9000
G1 X127.7 Y116.11 E103.679 F1080
G1 X127.14 F9000
G1 X114.56 Y128.68 E104.566 F1080
G1 X114.26 Y128.42 F9000
G1 X126.57 Y116.11 E105.435 F1080
G1 X126 F9000
G1 X113.93 Y128.18 E106.287 F1080
G1 X113.57 Y127.97 F9000
G1 X125.44 Y116.11 E107.124 F1080
G1 X124.87 F9000
G1 X113.17 Y127.81 E107.95 F1080
G1 X112.71 Y127.71 F9000
G1 X124.31 Y116.11 E108.768 F1080
G1 X123.74 F9000
G1 X112.17 Y127.68 E109.584 F1080
G1 X111.5 Y127.78 F9000
G1 X123.18 Y116.11 E110.408 F1080
G1 X122.61 F9000
G1 X110.34 Y128.38 E111.274 F1080
G1 X109.6 Y129.12 F9000
G1 X88.61 Y150.11 E112.754 F1080
G1 X89.18 F9000
G1 X108.7 Y130.59 E114.132 F1080
G1 X108.32 Y131.54 F9000
G1 X89.74 Y150.11 E115.442 F1080
G1 X90.31 F9000
G1 X108.08 Y132.34 E116.696 F1080
G1 X107.91 Y133.07 F9000
G1 X90.87 Y150.11 E117.898 F1080
G1 X91.44 F9000
G1 X107.77 Y133.77 E119.05 F1080
G1 X107.7 Y134.41 F9000
G1 X92.01 Y150.11 E120.158 F1080
G1 X92.57 F9000
G1 X107.64 Y135.03 E121.221 F1080
G1 X107.62 Y135.62 F9000
G1 X93.14 Y150.11 E122.243 F1080
G1 X93.7 F9000
G1 X107.61 Y136.2 E123.225 F1080
G1 X107.63 Y136.75 F9000
G1 X94.27 Y150.11 E124.168 F1080
G1 X94.83 F9000
G1 X107.65 Y137.29 E125.072 F1080
G1 X107.71 Y137.8 F9000
G1 X95.4 Y150.11 E125.941 F1080
G1 X95.96 F9000
G1 X107.77 Y138.3 E126.774 F1080
G1 X107.86 Y138.78 F9000
G1 X96.53 Y150.11 E127.573 F1080
G1 X97.1 F9000
G1 X107.95 Y139.26 E128.338 F1080
G1 X108.06 Y139.71 F9000
G1 X97.66 Y150.11 E129.072 F1080
G1 X98.23 F9000
G1 X108.17 Y140.16 E129.774 F1080
G1 X108.32 Y140.58 F9000
G1 X98.79 Y150.11 E130.446 F1080
G1 X99.36 F9000
G1 X108.47 Y141 E131.088 F1080
G1 X108.63 Y141.4 F9000
G1 X99.92 Y150.11 E131.703 F1080
G1 X100.49 F9000
G1 X108.82 Y141.78 E132.29 F1080
G1 X109.01 Y142.15 F9000
G1 X101.06 Y150.11 E132.851 F1080
G1 X101.62 F9000
G1 X109.23 Y142.5 E133.388 F1080
G1 X109.46 Y142.84 F9000
G1 X102.19 Y150.11 E133.901 F1080
G1 X102.75 F9000
G1 X109.71 Y143.15 E134.392 F1080
G1 X109.99 Y143.44 F9000
G1 X103.32 Y150.11 E134.863 F1080
G1 X103.88 F9000
G1 X110.29 Y143.71 E135.315 F1080
G1 X110.61 Y143.94 F9000
G1 X104.45 Y150.11 E135.75 F1080
G1 X105.02 F9000
G1 X110.98 Y144.14 E136.17 F1080
G1 X111.38 Y144.31 F9000
G1 X105.58 Y150.11 E136.58 F1080
G1 X106.15 F9000
G1 X111.83 Y144.42 E136.981 F1080
G1 X112.36 Y144.46 F9000
G1 X106.71 Y150.11 E137.379 F1080
G1 X107.28 F9000
G1 X113.04 Y144.35 E137.786 F1080
G1 X114.2 Y143.75 F9000
G1 X107.84 Y150.11 E138.235 F1080
G1 X108.41 F9000
G1 X136.15 Y122.37 E140.192 F1080
G1 Y121.8 F9000
G1 X114.99 Y142.96 E141.685 F1080
G1 X115.86 Y141.53 F9000
G1 X136.15 Y121.24 E143.117 F1080
G1 Y120.67 F9000
G1 X116.23 Y140.59 E144.522 F1080
G1 X116.48 Y139.77 F9000
G1 X136.15 Y120.11 E145.91 F1080
G1 Y119.54 F9000
G1 X116.65 Y139.03 E147.285 F1080
G1 X116.77 Y138.36 F9000
G1 X136.15 Y118.97 E148.653 F1080
G1 Y118.41 F9000
G1 X116.85 Y137.71 E150.014 F1080
G1 X116.9 Y137.09 F9000
G1 X136.15 Y117.84 E151.372 F1080
G1 Y117.28 F9000
G1 X116.93 Y136.5 E152.728 F1080
G1 X116.94 Y135.93 F9000
G1 X136.15 Y116.71 E154.084 F1080
G1 X136 F9000
G1 X136.15 Y122.93
G1 X108.98 Y150.11 E156.001 F1080
G1 X109.54 F9000
G1 X136.15 Y123.5 E157.879 F1080
G1 Y124.07 F9000
G1 X110.11 Y150.11 E159.716 F1080
G1 X110.67 F9000
G1 X136.15 Y124.63 E161.514 F1080
G1 Y125.2 F9000
G1 X111.24 Y150.11 E163.271 F1080
G1 X111.8 F9000
G1 X136.15 Y125.76 E164.989 F1080
G1 Y126.33 F9000
G1 X112.37 Y150.11 E166.667 F1080
G1 X112.94 F9000
G1 X136.15 Y126.89 E168.305 F1080
G1 Y127.46 F9000
G1 X113.5 Y150.11 E169.903 F1080
G1 X114.07 F9000
G1 X136.15 Y128.02 E171.461 F1080
G1 Y128.59 F9000
G1 X114.63 Y150.11 E172.979 F1080
G1 X115.2 F9000
G1 X136.15 Y129.16 E174.458 F1080
G1 Y129.72 F9000
G1 X115.76 Y150.11 E175.896 F1080
G1 X116.33 F9000
G1 X136.15 Y130.29 E177.295 F1080
G1 Y130.85 F9000
G1 X116.9 Y150.11 E178.653 F1080
G1 X117.46 F9000
G1 X136.15 Y131.42 E179.972 F1080
G1 Y131.98 F9000
G1 X118.03 Y150.11 E181.251 F1080
G1 X118.59 F9000
G1 X136.15 Y132.55 E182.489 F1080
G1 Y133.12 F9000
G1 X119.16 Y150.11 E183.688 F1080
G1 X119.72 F9000
G1 X136.15 Y133.68 E184.847 F1080
G1 Y134.25 F9000
G1 X120.29 Y150.11 E185.966 F1080
G1 X120.86 F9000
G1 X136.15 Y134.81 E187.046 F1080
G1 Y135.38 F9000
G1 X121.42 Y150.11 E188.085 F1080
G1 X121.99 F9000
G1 X136.15 Y135.94 E189.084 F1080
G1 Y136.51 F9000
G1 X122.55 Y150.11 E190.044 F1080
G1 X123.12 F9000
G1 X136.15 Y137.08 E190.963 F1080
G1 Y137.64 F9000
G1 X123.68 Y150.11 E191.843 F1080
G1 X124.25 F9000
G1 X136.15 Y138.21 E192.683 F1080
G1 Y138.77 F9000
G1 X124.81 Y150.11 E193.482 F1080
G1 X125.38 F9000
G1 X136.15 Y139.34 E194.242 F1080
G1 Y139.9 F9000
G1 X125.95 Y150.11 E194.962 F1080
G1 X126.51 F9000
G1 X136.15 Y140.47 E195.642 F1080
G1 Y141.04 F9000
G1 X127.08 Y150.11 E196.282 F1080
G1 X127.64 F9000
G1 X136.15 Y141.6 E196.883 F1080
G1 X136.15 Y142.17 F9000
G1 X128.21 Y150.11 E197.443 F1080
G1 X128.77 F9000
G1 X136.15 Y142.73 E197.964 F1080
G1 Y143.3 F9000
G1 X129.34 Y150.11 E198.444 F1080
G1 X129.91 F9000
G1 X136.15 Y143.86 E198.885 F1080
G1 Y144.43 F9000
G1 X130.47 Y150.11 E199.285 F1080
G1 X131.04 F9000
G1 X136.15 Y144.99 E199.646 F1080
G1 Y145.56 F9000
G1 X131.6 Y150.11 E199.967 F1080
G1 X132.17 F9000
G1 X136.15 Y146.13 E200.248 F1080
G1 Y146.69 F9000
G1 X132.73 Y150.11 E200.489 F1080
G1 X133.3 F9000
G1 X136.15 Y147.26 E200.69 F1080
G1 Y147.82 F9000
G1 X133.87 Y150.11 E200.852 F1080
G1 X134.43 F9000
G1 X136.15 Y148.39 E200.973 F1080
G1 Y148.95 F9000
G1 X135 Y150.11 E201.055 F1080
G1 X135.56 F9000
G1 X136.15 Y149.52 E201.096 F1080
G1 Y150.09 F9000
G1 X136.13 Y150.11 E201.098 F1080
G1 E198.098 F1800
G1 Z0.8
G1 X135.98 Y149.96 F9000
G1 X122.04 Y116.11
G1 Z0.3
G1 E201.098 F1800
G1 X88.05 Y150.11 E203.497 F1080
G1 X87.48 F9000
G1 X121.48 Y116.11 E205.895 F1080
G1 X120.91 F9000
G1 X87.23 Y149.79 E208.272 F1080
G1 Y149.23 F9000
G1 X120.35 Y116.11 E210.608 F1080
G1 X119.78 F9000
G1 X87.23 Y148.66 E212.905 F1080
G1 Y148.09 F9000
G1 X119.22 Y116.11 E215.162 F1080
G1 X118.65 F9000
G1 X87.23 Y147.53 E217.379 F1080
G1 Y146.96 F9000
G1 X118.08 Y116.11 E219.555 F1080
G1 X117.52 F9000
G1 X87.23 Y146.4 E221.692 F1080
G1 Y145.83 F9000
G1 X116.95 Y116.11 E223.79 F1080
G1 X116.39 F9000
G1 X87.23 Y145.27 E225.847 F1080
G1 Y144.7 F9000
G1 X115.82 Y116.11 E227.864 F1080
G1 X115.26 F9000
G1 X87.23 Y144.13 E229.841 F1080
G1 Y143.57 F9000
G1 X114.69 Y116.11 E231.779 F1080
G1 X114.12 F9000
G1 X87.23 Y143 E233.676 F1080
G1 Y142.44 F9000
G1 X113.56 Y116.11 E235.534 F1080
G1 X112.99 F9000
G1 X87.23 Y141.87 E237.352 F1080
G1 Y141.31 F9000
G1 X112.43 Y116.11 E239.129 F1080
G1 X111.86 F9000
G1 X87.23 Y140.74 E240.867 F1080
G1 Y140.17 F9000
G1 X111.3 Y116.11 E242.565 F1080
G1 X110.73 F9000
G1 X87.23 Y139.61 E244.223 F1080
G1 Y139.04 F9000
G1 X110.17 Y116.11 E245.842 F1080
G1 X109.6 F9000
G1 X87.23 Y138.48 E247.42 F1080
G1 Y137.91 F9000
G1 X109.03 Y116.11 E248.958 F1080
G1 X108.47 F9000
G1 X87.23 Y137.35 E250.457 F1080
G1 Y136.78 F9000
G1 X107.9 Y116.11 E251.915 F1080
G1 X107.34 F9000
G1 X87.23 Y136.21 E253.334 F1080
G1 Y135.65 F9000
G1 X106.77 Y116.11 E254.713 F1080
G1 X106.21 F9000
G1 X87.23 Y135.08 E256.051 F1080
G1 Y134.52 F9000
G1 X105.64 Y116.11 E257.35 F1080
G1 X105.07 F9000
G1 X87.23 Y133.95 E258.609 F1080
G1 Y133.39 F9000
G1 X104.51 Y116.11 E259.828 F1080
G1 X103.94 F9000
G1 X87.23 Y132.82 E261.007 F1080
G1 Y132.25 F9000
G1 X103.38 Y116.11 E262.147 F1080
G1 X102.81 F9000
G1 X87.23 Y131.69 E263.246 F1080
G1 Y131.12 F9000
G1 X102.25 Y116.11 E264.305 F1080
G1 X101.68 F9000
G1 X87.23 Y130.56 E265.325 F1080
G1 Y129.99 F9000
G1 X101.11 Y116.11 E266.304 F1080
G1 X100.55 F9000
G1 X87.23 Y129.43 E267.244 F1080
G1 Y128.86 F9000
G1 X99.98 Y116.11 E268.144 F1080
G1 X99.42 F9000
G1 X87.23 Y128.29 E269.003 F1080
G1 Y127.73 F9000
G1 X98.85 Y116.11 E269.823 F1080
G1 X98.29 F9000
G1 X87.23 Y127.16 E270.603 F1080
G1 Y126.6 F9000
G1 X97.72 Y116.11 E271.343 F1080
G1 X97.16 F9000
G1 X87.23 Y126.03 E272.043 F1080
G1 Y125.47 F9000
G1 X96.59 Y116.11 E272.704 F1080
G1 X96.02 F9000
G1 X87.23 Y124.9 E273.324 F1080
G1 Y124.33 F9000
G1 X95.46 Y116.11 E273.904 F1080
G1 X94.89 F9000
G1 X87.23 Y123.77 E274.445 F1080
G1 Y123.2 F9000
G1 X94.33 Y116.11 E274.946 F1080
G1 X93.76 F9000
G1 X87.23 Y122.64 E275.406 F1080
G1 Y122.07 F9000
G1 X93.2 Y116.11 E275.827 F1080
G1 X92.63 F9000
G1 X87.23 Y121.51 E276.208 F1080
G1 Y120.94 F9000
G1 X92.06 Y116.11 E276.549 F1080
G1 X91.5 F9000
G1 X87.23 Y120.38 E276.85 F1080
G1 Y119.81 F9000
G1 X90.93 Y116.11 E277.111 F1080
G1 X90.37 F9000
G1 X87.23 Y119.24 E277.332 F1080
G1 Y118.68 F9000
G1 X89.8 Y116.11 E277.513 F1080
G1 X89.24 F9000
G1 X87.23 Y118.11 E277.655 F1080
G1 Y117.55 F9000
G1 X88.67 Y116.11 E277.756 F1080
G1 X88.1 F9000
G1 X87.23 Y116.98 E277.818 F1080
G1 Y116.42 F9000
G1 X87.54 Y116.11 E277.84 F1080
G1 E274.84 F1800
G1 Z0.8
G1 X109.91 Y130.3 F9000
G1 X111.14 Y131.71
; TYPE:SUPPORT
G1 Z0.3
G1 E277.84 F1800
G1 X111.6 Y131.31 E277.87 F1080
G1 X112.03 Y131.11 E277.893
G1 X112.3 Y131.08 E277.907
G1 X112.7 Y131.18 E277.928
G1 X113.14 Y131.44 E277.953
G1 X113.6 Y131.94 E277.987
G1 X114.04 Y132.63 E278.028
G1 X114.55 Y133.85 E278.094
G1 X114.94 Y135.52 E278.179
G1 X115.06 Y136.96 E278.251
G1 X114.85 Y138.68 E278.338
G1 X114.42 Y140.21 E278.417
G1 X114.15 Y140.85 E278.452
G1 X113.62 Y141.72 E278.503
G1 X113.13 Y142.25 E278.539
G1 X112.66 Y142.53 E278.566
G1 X112.27 Y142.6 E278.586
G1 X111.88 Y142.53 E278.605
G1 X111.41 Y142.24 E278.633
G1 X110.92 Y141.72 E278.669
G1 X110.42 Y140.87 E278.718
G1 X109.94 Y139.64 E278.784
G1 X109.59 Y138.07 E278.864
G1 X109.49 Y136.64 E278.935
G1 X109.69 Y135.06 E279.015
G1 X110.15 Y133.44 E279.099
G1 X110.68 Y132.34 E279.16
G1 X111.14 Y131.71 E279.199
G1 X111.59 Y131.95 F9000
G1 X114.23 Y134.59 E279.385 F1080
G1 X114.4 Y135.33 F9000
G1 X111.33 Y132.26 E279.601 F1080
G1 X111.09 Y132.59 F9000
G1 X114.5 Y135.99 E279.842 F1080
G1 X114.55 Y136.61 F9000
G1 X110.91 Y132.97 E280.099 F1080
G1 X110.72 Y133.35 F9000
G1 X114.55 Y137.18 E280.369 F1080
G1 X114.49 Y137.68 F9000
G1 X110.56 Y133.75 E280.646 F1080
G1 X110.44 Y134.19 F9000
G1 X114.43 Y138.18 E280.927 F1080
G1 X114.35 Y138.67 F9000
G1 X110.31 Y134.64 E281.212 F1080
G1 X110.19 Y135.08 F9000
G1 X114.23 Y139.12 E281.497 F1080
G1 X114.1 Y139.56 F9000
G1 X110.11 Y135.57 E281.779 F1080
G1 X110.05 Y136.07 F9000
G1 X113.98 Y140 E282.056 F1080
G1 X113.81 Y140.4 F9000
G1 X109.98 Y136.57 E282.327 F1080
G1 X110.01 Y137.16 F9000
G1 X113.63 Y140.78 E282.582 F1080
G1 X113.41 Y141.13 F9000
G1 X110.05 Y137.77 E282.819 F1080
G1 X110.17 Y138.45 F9000
G1 X113.19 Y141.48 E283.033 F1080
G1 X112.92 Y141.77 F9000
G1 X110.33 Y139.18 E283.215 F1080
G1 X110.6 Y140.02 F9000
G1 X112.59 Y142.01 E283.356 F1080
G1 X112.1 Y142.08 F9000
G1 X111.11 Y141.09 E283.426 F1080
G1 X114.01 Y133.81 F9000
G1 X111.9 Y131.7 E283.574 F1080
G1 X112.35 Y131.59 F9000
G1 X113.59 Y132.83 E283.662 F1080
G1 E280.662 F1800
G1 Z0.8
G1 X106.18 Y104.5 F9000
G1 Z0.3
G1 E283.662 F1800
G1 X105.74 Y104.46 E283.684 F1080
G1 X105.08 Y104.03 E283.723
G1 X104.57 Y103.42 E283.763
G1 X103.82 Y102.05 E283.841
G1 X103.2 E283.872
G1 Y101.7 E283.889
G1 X109.81 E284.219
G1 Y102.05 E284.237
G1 X108.28 E284.313
G1 X107.81 Y103.01 E284.366
G1 X107.3 Y103.76 E284.412
G1 X106.8 Y104.24 E284.446
G1 X106.18 Y104.5 E284.479
G1 X106.22 Y103.96 F9000
G1 X104.44 Y102.17 E284.605 F1080
G1 X105 F9000
G1 X106.6 Y103.77 E284.718 F1080
G1 X106.89 Y103.49 F9000
G1 X105.57 Y102.17 E284.811 F1080
G1 X106.13 F9000
G1 X107.12 Y103.16 E284.881 F1080
G1 X107.35 Y102.82 F9000
G1 X106.7 Y102.17 E284.926 F1080
G1 X107.27 F9000
G1 X107.54 Y102.45 E284.946 F1080
G1 E281.946 F1800
G1 Z0.8
G1 X112.1 Y129.54 F9000
; TYPE:SUPPORT-INTERFACE
G1 Z0.3
G1 E284.946 F1800
G1 X112.38 Y129.52 E284.96 F1080
G1 X113.02 Y129.8 E284.995
G1 X113.51 Y130.26 E285.028
G1 X113.99 Y130.98 E285.071
G1 X114.43 Y131.96 E285.125
G1 X114.85 Y133.48 E285.204
G1 X114.87 Y133.58 E285.209
G1 X114.4 Y132.45 E285.27
G1 X113.92 Y131.69 E285.315
G1 X113.39 Y131.13 E285.353
G1 X112.86 Y130.8 E285.384
G1 X112.33 Y130.68 E285.411
G1 X111.92 Y130.72 E285.432
G1 X111.38 Y130.97 E285.461
G1 X110.84 Y131.44 E285.497
G1 X110.33 Y132.13 E285.54
G1 X109.77 Y133.3 E285.605
G1 X109.67 Y133.68 E285.624
G1 X109.78 Y133.09 E285.654
G1 X110.24 Y131.65 E285.73
G1 X110.68 Y130.78 E285.779
G1 X111.18 Y130.11 E285.821
G1 X111.66 Y129.71 E285.851
G1 X112.1 Y129.54 E285.875
G1 X112.03 Y130.08 F9000
G1 X112.18 Y130.21 E285.885 F1080
G1 X112.56 Y130.12 E285.904
G1 E282.904 F1800
G1 Z0.8
G1 X137.99 Y115.81 F9000
G1 Z0.3
G1 E285.904 F1800
G1 Y114.27 E285.981 F1080
G1 X85.39 E288.605
G1 Y115.81 E288.681
G1 X85.2 E288.691
G1 Y112.2 E288.871
G1 X138.31 E291.521
G1 Y115.81 E291.701
G1 X137.99 E291.717
G1 X137.38 Y113.79 F9000
G1 X137.82 Y113.34 E291.748 F1080
G1 Y112.77 F9000
G1 X136.81 Y113.79 E291.82 F1080
G1 X136.24 F9000
G1 X137.36 Y112.68 E291.898 F1080
G1 X136.79 F9000
G1 X135.68 Y113.79 E291.977 F1080
G1 X135.11 F9000
G1 X136.23 Y112.68 E292.056 F1080
G1 X135.66 F9000
G1 X134.55 Y113.79 E292.134 F1080
G1 X133.98 F9000
G1 X135.09 Y112.68 E292.213 F1080
G1 X134.53 F9000
G1 X133.42 Y113.79 E292.291 F1080
G1 X132.85 F9000
G1 X133.96 Y112.68 E292.37 F1080
G1 X133.4 F9000
G1 X132.28 Y113.79 E292.448 F1080
G1 X131.72 F9000
G1 X132.83 Y112.68 E292.527 F1080
G1 X132.27 F9000
G1 X131.15 Y113.79 E292.605 F1080
G1 X130.59 F9000
G1 X131.7 Y112.68 E292.684 F1080
G1 X131.14 F9000
G1 X130.02 Y113.79 E292.762 F1080
G1 X129.46 F9000
G1 X130.57 Y112.68 E292.841 F1080
G1 X130 F9000
G1 X128.89 Y113.79 E292.919 F1080
G1 X128.33 F9000
G1 X129.44 Y112.68 E292.998 F1080
G1 X128.87 F9000
G1 X127.76 Y113.79 E293.076 F1080
G1 X127.19 F9000
G1 X128.31 Y112.68 E293.155 F1080
G1 X127.74 F9000
G1 X126.63 Y113.79 E293.233 F1080
G1 X126.06 F9000
G1 X127.18 Y112.68 E293.312 F1080
G1 X126.61 F9000
G1 X125.5 Y113.79 E293.39 F1080
G1 X124.93 F9000
G1 X126.04 Y112.68 E293.469 F1080
G1 X125.48 F9000
G1 X124.37 Y113.79 E293.548 F1080
G1 X123.8 F9000
G1 X124.91 Y112.68 E293.626 F1080
G1 X124.35 Y112.67 F9000
G1 X123.23 Y113.79 E293.705 F1080
G1 X122.67 F9000
G1 X123.78 Y112.67 E293.783 F1080
G1 X123.22 F9000
G1 X122.1 Y113.79 E293.862 F1080
G1 X121.54 F9000
G1 X122.65 Y112.67 E293.94 F1080
G1 X122.08 F9000
G1 X120.97 Y113.79 E294.019 F1080
G1 X120.41 F9000
G1 X121.52 Y112.67 E294.098 F1080
G1 X120.95 F9000
G1 X119.84 Y113.79 E294.176 F1080
G1 X119.27 F9000
G1 X120.39 Y112.67 E294.255 F1080
G1 X119.82 F9000
G1 X118.71 Y113.79 E294.333 F1080
G1 X118.14 F9000
G1 X119.26 Y112.67 E294.412 F1080
G1 X118.69 F9000
G1 X117.58 Y113.79 E294.491 F1080
G1 X117.01 F9000
G1 X118.13 Y112.67 E294.569 F1080
G1 X117.56 F9000
G1 X116.45 Y113.79 E294.648 F1080
G1 X115.88 F9000
G1 X116.99 Y112.67 E294.726 F1080
G1 X116.43 F9000
G1 X115.31 Y113.79 E294.805 F1080
G1 X114.75 F9000
G1 X115.86 Y112.67 E294.883 F1080
G1 X115.3 F9000
G1 X114.18 Y113.79 E294.962 F1080
G1 X113.62 F9000
G1 X114.73 Y112.67 E295.041 F1080
G1 X114.17 F9000
G1 X113.05 Y113.79 E295.119 F1080
G1 X112.49 F9000
G1 X113.6 Y112.67 E295.198 F1080
G1 X113.03 F9000
G1 X111.92 Y113.79 E295.276 F1080
G1 X111.35 F9000
G1 X112.47 Y112.67 E295.355 F1080
G1 X111.9 F9000
G1 X110.79 Y113.79 E295.434 F1080
G1 X110.22 F9000
G1 X111.34 Y112.67 E295.512 F1080
G1 X110.77 F9000
G1 X109.66 Y113.79 E295.591 F1080
G1 X109.09 F9000
G1 X110.21 Y112.67 E295.669 F1080
G1 X109.64 F9000
G1 X108.53 Y113.79 E295.748 F1080
G1 X107.96 F9000
G1 X109.07 Y112.67 E295.827 F1080
G1 X108.51 F9000
G1 X107.39 Y113.79 E295.905 F1080
G1 X106.83 F9000
G1 X107.94 Y112.67 E295.984 F1080
G1 X107.38 F9000
G1 X106.26 Y113.79 E296.062 F1080
G1 X105.7 F9000
G1 X106.81 Y112.67 E296.141 F1080
G1 X106.25 F9000
G1 X105.13 Y113.79 E296.219 F1080
G1 X104.57 F9000
G1 X105.68 Y112.67 E296.298 F1080
G1 X105.11 F9000
G1 X104 Y113.79 E296.377 F1080
G1 X103.43 F9000
G1 X104.55 Y112.67 E296.455 F1080
G1 X103.98 F9000
G1 X102.87 Y113.79 E296.534 F1080
G1 X102.3 F9000
G1 X103.42 Y112.67 E296.612 F1080
G1 X102.85 F9000
G1 X101.74 Y113.79 E296.691 F1080
G1 X101.17 F9000
G1 X102.29 Y112.67 E296.77 F1080
G1 X101.72 F9000
G1 X100.61 Y113.79 E296.848 F1080
G1 X100.04 F9000
G1 X101.15 Y112.67 E296.927 F1080
G1 X100.59 F9000
G1 X99.48 Y113.79 E297.005 F1080
G1 X98.91 F9000
G1 X100.02 Y112.67 E297.084 F1080
G1 X99.46 F9000
G1 X98.34 Y113.79 E297.163 F1080
G1 X97.78 F9000
G1 X98.89 Y112.67 E297.241 F1080
G1 X98.33 Y112.67 F9000
G1 X97.21 Y113.79 E297.32 F1080
G1 X96.65 F9000
G1 X97.76 Y112.67 E297.398 F1080
G1 X97.2 F9000
G1 X96.08 Y113.79 E297.477 F1080
G1 X95.52 F9000
G1 X96.63 Y112.67 E297.556 F1080
G1 X96.06 F9000
G1 X94.95 Y113.79 E297.634 F1080
G1 X94.38 F9000
G1 X95.5 Y112.67 E297.713 F1080
G1 X94.93 F9000
G1 X93.82 Y113.79 E297.792 F1080
G1 X93.25 F9000
G1 X94.37 Y112.67 E297.87 F1080
G1 X93.8 F9000
G1 X92.69 Y113.79 E297.949 F1080
G1 X92.12 F9000
G1 X93.24 Y112.67 E298.028 F1080
G1 X92.67 F9000
G1 X91.56 Y113.79 E298.106 F1080
G1 X90.99 F9000
G1 X92.1 Y112.67 E298.185 F1080
G1 X91.54 F9000
G1 X90.42 Y113.79 E298.264 F1080
G1 X89.86 F9000
G1 X90.97 Y112.67 E298.342 F1080
G1 X90.41 F9000
G1 X89.29 Y113.79 E298.421 F1080
G1 X88.73 F9000
G1 X89.84 Y112.67 E298.499 F1080
G1 X89.28 F9000
G1 X88.16 Y113.79 E298.578 F1080
G1 X87.6 F9000
G1 X88.71 Y112.67 E298.657 F1080
G1 X88.14 F9000
G1 X87.03 Y113.79 E298.735 F1080
G1 X86.46 F9000
G1 X87.58 Y112.67 E298.814 F1080
G1 X87.01 F9000
G1 X85.9 Y113.79 E298.893 F1080
G1 X85.68 Y113.45 F9000
G1 X86.45 Y112.67 E298.947 F1080
G1 X85.88 F9000
G1 X85.68 Y112.88 E298.962 F1080
; Layer Change GCode
; LAYER:1
; LAYER_HEIGHT:0.3
; TYPE:FILL
G1 E295.962 F1800
G1 Z0.8
G1 X86.21 Y112.6 Z1.1 F9000
G1 X91.29 Y109.95
G1 X92.19 Y109.06
G1 X91.89 Y109.35
; TYPE:WALL-INNER
G1 Z0.6
G1 E298.962 F1800
G1 Y103.55 E299.251 F3600
G1 X95.49 E299.43
G1 X99.08 E299.61
G1 X102.68 E299.789
G1 X102.78 Y103.79 E299.802
G1 X103.14 Y104.49 E299.842
G1 X103.49 Y105.02 E299.873
G1 X103.84 Y105.44 E299.9
G1 X104.26 Y105.84 E299.93
G1 X104.66 Y106.13 E299.954
G1 X105.11 Y106.36 E299.979
G1 X105.58 Y106.5 E300.004
G1 X106.07 Y106.55 E300.028
G1 X106.55 Y106.5 E300.052
G1 X107.02 Y106.36 E300.077
G1 X107.47 Y106.13 E300.102
G1 X107.87 Y105.84 E300.126
G1 X108.24 Y105.49 E300.152
G1 X108.63 Y105.02 E300.182
G1 X108.99 Y104.49 E300.214
G1 X109.35 Y103.79 E300.254
G1 X109.45 Y103.55 E300.267
G1 X113.97 E300.493
G1 X118.5 E300.718
G1 X123.02 E300.944
G1 X127.54 E301.169
G1 X132.06 E301.395
G1 X136.59 E301.62
G1 X141.11 E301.846
G1 Y109.35 E302.135
G1 X136.19 E302.38
G1 X131.27 E302.626
G1 X126.36 E302.871
G1 X121.44 E303.117
G1 X116.52 E303.362
G1 X111.6 E303.607
G1 X106.68 E303.853
G1 X101.77 E304.098
G1 X96.85 E304.344
G1 X91.93 E304.589
G1 X91.89
G1 X91.49 Y109.75 F9000
; TYPE:WALL-OUTER
G1 Y106.45 E304.754 F3000
G1 Y103.15 E304.918
G1 X95.31 E305.109
G1 X99.13 E305.299
G1 X102.95 E305.49
G1 X103.14 Y103.62 E305.515
G1 X103.49 Y104.29 E305.552
G1 X103.82 Y104.78 E305.582
G1 X104.13 Y105.17 E305.607
G1 X104.52 Y105.53 E305.634
G1 X104.87 Y105.79 E305.655
G1 X105.26 Y105.98 E305.677
G1 X105.66 Y106.1 E305.698
G1 X106.07 Y106.14 E305.718
G1 X106.47 Y106.1 E305.739
G1 X106.87 Y105.98 E305.759
G1 X107.26 Y105.79 E305.781
G1 X107.61 Y105.53 E305.803
G1 X107.95 Y105.22 E305.826
G1 X108.31 Y104.79 E305.854
G1 X108.64 Y104.29 E305.884
G1 X108.99 Y103.62 E305.921
G1 X109.19 Y103.15 E305.947
G1 X113.81 E306.177
G1 X118.42 E306.408
G1 X123.04 E306.638
G1 X127.66 E306.868
G1 X132.28 E307.098
G1 X136.89 E307.329
G1 X141.51 E307.559
G1 Y106.45 E307.724
G1 Y109.75 E307.889
G1 X136.51 E308.138
G1 X131.51 E308.388
G1 X126.52 E308.637
G1 X121.52 E308.886
G1 X116.52 E309.136
G1 X111.52 E309.385
G1 X106.52 E309.634
G1 X101.53 E309.883
G1 X96.53 E310.133
G1 X91.53 E310.382
G1 X91.49
G1 Y106.75
G1 X91.89 Y109.35 F9000
G1 X92.6 Y109.01
; TYPE:FILL
G1 X92.23 Y108.64 E310.408 F3600
G1 Y108.07 F9000
G1 X93.17 Y109.01 E310.475 F3600
G1 X93.74 F9000
G1 X92.23 Y107.5 E310.581 F3600
G1 Y106.94 F9000
G1 X94.3 Y109.01 E310.727 F3600
G1 X94.87 F9000
G1 X92.23 Y106.37 E310.913 F3600
G1 Y105.81 F9000
G1 X95.43 Y109.01 E311.139 F3600
G1 X96 F9000
G1 X92.23 Y105.24 E311.404 F3600
G1 Y104.68 F9000
G1 X94.4 Y106.85 E311.557 F3600
G1 X96.56 Y109.01 E311.71
G1 X97.13 F9000
G1 X94.68 Y106.56 E311.883 F3600
G1 X92.23 Y104.11 E312.056
G1 X92.58 Y103.89 F9000
G1 X95.14 Y106.45 E312.237 F3600
G1 X97.7 Y109.01 E312.417
G1 X98.26 F9000
G1 X95.7 Y106.45 E312.598 F3600
G1 X93.14 Y103.89 E312.778
G1 X93.71 F9000
G1 X96.27 Y106.45 E312.959 F3600
G1 X98.83 Y109.01 E313.139
G1 X99.39 F9000
G1 X96.83 Y106.45 E313.32 F3600
G1 X94.27 Y103.89 E313.501
G1 X94.84 F9000
G1 X97.4 Y106.45 E313.682 F3600
G1 X99.96 Y109.01 E313.862
G1 X100.52 F9000
G1 X97.96 Y106.45 E314.043 F3600
G1 X95.4 Y103.89 E314.223
G1 X95.97 F9000
G1 X98.53 Y106.45 E314.404 F3600
G1 X101.09 Y109.01 E314.584
G1 X101.66 F9000
G1 X99.1 Y106.45 E314.765 F3600
G1 X96.54 Y103.89 E314.945
G1 X97.1 F9000
G1 X99.66 Y106.45 E315.126 F3600
G1 X102.22 Y109.01 E315.307
G1 X102.79 F9000
G1 X100.23 Y106.45 E315.488 F3600
G1 X97.67 Y103.89 E315.668
G1 X98.23 F9000
G1 X100.79 Y106.45 E315.849 F3600
G1 X103.35 Y109.01 E316.029
G1 X103.92 F9000
G1 X101.36 Y106.45 E316.21 F3600
G1 X98.8 Y103.89 E316.39
G1 X99.36 F9000
G1 X101.92 Y106.45 E316.571 F3600
G1 X104.48 Y109.01 E316.751
G1 X105.05 F9000
G1 X102.49 Y106.45 E316.932 F3600
G1 X99.93 Y103.89 E317.112
G1 X100.5 F9000
G1 X103.06 Y106.45 E317.293 F3600
G1 X105.61 Y109.01 E317.474
G1 X106.18 F9000
G1 X103.62 Y106.45 E317.655 F3600
G1 X101.06 Y103.89 E317.835
G1 X101.63 F9000
G1 X104.19 Y106.45 E318.016 F3600
G1 X106.75 Y109.01 E318.196
G1 X107.31 F9000
G1 X104.96 Y106.66 E318.362 F3600
G1 X105.72 Y106.85 F9000
G1 X107.88 Y109.01 E318.514 F3600
G1 X108.44 F9000
G1 X106.3 Y106.86 E318.665 F3600
G1 X106.78 Y106.78 F9000
G1 X109.01 Y109.01 E318.822 F3600
G1 X109.57 F9000
G1 X107.21 Y106.64 E318.989 F3600
G1 X107.58 Y106.45 F9000
G1 X110.14 Y109.01 E319.17 F3600
G1 X110.71 F9000
G1 X107.92 Y106.22 E319.366 F3600
G1 X108.23 Y105.97 F9000
G1 X111.27 Y109.01 E319.581 F3600
G1 X111.84 F9000
G1 X108.52 Y105.69 E319.815 F3600
G1 X108.78 Y105.38 F9000
G1 X112.4 Y109.01 E320.071 F3600
G1 X112.97 F9000
G1 X109.02 Y105.06 E320.35 F3600
G1 X109.24 Y104.72 F9000
G1 X111.39 Y106.87 E320.502 F3600
G1 X113.53 Y109.01 E320.653
G1 X114.1 F9000
G1 X111.77 Y106.68 E320.817 F3600
G1 X109.44 Y104.35 E320.981
G1 X109.64 Y103.98 F9000
G1 X112.16 Y106.5 E321.159 F3600
G1 X114.67 Y109.01 E321.336
G1 X115.23 F9000
G1 X112.67 Y106.45 E321.517 F3600
G1 X110.11 Y103.89 E321.697
G1 X110.68 F9000
G1 X113.24 Y106.45 E321.878 F3600
G1 X115.8 Y109.01 E322.058
G1 X116.36 F9000
G1 X113.8 Y106.45 E322.239 F3600
G1 X111.24 Y103.89 E322.419
G1 X111.81 F9000
G1 X114.37 Y106.45 E322.6 F3600
G1 X116.93 Y109.01 E322.781
G1 X117.49 F9000
G1 X114.94 Y106.45 E322.962 F3600
G1 X112.38 Y103.89 E323.142
G1 X112.94 F9000
G1 X115.5 Y106.45 E323.323 F3600
G1 X118.06 Y109.01 E323.503
G1 X118.63 F9000
G1 X116.07 Y106.45 E323.684 F3600
G1 X113.51 Y103.89 E323.864
G1 X114.07 F9000
G1 X116.63 Y106.45 E324.045 F3600
G1 X119.19 Y109.01 E324.225
G1 X119.76 F9000
G1 X117.2 Y106.45 E324.406 F3600
G1 X114.64 Y103.89 E324.587
G1 X115.2 F9000
G1 X117.76 Y106.45 E324.768 F3600
G1 X120.32 Y109.01 E324.948
G1 X120.89 F9000
G1 X118.33 Y106.45 E325.129 F3600
G1 X115.77 Y103.89 E325.309
G1 X116.34 F9000
G1 X118.9 Y106.45 E325.49 F3600
G1 X121.45 Y109.01 E325.67
G1 X122.02 F9000
G1 X119.46 Y106.45 E325.851 F3600
G1 X116.9 Y103.89 E326.031
G1 X117.47 F9000
G1 X120.03 Y106.45 E326.212 F3600
G1 X122.59 Y109.01 E326.392
G1 X123.15 F9000
G1 X120.59 Y106.45 E326.573 F3600
G1 X118.03 Y103.89 E326.754
G1 X118.6 F9000
G1 X121.16 Y106.45 E326.935 F3600
G1 X123.72 Y109.01 E327.115
G1 X124.28 F9000
G1 X121.72 Y106.45 E327.296 F3600
G1 X119.16 Y103.89 E327.476
G1 X119.73 F9000
G1 X122.29 Y106.45 E327.657 F3600
G1 X124.85 Y109.01 E327.837
G1 X125.41 F9000
G1 X122.86 Y106.45 E328.018 F3600
G1 X120.3 Y103.89 E328.198
G1 X120.86 F9000
G1 X123.42 Y106.45 E328.379 F3600
G1 X125.98 Y109.01 E328.56
G1 X126.55 F9000
G1 X123.99 Y106.45 E328.741 F3600
G1 X121.43 Y103.89 E328.921
G1 X121.99 F9000
G1 X124.55 Y106.45 E329.102 F3600
G1 X127.11 Y109.01 E329.282
G1 X127.68 F9000
G1 X125.12 Y106.45 E329.463 F3600
G1 X122.56 Y103.89 E329.643
G1 X123.12 F9000
G1 X125.68 Y106.45 E329.824 F3600
G1 X128.24 Y109.01 E330.004
G1 X128.81 F9000
G1 X126.25 Y106.45 E330.185 F3600
G1 X123.69 Y103.89 E330.366
G1 X124.25 F9000
G1 X126.81 Y106.45 E330.547 F3600
G1 X129.37 Y109.01 E330.727
G1 X129.94 F9000
G1 X127.38 Y106.45 E330.908 F3600
G1 X124.82 Y103.89 E331.088
G1 X125.39 F9000
G1 X127.95 Y106.45 E331.269 F3600
G1 X130.51 Y109.01 E331.449
G1 X131.07 F9000
G1 X128.51 Y106.45 E331.63 F3600
G1 X125.95 Y103.89 E331.81
G1 X126.52 F9000
G1 X129.08 Y106.45 E331.991 F3600
G1 X131.64 Y109.01 E332.172
G1 X132.2 F9000
G1 X129.64 Y106.45 E332.353 F3600
G1 X127.08 Y103.89 E332.533
G1 X127.65 F9000
G1 X130.21 Y106.45 E332.714 F3600
G1 X132.77 Y109.01 E332.894
G1 X133.33 F9000
G1 X130.77 Y106.45 E333.075 F3600
G1 X128.21 Y103.89 E333.255
G1 X128.78 F9000
G1 X131.34 Y106.45 E333.436 F3600
G1 X133.9 Y109.01 E333.616
G1 X134.47 F9000
G1 X131.91 Y106.45 E333.797 F3600
G1 X129.35 Y103.89 E333.977
G1 X129.91 F9000
G1 X132.47 Y106.45 E334.158 F3600
G1 X135.03 Y109.01 E334.339
G1 X135.6 F9000
G1 X133.04 Y106.45 E334.52 F3600
G1 X130.48 Y103.89 E334.7
G1 X131.04 F9000
G1 X133.6 Y106.45 E334.881 F3600
G1 X136.16 Y109.01 E335.061
G1 X136.73 F9000
G1 X134.17 Y106.45 E335.242 F3600
G1 X131.61 Y103.89 E335.422
G1 X132.17 F9000
G1 X134.73 Y106.45 E335.603 F3600
G1 X137.29 Y109.01 E335.783
G1 X137.86 F9000
G1 X135.3 Y106.45 E335.964 F3600
G1 X132.74 Y103.89 E336.145
G1 X133.31 F9000
G1 X135.87 Y106.45 E336.326 F3600
G1 X138.43 Y109.01 E336.506
G1 X138.99 F9000
G1 X136.43 Y106.45 E336.687 F3600
G1 X133.87 Y103.89 E336.867
G1 X134.44 F9000
G1 X137 Y106.45 E337.048 F3600
G1 X139.56 Y109.01 E337.228
G1 X140.12 F9000
G1 X137.56 Y106.45 E337.409 F3600
G1 X135 Y103.89 E337.589
G1 X135.57 F9000
G1 X138.13 Y106.45 E337.77 F3600
G1 X140.69 Y109.01 E337.951
G1 X140.77 Y108.52 F9000
G1 X138.45 Y106.21 E338.114 F3600
G1 X136.13 Y103.89 E338.277
G1 X136.7 F9000
G1 X140.77 Y107.96 E338.564 F3600
G1 Y107.39 F9000
G1 X137.27 Y103.89 E338.811 F3600
G1 X137.83 F9000
G1 X140.77 Y106.83 E339.019 F3600
G1 Y106.26 F9000
G1 X138.4 Y103.89 E339.186 F3600
G1 X138.96 F9000
G1 X140.77 Y105.69 E339.313 F3600
G1 Y105.13 F9000
G1 X139.53 Y103.89 E339.401 F3600
G1 X140.09 F9000
G1 X140.77 Y104.56 E339.448 F3600
G1 Y104 F9000
G1 X140.66 Y103.89 E339.456 F3600
G1 E336.456 F1800
G1 Z1.1
G1 X132.35 Y104.42 F9000
G1 X124.05 Y104.96
G1 X115.74 Y105.49
G1 X107.43 Y106.02
G1 X106.07 Y106.84
G1 X104.19 Y105.83
G1 X102.72 Y104.42
G1 Z0.6
G1 E339.456 F1800
G1 X102.19 Y103.89 E339.493 F3600
G1 E336.493 F1800
G1 Z1.1
G1 X92.93 Y108.89 F9000
G1 X92.29 Y108.9
G1 X91.29 Y109.95
G1 X90.85 Y110.35
G1 X87.2 Y113.52
G1 X86.75 Y113.48
G1 X86.29 Y114.5
G1 X87.19 Y115.4
G1 X86.89 Y115.1
; TYPE:WALL-INNER
G1 Z0.6
G1 E339.493 F1800
G1 X91.85 E339.741 F3600
G1 X96.81 E339.988
G1 X101.77 E340.236
G1 X106.73 E340.483
G1 X111.69 E340.731
G1 X116.65 E340.978
G1 X121.61 E341.226
G1 X126.57 E341.473
G1 X131.53 E341.721
G1 X136.49 E341.968
G1 Y119.52 E342.188
G1 Y123.94 E342.409
G1 Y128.36 E342.629
G1 Y132.78 E342.85
G1 Y137.19 E343.07
G1 Y141.61 E343.29
G1 Y146.03 E343.511
G1 Y150.45 E343.731
G1 X131.53 E343.979
G1 X126.57 E344.226
G1 X121.61 E344.474
G1 X116.65 E344.721
G1 X111.69 E344.969
G1 X106.73 E345.216
G1 X101.77 E345.464
G1 X96.81 E345.711
G1 X91.85 E345.959
G1 X86.89 E346.206
G1 Y146.04 E346.426
G1 Y141.62 E346.647
G1 Y137.21 E346.867
G1 Y132.8 E347.087
G1 Y128.38 E347.307
G1 Y123.97 E347.528
G1 Y119.55 E347.748
G1 Y115.14 E347.968
G1 Y115.1
G1 X86.49 Y114.7 F9000
; TYPE:WALL-OUTER
G1 X91.07 E348.197 F3000
G1 X95.65 E348.425
G1 X100.24 E348.654
G1 X104.82 E348.882
G1 X109.4 E349.111
G1 X113.98 E349.339
G1 X118.56 E349.568
G1 X123.14 E349.796
G1 X127.73 E350.025
G1 X132.31 E350.253
G1 X136.89 E350.482
G1 Y119.22 E350.708
G1 Y123.74 E350.933
G1 Y128.26 E351.159
G1 Y132.78 E351.384
G1 Y137.29 E351.61
G1 Y141.81 E351.835
G1 Y146.33 E352.061
G1 Y150.85 E352.286
G1 X132.31 E352.515
G1 X127.73 E352.743
G1 X123.14 E352.972
G1 X118.56 E353.2
G1 X113.98 E353.429
G1 X109.4 E353.657
G1 X104.82 E353.886
G1 X100.24 E354.114
G1 X95.65 E354.343
G1 X91.07 E354.571
G1 X86.49 E354.8
G1 Y146.34 E355.025
G1 Y141.82 E355.251
G1 Y137.31 E355.476
G1 Y132.8 E355.701
G1 Y128.28 E355.926
G1 Y123.77 E356.152
G1 Y119.25 E356.377
G1 Y114.74 E356.602
G1 Y114.7
G1 X89.49
G1 X86.89 Y115.1 F9000
G1 E353.602 F1800
G1 Z1.1
G1 X87.19 Y115.4 F9000
G1 X95.3 Y119.81
G1 X103.42 Y124.23
G1 X111.53 Y128.64
; TYPE:WALL-INNER
G1 Z0.6
G1 E356.602 F1800
G1 X111.08 Y128.82 E356.626 F3600
G1 X110.66 Y129.08 E356.65
G1 X110.27 Y129.4 E356.676
G1 X109.91 Y129.79 E356.702
G1 X109.58 Y130.23 E356.73
G1 X109.27 Y130.72 E356.758
G1 X108.95 Y131.37 E356.795
G1 X108.63 Y132.18 E356.838
G1 X108.38 Y133 E356.881
G1 X108.17 Y134.01 E356.933
G1 X108.03 Y134.97 E356.981
G1 X107.96 Y135.9 E357.027
G1 X107.95 Y136.96 E357.08
G1 X108.02 Y138.12 E357.138
G1 X108.16 Y139.1 E357.188
G1 X108.33 Y139.97 E357.232
G1 X108.56 Y140.77 E357.273
G1 X108.84 Y141.56 E357.315
G1 X109.13 Y142.19 E357.35
G1 X109.53 Y142.87 E357.389
G1 X109.86 Y143.32 E357.417
G1 X110.27 Y143.76 E357.447
G1 X110.66 Y144.09 E357.473
G1 X111.08 Y144.35 E357.497
G1 X111.52 Y144.53 E357.521
G1 X111.97 Y144.62 E357.544
G1 X112.34 Y144.64 E357.562
G1 X112.8 Y144.59 E357.585
G1 X113.25 Y144.45 E357.609
G1 X113.68 Y144.23 E357.633
G1 X114.09 Y143.94 E357.658
G1 X114.47 Y143.58 E357.684
G1 X114.81 Y143.16 E357.711
G1 X115.13 Y142.69 E357.739
G1 X115.43 Y142.17 E357.769
G1 X115.72 Y141.51 E357.805
G1 X115.99 Y140.77 E357.845
G1 X116.24 Y139.85 E357.892
G1 X116.42 Y138.93 E357.939
G1 X116.53 Y138.05 E357.983
G1 X116.6 Y137.02 E358.035
G1 X116.6 Y136.16 E358.078
G1 X116.52 Y135.02 E358.135
G1 X116.38 Y134.01 E358.186
G1 X116.19 Y133.1 E358.232
G1 X115.95 Y132.26 E358.276
G1 X115.63 Y131.44 E358.319
G1 X115.3 Y130.77 E358.357
G1 X115 Y130.27 E358.386
G1 X114.67 Y129.82 E358.414
G1 X114.25 Y129.38 E358.444
G1 X113.86 Y129.06 E358.469
G1 X113.45 Y128.81 E358.493
G1 X113.18 Y128.69 E358.508
G1 X112.73 Y128.57 E358.531
G1 X112.33 Y128.53 E358.551
G1 X111.99 Y128.54 E358.568
G1 X111.57 Y128.63 E358.59
G1 X111.53 Y128.64
G1 X111.65 Y129.02 F9000
; TYPE:WALL-OUTER
G1 X111.26 Y129.18 E358.61 F3000
G1 X110.9 Y129.41 E358.632
G1 X110.54 Y129.7 E358.654
G1 X110.22 Y130.05 E358.678
G1 X109.91 Y130.46 E358.704
G1 X109.62 Y130.91 E358.731
G1 X109.31 Y131.53 E358.765
G1 X109.01 Y132.31 E358.807
G1 X108.77 Y133.1 E358.848
G1 X108.56 Y134.08 E358.898
G1 X108.43 Y135.01 E358.945
G1 X108.36 Y135.92 E358.99
G1 X108.35 Y136.95 E359.042
G1 X108.42 Y138.08 E359.099
G1 X108.55 Y139.03 E359.146
G1 X108.72 Y139.87 E359.189
G1 X108.94 Y140.65 E359.229
G1 X109.22 Y141.41 E359.27
G1 X109.49 Y142.01 E359.303
G1 X109.86 Y142.65 E359.34
G1 X110.17 Y143.07 E359.365
G1 X110.54 Y143.47 E359.393
G1 X110.89 Y143.76 E359.416
G1 X111.26 Y143.99 E359.437
G1 X111.64 Y144.14 E359.458
G1 X112.03 Y144.23 E359.477
G1 X112.33 Y144.24 E359.493
G1 X112.72 Y144.19 E359.512
G1 X113.1 Y144.07 E359.532
G1 X113.47 Y143.88 E359.553
G1 X113.83 Y143.63 E359.575
G1 X114.17 Y143.3 E359.598
G1 X114.5 Y142.92 E359.623
G1 X114.79 Y142.48 E359.65
G1 X115.07 Y141.99 E359.678
G1 X115.35 Y141.36 E359.712
G1 X115.61 Y140.65 E359.75
G1 X115.85 Y139.76 E359.796
G1 X116.03 Y138.87 E359.842
G1 X116.14 Y138.01 E359.885
G1 X116.2 Y137.01 E359.935
G1 X116.2 Y136.17 E359.977
G1 X116.13 Y135.06 E360.032
G1 X115.99 Y134.07 E360.082
G1 X115.8 Y133.2 E360.126
G1 X115.57 Y132.38 E360.169
G1 X115.27 Y131.6 E360.211
G1 X114.95 Y130.96 E360.246
G1 X114.67 Y130.49 E360.273
G1 X114.36 Y130.08 E360.299
G1 X113.98 Y129.67 E360.327
G1 X113.63 Y129.39 E360.35
G1 X113.26 Y129.17 E360.371
G1 X113.04 Y129.07 E360.383
G1 X112.66 Y128.96 E360.403
G1 X112.32 Y128.93 E360.42
G1 X112.04 Y128.94 E360.434
G1 X111.68 Y129.01 E360.452
G1 X111.65 Y129.02
G1 X111.26 Y129.18
G1 X110.9 Y129.41
G1 X110.54 Y129.7
G1 X110.22 Y130.05
G1 X109.91 Y130.46
G1 X109.62 Y130.91
G1 X109.55 Y131.07
G1 X111.53 Y128.64 F9000
G1 X111.37 Y128.34
; TYPE:FILL
G1 X108.15 Y125.12 E360.68 F3600
G1 X104.92 Y121.89 E360.907
G1 X101.7 Y118.67 E361.135
G1 X98.47 Y115.44 E361.362
G1 X97.9 F9000
G1 X101.17 Y118.71 E361.593 F3600
G1 X104.43 Y121.97 E361.823
G1 X107.7 Y125.24 E362.054
G1 X110.96 Y128.5 E362.284
G1 X110.61 Y128.71 F9000
G1 X107.29 Y125.39 E362.518 F3600
G1 X103.98 Y122.08 E362.752
G1 X100.66 Y118.76 E362.986
G1 X97.34 Y115.44 E363.22
G1 X96.77 F9000
G1 X100.15 Y118.82 E363.459 F3600
G1 X103.53 Y122.2 E363.697
G1 X106.9 Y125.57 E363.936
G1 X110.28 Y128.95 E364.174
G1 X109.98 Y129.21 F9000
G1 X106.54 Y125.77 E364.417 F3600
G1 X103.09 Y122.33 E364.66
G1 X99.65 Y118.88 E364.903
G1 X96.2 Y115.44 E365.146
G1 X95.64 F9000
G1 X99.16 Y118.96 E365.394 F3600
G1 X102.68 Y122.48 E365.642
G1 X106.19 Y125.99 E365.89
G1 X109.71 Y129.51 E366.138
G1 X109.46 Y129.82 F9000
G1 X106.58 Y126.94 E366.341 F3600
G1 X103.7 Y124.07 E366.544
G1 X100.83 Y121.19 E366.747
G1 X97.95 Y118.32 E366.95
G1 X95.07 Y115.44 E367.153
G1 X94.51 F9000
G1 X97.45 Y118.38 E367.361 F3600
G1 X100.39 Y121.32 E367.568
G1 X103.34 Y124.27 E367.776
G1 X106.28 Y127.21 E367.983
G1 X109.22 Y130.15 E368.191
G1 X109.01 Y130.5 F9000
G1 X106 Y127.49 E368.404 F3600
G1 X102.98 Y124.48 E368.616
G1 X99.97 Y121.46 E368.829
G1 X96.95 Y118.45 E369.041
G1 X93.94 Y115.44 E369.254
G1 X93.38 F9000
G1 X96.47 Y118.53 E369.472 F3600
G1 X99.55 Y121.62 E369.69
G1 X102.64 Y124.7 E369.907
G1 X105.72 Y127.79 E370.125
G1 X108.81 Y130.88 E370.343
G1 X108.63 Y131.25 F9000
G1 X105.47 Y128.09 E370.566 F3600
G1 X102.3 Y124.93 E370.789
G1 X99.14 Y121.76 E371.013
G1 X95.97 Y118.6 E371.236
G1 X92.81 Y115.44 E371.459
G1 X92.24 F9000
G1 X95.49 Y118.68 E371.688 F3600
G1 X98.73 Y121.93 E371.917
G1 X101.98 Y125.17 E372.146
G1 X105.22 Y128.42 E372.375
G1 X108.47 Y131.66 E372.604
G1 X108.31 Y132.07 F9000
G1 X104.98 Y128.74 E372.839 F3600
G1 X101.66 Y125.42 E373.073
G1 X98.33 Y122.09 E373.308
G1 X95.01 Y118.77 E373.542
G1 X91.68 Y115.44 E373.777
G1 X91.11 F9000
G1 X94.52 Y118.85 E374.018 F3600
G1 X97.94 Y122.26 E374.259
G1 X101.35 Y125.68 E374.499
G1 X104.77 Y129.09 E374.74
G1 X108.18 Y132.5 E374.981
G1 X108.05 Y132.94 F9000
G1 X104.55 Y129.44 E375.228 F3600
G1 X101.05 Y125.94 E375.475
G1 X97.55 Y122.44 E375.722
G1 X94.05 Y118.94 E375.969
G1 X90.55 Y115.44 E376.216
G1 X89.98 F9000
G1 X92.98 Y118.43 E376.427 F3600
G1 X95.97 Y121.43 E376.639
G1 X98.97 Y124.42 E376.85
G1 X101.96 Y127.41 E377.061
G1 X104.96 Y130.41 E377.273
G1 X107.95 Y133.4 E377.484
G1 X107.85 Y133.87 F9000
G1 X104.78 Y130.8 E377.701 F3600
G1 X101.71 Y127.73 E377.917
G1 X98.64 Y124.66 E378.134
G1 X95.56 Y121.58 E378.351
G1 X92.49 Y118.51 E378.567
G1 X89.42 Y115.44 E378.784
G1 X88.85 F9000
G1 X92 Y118.59 E379.007 F3600
G1 X95.16 Y121.75 E379.229
G1 X98.31 Y124.9 E379.452
G1 X101.46 Y128.05 E379.674
G1 X104.62 Y131.21 E379.897
G1 X107.77 Y134.36 E380.119
G1 X107.7 Y134.86 F9000
G1 X104.46 Y131.62 E380.347 F3600
G1 X101.23 Y128.39 E380.576
G1 X97.99 Y125.15 E380.804
G1 X94.75 Y121.91 E381.032
G1 X91.52 Y118.68 E381.261
G1 X88.28 Y115.44 E381.489
G1 X87.72 F9000
G1 X91.04 Y118.76 E381.724 F3600
G1 X94.37 Y122.09 E381.958
G1 X97.69 Y125.41 E382.193
G1 X101.01 Y128.73 E382.427
G1 X104.34 Y132.06 E382.662
G1 X107.66 Y135.38 E382.896
G1 X107.62 Y135.91 F9000
G1 X104.22 Y132.51 E383.136 F3600
G1 X100.82 Y129.11 E383.376
G1 X97.43 Y125.72 E383.616
G1 X94.03 Y122.32 E383.855
G1 X90.63 Y118.92 E384.095
G1 X87.23 Y115.52 E384.335
G1 Y116.08 F9000
G1 X90.63 Y119.48 E384.575 F3600
G1 X94.03 Y122.88 E384.814
G1 X97.43 Y126.28 E385.054
G1 X100.82 Y129.67 E385.294
G1 X104.22 Y133.07 E385.533
G1 X107.62 Y136.47 E385.773
G1 X107.61 Y137.03 F9000
G1 X104.21 Y133.63 E386.013 F3600
G1 X100.82 Y130.24 E386.252
G1 X97.42 Y126.84 E386.492
G1 X94.02 Y123.44 E386.732
G1 X90.63 Y120.05 E386.971
G1 X87.23 Y116.65 E387.211
G1 Y117.21 F9000
G1 X90.63 Y120.61 E387.451 F3600
G1 X94.04 Y124.02 E387.691
G1 X97.44 Y127.42 E387.932
G1 X100.84 Y130.82 E388.172
G1 X104.25 Y134.23 E388.412
G1 X107.65 Y137.63 E388.652
G1 X107.7 Y138.24 F9000
G1 X104.29 Y134.83 E388.893 F3600
G1 X100.88 Y131.42 E389.133
G1 X97.47 Y128.01 E389.374
G1 X94.05 Y124.6 E389.615
G1 X90.64 Y121.19 E389.855
G1 X87.23 Y117.78 E390.096
G1 Y118.34 F9000
G1 X90.66 Y121.77 E390.338 F3600
G1 X94.08 Y125.19 E390.579
G1 X97.51 Y128.62 E390.821
G1 X100.93 Y132.05 E391.063
G1 X104.36 Y135.47 E391.304
G1 X107.78 Y138.9 E391.546
G1 X107.91 Y139.59 F9000
G1 X104.46 Y136.14 E391.789 F3600
G1 X101.02 Y132.7 E392.032
G1 X97.57 Y129.25 E392.276
G1 X94.12 Y125.8 E392.519
G1 X90.68 Y122.36 E392.762
G1 X87.23 Y118.91 E393.005
G1 Y119.47 F9000
G1 X90.71 Y122.95 E393.25 F3600
G1 X94.18 Y126.42 E393.495
G1 X97.66 Y129.9 E393.741
G1 X101.13 Y133.37 E393.986
G1 X104.61 Y136.85 E394.231
G1 X108.08 Y140.32 E394.476
G1 X108.33 Y141.14 F9000
G1 X104.81 Y137.62 E394.724 F3600
G1 X101.3 Y134.11 E394.972
G1 X97.78 Y130.59 E395.221
G1 X94.26 Y127.07 E395.469
G1 X90.75 Y123.56 E395.717
G1 X87.23 Y120.04 E395.965
G1 Y120.61 F9000
G1 X90.3 Y123.68 E396.181 F3600
G1 X93.37 Y126.75 E396.398
G1 X96.44 Y129.82 E396.614
G1 X99.5 Y132.88 E396.831
G1 X102.57 Y135.95 E397.047
G1 X105.64 Y139.02 E397.264
G1 X108.71 Y142.09 E397.48
G1 X109.63 Y143.57 F9000
G1 X106.43 Y140.37 E397.706 F3600
G1 X103.23 Y137.17 E397.932
G1 X100.03 Y133.97 E398.158
G1 X96.83 Y130.77 E398.383
G1 X93.63 Y127.57 E398.609
G1 X90.43 Y124.37 E398.835
G1 X87.23 Y121.17 E399.061
G1 Y121.74 F9000
G1 X90.38 Y124.89 E399.283 F3600
G1 X93.53 Y128.04 E399.506
G1 X96.69 Y131.2 E399.728
G1 X99.84 Y134.35 E399.95
G1 X102.99 Y137.5 E400.173
G1 X106.14 Y140.65 E400.395
G1 X109.3 Y143.81 E400.617
G1 X112.45 Y146.96 E400.84
G1 X115.6 Y150.11 E401.062
G1 X116.17 F9000
G1 X113.21 Y147.15 E401.271 F3600
G1 X110.25 Y144.19 E401.48
G1 X111.49 Y144.87 F9000
G1 X114.11 Y147.49 E401.665 F3600
G1 X116.73 Y150.11 E401.85
G1 X117.3 F9000
G1 X114.73 Y147.54 E402.031 F3600
G1 X112.16 Y144.97 E402.212
G1 X112.7 Y144.94 F9000
G1 X115.28 Y147.53 E402.395 F3600
G1 X117.86 Y150.11 E402.577
G1 X118.43 F9000
G1 X115.79 Y147.47 E402.763 F3600
G1 X113.15 Y144.83 E402.949
G1 X113.56 Y144.67 F9000
G1 X116.28 Y147.39 E403.141 F3600
G1 X119 Y150.11 E403.333
G1 X119.56 F9000
G1 X116.74 Y147.29 E403.532 F3600
G1 X113.92 Y144.47 E403.73
G1 X114.25 Y144.23 F9000
G1 X117.19 Y147.17 E403.938 F3600
G1 X120.13 Y150.11 E404.145
G1 X120.69 F9000
G1 X117.62 Y147.04 E404.362 F3600
G1 X114.55 Y143.97 E404.578
G1 X114.83 Y143.68 F9000
G1 X118.05 Y146.9 E404.805 F3600
G1 X121.26 Y150.11 E405.032
G1 X121.82 F9000
G1 X118.45 Y146.74 E405.27 F3600
G1 X115.08 Y143.37 E405.507
G1 X115.31 Y143.03 F9000
G1 X117.67 Y145.39 E405.674 F3600
G1 X120.03 Y147.75 E405.84
G1 X122.39 Y150.11 E406.007
G1 X122.96 F9000
G1 X120.48 Y147.63 E406.182 F3600
G1 X118.01 Y145.16 E406.356
G1 X115.53 Y142.68 E406.531
G1 X115.73 Y142.32 F9000
G1 X118.33 Y144.92 E406.714 F3600
G1 X120.92 Y147.51 E406.897
G1 X123.52 Y150.11 E407.08
G1 X124.09 F9000
G1 X121.36 Y147.38 E407.272 F3600
G1 X118.64 Y144.66 E407.465
G1 X115.91 Y141.93 E407.657
G1 X116.08 Y141.53 F9000
G1 X118.94 Y144.39 E407.859 F3600
G1 X121.79 Y147.25 E408.06
G1 X124.65 Y150.11 E408.262
G1 X125.22 F9000
G1 X122.22 Y147.11 E408.474 F3600
G1 X119.23 Y144.12 E408.685
G1 X116.23 Y141.12 E408.897
G1 X116.37 Y140.69 F9000
G1 X119.51 Y143.83 E409.118 F3600
G1 X122.64 Y146.97 E409.34
G1 X125.78 Y150.11 E409.561
G1 X126.35 F9000
G1 X123.06 Y146.82 E409.793 F3600
G1 X119.78 Y143.54 E410.025
G1 X116.49 Y140.25 E410.257
G1 X116.6 Y139.79 F9000
G1 X120.04 Y143.23 E410.5 F3600
G1 X123.48 Y146.67 E410.742
G1 X126.92 Y150.11 E410.985
G1 X127.48 F9000
G1 X124.78 Y147.41 E411.175 F3600
G1 X122.09 Y144.72 E411.366
G1 X119.39 Y142.02 E411.556
G1 X116.69 Y139.32 E411.746
G1 X116.78 Y138.84 F9000
G1 X119.6 Y141.66 E411.945 F3600
G1 X122.42 Y144.48 E412.144
G1 X125.23 Y147.29 E412.342
G1 X128.05 Y150.11 E412.541
G1 X128.61 F9000
G1 X125.67 Y147.17 E412.749 F3600
G1 X122.73 Y144.23 E412.957
G1 X119.78 Y141.28 E413.164
G1 X116.84 Y138.34 E413.372
G1 X116.89 Y137.82 F9000
G1 X119.96 Y140.89 E413.589 F3600
G1 X123.04 Y143.97 E413.806
G1 X126.11 Y147.04 E414.022
G1 X129.18 Y150.11 E414.239
G1 X129.74 F9000
G1 X126.54 Y146.91 E414.465 F3600
G1 X123.33 Y143.7 E414.691
G1 X120.13 Y140.5 E414.917
G1 X116.92 Y137.29 E415.143
G1 X116.94 Y136.74 F9000
G1 X120.28 Y140.08 E415.379 F3600
G1 X123.63 Y143.43 E415.615
G1 X126.97 Y146.77 E415.851
G1 X130.31 Y150.11 E416.087
G1 X130.87 F9000
G1 X127.39 Y146.63 E416.333 F3600
G1 X123.91 Y143.14 E416.579
G1 X120.42 Y139.66 E416.824
G1 X116.94 Y136.17 E417.07
G1 X116.9 Y135.57 F9000
G1 X119.81 Y138.48 E417.275 F3600
G1 X122.72 Y141.39 E417.48
G1 X125.62 Y144.29 E417.686
G1 X128.53 Y147.2 E417.891
G1 X131.44 Y150.11 E418.096
G1 X132.01 F9000
G1 X128.98 Y147.08 E418.31 F3600
G1 X125.95 Y144.05 E418.524
G1 X122.92 Y141.02 E418.737
G1 X119.89 Y137.99 E418.951
G1 X116.86 Y134.96 E419.165
G1 X116.77 Y134.31 F9000
G1 X119.93 Y137.47 E419.388 F3600
G1 X123.09 Y140.63 E419.611
G1 X126.25 Y143.79 E419.834
G1 X129.41 Y146.95 E420.057
G1 X132.57 Y150.11 E420.28
G1 X133.14 F9000
G1 X129.84 Y146.81 E420.513 F3600
G1 X126.54 Y143.51 E420.745
G1 X123.25 Y140.22 E420.978
G1 X119.95 Y136.92 E421.21
G1 X116.65 Y133.62 E421.443
G1 X116.48 Y132.89 F9000
G1 X119.92 Y136.33 E421.686 F3600
G1 X123.37 Y139.78 E421.929
G1 X126.81 Y143.22 E422.172
G1 X130.26 Y146.67 E422.415
G1 X133.7 Y150.11 E422.658
G1 X134.27 F9000
G1 X131.27 Y147.11 E422.87 F3600
G1 X128.26 Y144.1 E423.082
G1 X125.26 Y141.1 E423.294
G1 X122.26 Y138.09 E423.506
G1 X119.25 Y135.09 E423.718
G1 X116.25 Y132.08 E423.93
G1 X115.86 Y131.14 F9000
G1 X119.02 Y134.3 E424.153 F3600
G1 X122.18 Y137.46 E424.376
G1 X125.35 Y140.63 E424.6
G1 X128.51 Y143.79 E424.823
G1 X131.67 Y146.95 E425.046
G1 X134.83 Y150.11 E425.269
G1 X135.4 F9000
G1 X132.01 Y146.72 E425.509 F3600
G1 X128.61 Y143.32 E425.748
G1 X125.22 Y139.93 E425.988
G1 X121.82 Y136.53 E426.227
G1 X118.43 Y133.14 E426.467
G1 X115.03 Y129.74 E426.706
G1 X114.13 Y128.84 F9000
G1 X110.78 Y125.49 E426.943 F3600
G1 X107.43 Y122.14 E427.179
G1 X104.08 Y118.79 E427.416
G1 X100.73 Y115.44 E427.652
G1 X100.16 F9000
G1 X103.38 Y118.66 E427.879 F3600
G1 X106.59 Y121.87 E428.106
G1 X109.81 Y125.09 E428.332
G1 X113.02 Y128.3 E428.559
G1 X112.35 Y128.19 F9000
G1 X109.16 Y125 E428.784 F3600
G1 X105.98 Y121.82 E429.009
G1 X102.79 Y118.63 E429.233
G1 X99.6 Y115.44 E429.458
G1 X99.03 F9000
G1 X102.23 Y118.64 E429.684 F3600
G1 X105.43 Y121.84 E429.91
G1 X108.62 Y125.03 E430.135
G1 X111.82 Y128.23 E430.361
G1 X112.04 Y115.44 F9000
G1 X115.48 Y118.88 E430.604 F3600
G1 X118.93 Y122.33 E430.847
G1 X122.37 Y125.77 E431.09
G1 X125.82 Y129.22 E431.333
G1 X129.26 Y132.66 E431.576
G1 X132.71 Y136.11 E431.819
G1 X136.15 Y139.55 E432.062
G1 Y138.98 F9000
G1 X132.79 Y135.62 E432.299 F3600
G1 X129.42 Y132.25 E432.537
G1 X126.06 Y128.89 E432.774
G1 X122.7 Y125.53 E433.011
G1 X119.34 Y122.17 E433.248
G1 X115.97 Y118.8 E433.486
G1 X112.61 Y115.44 E433.723
G1 X113.18 F9000
G1 X116.46 Y118.72 E433.955 F3600
G1 X119.74 Y122 E434.186
G1 X123.02 Y125.28 E434.418
G1 X126.31 Y128.57 E434.649
G1 X129.59 Y131.85 E434.881
G1 X132.87 Y135.13 E435.112
G1 X136.15 Y138.41 E435.344
G1 Y137.85 F9000
G1 X132.95 Y134.65 E435.57 F3600
G1 X129.75 Y131.45 E435.796
G1 X126.55 Y128.25 E436.022
G1 X123.34 Y125.04 E436.247
G1 X120.14 Y121.84 E436.473
G1 X116.94 Y118.64 E436.699
G1 X113.74 Y115.44 E436.925
G1 X114.31 F9000
G1 X117.43 Y118.56 E437.145 F3600
G1 X120.55 Y121.68 E437.365
G1 X123.67 Y124.8 E437.585
G1 X126.79 Y127.92 E437.806
G1 X129.91 Y131.04 E438.026
G1 X133.03 Y134.16 E438.246
G1 X136.15 Y137.28 E438.466
G1 Y136.72 F9000
G1 X133.11 Y133.68 E438.681 F3600
G1 X130.07 Y130.64 E438.895
G1 X127.03 Y127.6 E439.11
G1 X123.99 Y124.56 E439.324
G1 X120.95 Y121.52 E439.539
G1 X117.91 Y118.48 E439.753
G1 X114.87 Y115.44 E439.968
G1 X115.44 F9000
G1 X118.89 Y118.89 E440.212 F3600
G1 X122.34 Y122.34 E440.455
G1 X125.8 Y125.8 E440.699
G1 X129.25 Y129.25 E440.942
G1 X132.7 Y132.7 E441.186
G1 X136.15 Y136.15 E441.429
G1 Y135.59 F9000
G1 X132.79 Y132.23 E441.666 F3600
G1 X129.43 Y128.87 E441.903
G1 X126.08 Y125.52 E442.14
G1 X122.72 Y122.16 E442.376
G1 X119.36 Y118.8 E442.613
G1 X116 Y115.44 E442.85
G1 X116.57 F9000
G1 X119.83 Y118.7 E443.08 F3600
G1 X123.1 Y121.97 E443.311
G1 X126.36 Y125.23 E443.541
G1 X129.62 Y128.49 E443.771
G1 X132.89 Y131.76 E444.002
G1 X136.15 Y135.02 E444.232
G1 Y134.45 F9000
G1 X132.98 Y131.28 E444.456 F3600
G1 X129.81 Y128.11 E444.679
G1 X126.65 Y124.95 E444.903
G1 X123.48 Y121.78 E445.127
G1 X120.31 Y118.61 E445.35
G1 X117.14 Y115.44 E445.574
G1 X117.7 F9000
G1 X120.78 Y118.52 E445.791 F3600
G1 X123.85 Y121.59 E446.008
G1 X126.93 Y124.67 E446.225
G1 X130 Y127.74 E446.441
G1 X133.08 Y130.82 E446.658
G1 X136.15 Y133.89 E446.875
G1 Y133.32 F9000
G1 X133.17 Y130.34 E447.085 F3600
G1 X130.19 Y127.36 E447.296
G1 X127.21 Y124.38 E447.506
G1 X124.23 Y121.4 E447.716
G1 X121.25 Y118.42 E447.927
G1 X118.27 Y115.44 E448.137
G1 X118.83 F9000
G1 X122.29 Y118.9 E448.381 F3600
G1 X125.76 Y122.37 E448.626
G1 X129.22 Y125.83 E448.87
G1 X132.69 Y129.3 E449.115
G1 X136.15 Y132.76 E449.359
G1 Y132.19 F9000
G1 X132.8 Y128.84 E449.595 F3600
G1 X129.45 Y125.49 E449.832
G1 X126.1 Y122.14 E450.068
G1 X122.75 Y118.79 E450.305
G1 X119.4 Y115.44 E450.541
G1 X119.96 F9000
G1 X123.2 Y118.68 E450.769 F3600
G1 X126.44 Y121.92 E450.998
G1 X129.67 Y125.15 E451.226
G1 X132.91 Y128.39 E451.455
G1 X136.15 Y131.63 E451.683
G1 Y131.06 F9000
G1 X133.03 Y127.94 E451.903 F3600
G1 X129.9 Y124.81 E452.124
G1 X126.78 Y121.69 E452.344
G1 X123.65 Y118.56 E452.565
G1 X120.53 Y115.44 E452.785
G1 X121.09 F9000
G1 X124.1 Y118.45 E452.998 F3600
G1 X127.11 Y121.46 E453.21
G1 X130.13 Y124.47 E453.423
G1 X133.14 Y127.48 E453.635
G1 X136.15 Y130.49 E453.848
G1 Y129.93 F9000
G1 X133.25 Y127.03 E454.052 F3600
G1 X130.35 Y124.13 E454.257
G1 X127.46 Y121.24 E454.461
G1 X124.56 Y118.34 E454.666
G1 X121.66 Y115.44 E454.87
G1 X122.23 F9000
G1 X125.71 Y118.92 E455.116 F3600
G1 X129.19 Y122.4 E455.361
G1 X132.67 Y125.88 E455.607
G1 X136.15 Y129.36 E455.852
G1 Y128.8 F9000
G1 X132.81 Y125.46 E456.088 F3600
G1 X129.47 Y122.12 E456.324
G1 X126.13 Y118.78 E456.559
G1 X122.79 Y115.44 E456.795
G1 X123.36 F9000
G1 X126.56 Y118.64 E457.021 F3600
G1 X129.76 Y121.84 E457.247
G1 X132.95 Y125.03 E457.472
G1 X136.15 Y128.23 E457.698
G1 Y127.67 F9000
G1 X133.09 Y124.61 E457.914 F3600
G1 X130.04 Y121.56 E458.129
G1 X126.98 Y118.5 E458.345
G1 X123.92 Y115.44 E458.56
G1 X124.49 F9000
G1 X127.41 Y118.36 E458.766 F3600
G1 X130.32 Y121.27 E458.972
G1 X133.24 Y124.19 E459.177
G1 X136.15 Y127.1 E459.383
G1 Y126.53 F9000
G1 X133.38 Y123.76 E459.579 F3600
G1 X130.6 Y120.99 E459.775
G1 X127.83 Y118.21 E459.97
G1 X125.05 Y115.44 E460.166
G1 X125.62 F9000
G1 X129.13 Y118.95 E460.414 F3600
G1 X132.64 Y122.46 E460.661
G1 X136.15 Y125.97 E460.909
G1 Y125.4 F9000
G1 X132.83 Y122.08 E461.143 F3600
G1 X129.51 Y118.76 E461.378
G1 X126.19 Y115.44 E461.612
G1 X126.75 F9000
G1 X129.88 Y118.57 E461.833 F3600
G1 X133.02 Y121.71 E462.054
G1 X136.15 Y124.84 E462.275
G1 Y124.27 F9000
G1 X133.21 Y121.33 E462.483 F3600
G1 X130.26 Y118.38 E462.69
G1 X127.32 Y115.44 E462.898
G1 X127.88 F9000
G1 X130.64 Y118.2 E463.092 F3600
G1 X133.39 Y120.95 E463.287
G1 X136.15 Y123.71 E463.481
G1 Y123.14 F9000
G1 X133.58 Y120.57 E463.662 F3600
G1 X131.02 Y118.01 E463.844
G1 X128.45 Y115.44 E464.025
G1 X129.01 F9000
G1 X131.39 Y117.82 E464.193 F3600
G1 X133.77 Y120.19 E464.36
G1 X136.15 Y122.57 E464.528
G1 Y122.01 F9000
G1 X132.87 Y118.73 E464.76 F3600
G1 X129.58 Y115.44 E464.992
G1 X130.15 F9000
G1 X133.15 Y118.44 E465.204 F3600
G1 X136.15 Y121.44 E465.415
G1 Y120.88 F9000
G1 X133.43 Y118.16 E465.607 F3600
G1 X130.71 Y115.44 E465.799
G1 X131.28 F9000
G1 X133.72 Y117.88 E465.971 F3600
G1 X136.15 Y120.31 E466.143
G1 Y119.75 F9000
G1 X134 Y117.6 E466.295 F3600
G1 X131.84 Y115.44 E466.447
G1 X132.41 F9000
G1 X136.15 Y119.18 E466.711 F3600
G1 Y118.61 F9000
G1 X132.97 Y115.44 E466.935 F3600
G1 X133.54 F9000
G1 X136.15 Y118.05 E467.119 F3600
G1 Y117.48 F9000
G1 X134.11 Y115.44 E467.263 F3600
G1 X134.67 F9000
G1 X136.15 Y116.92 E467.368 F3600
G1 Y116.35 F9000
G1 X135.24 Y115.44 E467.432 F3600
G1 X135.8 F9000
G1 X136.15 Y115.79 E467.457 F3600
G1 E464.457 F1800
G1 Z1.1
G1 X136 F9000
G1 X136.05 Y123.9
G1 X136.1 Y132
G1 X136.15 Y140.11
G1 Z0.6
G1 E467.457 F1800
G1 X132.63 Y136.59 E467.706 F3600
G1 X129.1 Y133.06 E467.954
G1 X125.58 Y129.54 E468.203
G1 X122.05 Y126.01 E468.452
G1 X118.53 Y122.49 E468.701
G1 X115 Y118.96 E468.949
G1 X111.48 Y115.44 E469.198
G1 X110.91 F9000
G1 X114.07 Y118.6 E469.421 F3600
G1 X117.22 Y121.75 E469.643
G1 X120.38 Y124.91 E469.866
G1 X123.53 Y128.06 E470.088
G1 X126.69 Y131.22 E470.311
G1 X129.84 Y134.37 E470.533
G1 X133 Y137.53 E470.756
G1 X136.15 Y140.68 E470.978
G1 Y141.24 F9000
G1 X132.93 Y138.02 E471.206 F3600
G1 X129.7 Y134.79 E471.433
G1 X126.48 Y131.57 E471.661
G1 X123.25 Y128.34 E471.889
G1 X120.03 Y125.12 E472.116
G1 X116.8 Y121.89 E472.344
G1 X113.58 Y118.67 E472.571
G1 X110.35 Y115.44 E472.799
G1 X109.78 F9000
G1 X113.08 Y118.74 E473.032 F3600
G1 X116.37 Y122.03 E473.264
G1 X119.67 Y125.33 E473.497
G1 X122.97 Y128.63 E473.73
G1 X126.26 Y131.92 E473.962
G1 X129.56 Y135.22 E474.195
G1 X132.85 Y138.51 E474.427
G1 X136.15 Y141.81 E474.66
G1 Y142.37 F9000
G1 X132.78 Y139 E474.898 F3600
G1 X129.42 Y135.64 E475.135
G1 X126.05 Y132.27 E475.373
G1 X122.68 Y128.91 E475.61
G1 X119.31 Y125.54 E475.848
G1 X115.95 Y122.17 E476.085
G1 X112.58 Y118.81 E476.323
G1 X109.21 Y115.44 E476.56
G1 X108.65 F9000
G1 X112.09 Y118.88 E476.803 F3600
G1 X115.53 Y122.32 E477.045
G1 X118.96 Y125.75 E477.288
G1 X122.4 Y129.19 E477.531
G1 X125.84 Y132.63 E477.773
G1 X129.28 Y136.07 E478.016
G1 X132.71 Y139.5 E478.258
G1 X136.15 Y142.94 E478.501
G1 Y143.51 F9000
G1 X132.64 Y140 E478.749 F3600
G1 X129.13 Y136.49 E478.996
G1 X125.62 Y132.98 E479.244
G1 X122.12 Y129.48 E479.491
G1 X118.61 Y125.97 E479.739
G1 X115.1 Y122.46 E479.986
G1 X111.59 Y118.95 E480.234
G1 X108.08 Y115.44 E480.481
G1 X107.52 F9000
G1 X110.7 Y118.62 E480.705 F3600
G1 X113.88 Y121.8 E480.93
G1 X117.06 Y124.98 E481.154
G1 X120.24 Y128.16 E481.379
G1 X123.43 Y131.35 E481.603
G1 X126.61 Y134.53 E481.828
G1 X129.79 Y137.71 E482.052
G1 X132.97 Y140.89 E482.277
G1 X136.15 Y144.07 E482.501
G1 Y144.64 F9000
G1 X132.91 Y141.4 E482.73 F3600
G1 X129.66 Y138.15 E482.959
G1 X126.42 Y134.91 E483.188
G1 X123.17 Y131.66 E483.417
G1 X119.93 Y128.42 E483.645
G1 X116.68 Y125.17 E483.874
G1 X113.44 Y121.93 E484.103
G1 X110.19 Y118.68 E484.332
G1 X106.95 Y115.44 E484.561
G1 X106.39 F9000
G1 X109.7 Y118.75 E484.794 F3600
G1 X113 Y122.05 E485.028
G1 X116.31 Y125.36 E485.261
G1 X119.62 Y128.67 E485.495
G1 X122.92 Y131.97 E485.728
G1 X126.23 Y135.28 E485.962
G1 X129.54 Y138.59 E486.195
G1 X132.84 Y141.89 E486.429
G1 X136.15 Y145.2 E486.662
G1 Y145.77 F9000
G1 X132.78 Y142.4 E486.9 F3600
G1 X129.41 Y139.03 E487.137
G1 X126.04 Y135.66 E487.375
G1 X122.67 Y132.29 E487.613
G1 X119.3 Y128.92 E487.85
G1 X115.93 Y125.55 E488.088
G1 X112.56 Y122.18 E488.326
G1 X109.19 Y118.81 E488.563
G1 X105.82 Y115.44 E488.801
G1 X105.25 F9000
G1 X108.68 Y118.87 E489.043 F3600
G1 X112.12 Y122.3 E489.285
G1 X115.55 Y125.74 E489.528
G1 X118.98 Y129.17 E489.77
G1 X122.42 Y132.6 E490.012
G1 X125.85 Y136.03 E490.254
G1 X129.28 Y139.47 E490.497
G1 X132.72 Y142.9 E490.739
G1 X136.15 Y146.33 E490.981
G1 Y146.9 F9000
G1 X132.65 Y143.4 E491.228 F3600
G1 X129.16 Y139.91 E491.474
G1 X125.66 Y136.41 E491.721
G1 X122.17 Y132.92 E491.968
G1 X118.67 Y129.42 E492.214
G1 X115.18 Y125.93 E492.461
G1 X111.68 Y122.43 E492.708
G1 X108.19 Y118.94 E492.954
G1 X104.69 Y115.44 E493.201
G1 X104.12 F9000
G1 X107.32 Y118.64 E493.427 F3600
G1 X110.53 Y121.84 E493.653
G1 X113.73 Y125.05 E493.879
G1 X116.93 Y128.25 E494.105
G1 X120.14 Y131.45 E494.331
G1 X123.34 Y134.65 E494.557
G1 X126.54 Y137.85 E494.783
G1 X129.74 Y141.06 E495.009
G1 X132.95 Y144.26 E495.235
G1 X136.15 Y147.46 E495.461
G1 Y148.03 F9000
G1 X132.89 Y144.77 E495.691 F3600
G1 X129.63 Y141.51 E495.921
G1 X126.37 Y138.25 E496.151
G1 X123.11 Y134.99 E496.381
G1 X119.86 Y131.74 E496.611
G1 X116.6 Y128.48 E496.841
G1 X113.34 Y125.22 E497.071
G1 X110.08 Y121.96 E497.301
G1 X106.82 Y118.7 E497.531
G1 X103.56 Y115.44 E497.761
G1 X102.99 F9000
G1 X106.31 Y118.76 E497.995 F3600
G1 X109.62 Y122.07 E498.229
G1 X112.94 Y125.39 E498.463
G1 X116.25 Y128.7 E498.697
G1 X119.57 Y132.02 E498.931
G1 X122.89 Y135.34 E499.164
G1 X126.2 Y138.65 E499.398
G1 X129.52 Y141.97 E499.632
G1 X132.83 Y145.28 E499.866
G1 X136.15 Y148.6 E500.1
G1 Y149.16 F9000
G1 X132.78 Y145.79 E500.338 F3600
G1 X129.41 Y142.42 E500.576
G1 X126.03 Y139.04 E500.814
G1 X122.66 Y135.67 E501.052
G1 X119.29 Y132.3 E501.29
G1 X115.92 Y128.93 E501.528
G1 X112.55 Y125.56 E501.766
G1 X109.17 Y122.18 E502.004
G1 X105.8 Y118.81 E502.242
G1 X102.43 Y115.44 E502.48
G1 X101.86 F9000
G1 X105.29 Y118.87 E502.722 F3600
G1 X108.72 Y122.3 E502.964
G1 X112.15 Y125.73 E503.206
G1 X115.58 Y129.16 E503.448
G1 X119.01 Y132.59 E503.69
G1 X122.43 Y136.01 E503.931
G1 X125.86 Y139.44 E504.173
G1 X129.29 Y142.87 E504.415
G1 X132.72 Y146.3 E504.657
G1 X136.15 Y149.73 E504.899
G1 X135.97 Y150.11 F9000
G1 X132.5 Y146.64 E505.144 F3600
G1 X129.04 Y143.18 E505.388
G1 X125.57 Y139.71 E505.633
G1 X122.1 Y136.24 E505.877
G1 X118.64 Y132.78 E506.122
G1 X115.17 Y129.31 E506.367
G1 X111.7 Y125.84 E506.611
G1 X108.23 Y122.37 E506.856
G1 X104.77 Y118.91 E507.1
G1 X101.3 Y115.44 E507.345
G1 X94.27 Y118.87 F9000
G1 X87.23 Y122.3
G1 X90.71 Y125.78 E507.59 F3600
G1 X94.18 Y129.25 E507.836
G1 X97.66 Y132.73 E508.081
G1 X101.14 Y136.21 E508.326
G1 X104.61 Y139.68 E508.571
G1 X108.09 Y143.16 E508.817
G1 X111.56 Y146.63 E509.062
G1 X115.04 Y150.11 E509.307
G1 X114.47 F9000
G1 X111.07 Y146.71 E509.547 F3600
G1 X107.66 Y143.3 E509.788
G1 X104.26 Y139.9 E510.028
G1 X100.85 Y136.49 E510.268
G1 X97.45 Y133.09 E510.508
G1 X94.04 Y129.68 E510.749
G1 X90.64 Y126.28 E510.989
G1 X87.23 Y122.87 E511.229
G1 Y123.43 F9000
G1 X90.56 Y126.77 E511.464 F3600
G1 X93.9 Y130.1 E511.7
G1 X97.23 Y133.44 E511.935
G1 X100.57 Y136.77 E512.17
G1 X103.9 Y140.11 E512.405
G1 X107.23 Y143.44 E512.641
G1 X110.57 Y146.78 E512.876
G1 X113.9 Y150.11 E513.111
G1 X113.34 F9000
G1 X110.08 Y146.85 E513.341 F3600
G1 X106.81 Y143.58 E513.572
G1 X103.55 Y140.32 E513.802
G1 X100.29 Y137.06 E514.032
G1 X97.02 Y133.79 E514.262
G1 X93.76 Y130.53 E514.493
G1 X90.49 Y127.26 E514.723
G1 X87.23 Y124 E514.953
G1 Y124.57 F9000
G1 X90.42 Y127.76 E515.178 F3600
G1 X93.62 Y130.96 E515.404
G1 X96.81 Y134.15 E515.629
G1 X100 Y137.34 E515.854
G1 X103.19 Y140.53 E516.079
G1 X106.39 Y143.73 E516.305
G1 X109.58 Y146.92 E516.53
G1 X112.77 Y150.11 E516.755
G1 X112.21 F9000
G1 X109.09 Y146.99 E516.975 F3600
G1 X105.97 Y143.87 E517.196
G1 X102.84 Y140.74 E517.416
G1 X99.72 Y137.62 E517.636
G1 X96.6 Y134.5 E517.856
G1 X93.48 Y131.38 E518.077
G1 X90.35 Y128.25 E518.297
G1 X87.23 Y125.13 E518.517
G1 Y125.7 F9000
G1 X90.72 Y129.19 E518.763 F3600
G1 X94.2 Y132.67 E519.009
G1 X97.69 Y136.16 E519.255
G1 X101.18 Y139.65 E519.502
G1 X104.67 Y143.14 E519.748
G1 X108.15 Y146.62 E519.994
G1 X111.64 Y150.11 E520.24
G1 X111.08 F9000
G1 X107.67 Y146.7 E520.48 F3600
G1 X104.27 Y143.3 E520.721
G1 X100.86 Y139.89 E520.961
G1 X97.45 Y136.48 E521.201
G1 X94.04 Y133.07 E521.441
G1 X90.64 Y129.67 E521.682
G1 X87.23 Y126.26 E521.922
G1 Y126.83 F9000
G1 X90.56 Y130.16 E522.157 F3600
G1 X93.88 Y133.48 E522.391
G1 X97.21 Y136.81 E522.626
G1 X100.53 Y140.13 E522.861
G1 X103.86 Y143.46 E523.096
G1 X107.18 Y146.78 E523.33
G1 X110.51 Y150.11 E523.565
G1 X109.94 F9000
G1 X106.7 Y146.86 E523.794 F3600
G1 X103.45 Y143.62 E524.023
G1 X100.21 Y140.37 E524.252
G1 X96.96 Y137.13 E524.48
G1 X93.72 Y133.88 E524.709
G1 X90.47 Y130.64 E524.938
G1 X87.23 Y127.39 E525.167
G1 Y127.96 F9000
G1 X90.39 Y131.12 E525.39 F3600
G1 X93.56 Y134.29 E525.614
G1 X96.72 Y137.45 E525.837
G1 X99.89 Y140.62 E526.06
G1 X103.05 Y143.78 E526.283
G1 X106.22 Y146.95 E526.507
G1 X109.38 Y150.11 E526.73
G1 X108.81 F9000
G1 X105.73 Y147.03 E526.948 F3600
G1 X102.64 Y143.94 E527.165
G1 X99.56 Y140.86 E527.383
G1 X96.48 Y137.78 E527.6
G1 X93.4 Y134.7 E527.818
G1 X90.31 Y131.61 E528.035
G1 X87.23 Y128.53 E528.253
G1 Y129.09 F9000
G1 X90.73 Y132.59 E528.5 F3600
G1 X94.24 Y136.1 E528.747
G1 X97.74 Y139.6 E528.995
G1 X101.24 Y143.1 E529.242
G1 X104.75 Y146.61 E529.489
G1 X108.25 Y150.11 E529.736
G1 X107.68 F9000
G1 X104.27 Y146.7 E529.976 F3600
G1 X100.86 Y143.29 E530.217
G1 X97.46 Y139.89 E530.457
G1 X94.05 Y136.48 E530.697
G1 X90.64 Y133.07 E530.938
G1 X87.23 Y129.66 E531.178
G1 Y130.22 F9000
G1 X90.55 Y133.54 E531.412 F3600
G1 X93.86 Y136.85 E531.646
G1 X97.18 Y140.17 E531.88
G1 X100.49 Y143.48 E532.113
G1 X103.81 Y146.8 E532.347
G1 X107.12 Y150.11 E532.581
G1 X106.55 F9000
G1 X103.33 Y146.89 E532.808 F3600
G1 X100.11 Y143.67 E533.036
G1 X96.89 Y140.45 E533.263
G1 X93.67 Y137.23 E533.49
G1 X90.45 Y134.01 E533.718
G1 X87.23 Y130.79 E533.945
G1 Y131.35 F9000
G1 X90.36 Y134.48 E534.166 F3600
G1 X93.48 Y137.6 E534.386
G1 X96.61 Y140.73 E534.607
G1 X99.73 Y143.86 E534.827
G1 X102.86 Y146.98 E535.048
G1 X105.98 Y150.11 E535.268
G1 X105.42 F9000
G1 X102.39 Y147.08 E535.482 F3600
G1 X99.36 Y144.05 E535.696
G1 X96.33 Y141.02 E535.91
G1 X93.29 Y137.98 E536.123
G1 X90.26 Y134.95 E536.337
G1 X87.23 Y131.92 E536.551
G1 Y132.49 F9000
G1 X90.75 Y136.01 E536.8 F3600
G1 X94.28 Y139.54 E537.049
G1 X97.8 Y143.06 E537.297
G1 X101.33 Y146.59 E537.546
G1 X104.85 Y150.11 E537.795
G1 X104.29 F9000
G1 X100.88 Y146.7 E538.036 F3600
G1 X97.47 Y143.29 E538.276
G1 X94.05 Y139.87 E538.517
G1 X90.64 Y136.46 E538.757
G1 X87.23 Y133.05 E538.998
G1 Y133.62 F9000
G1 X90.53 Y136.92 E539.231 F3600
G1 X93.83 Y140.22 E539.464
G1 X97.12 Y143.51 E539.696
G1 X100.42 Y146.81 E539.929
G1 X103.72 Y150.11 E540.162
G1 X103.16 F9000
G1 X99.97 Y146.92 E540.387 F3600
G1 X96.79 Y143.74 E540.611
G1 X93.6 Y140.55 E540.836
G1 X90.42 Y137.37 E541.06
G1 X87.23 Y134.18 E541.285
G1 Y134.75 F9000
G1 X90.3 Y137.82 E541.502 F3600
G1 X93.37 Y140.89 E541.719
G1 X96.45 Y143.97 E541.935
G1 X99.52 Y147.04 E542.152
G1 X102.59 Y150.11 E542.369
G1 X102.02 F9000
G1 X99.06 Y147.15 E542.578 F3600
G1 X96.1 Y144.19 E542.787
G1 X93.15 Y141.23 E542.995
G1 X90.19 Y138.27 E543.204
G1 X87.23 Y135.31 E543.413
G1 Y135.88 F9000
G1 X90.08 Y138.73 E543.614 F3600
G1 X92.92 Y141.57 E543.815
G1 X95.77 Y144.42 E544.015
G1 X98.61 Y147.26 E544.216
G1 X101.46 Y150.11 E544.417
G1 X100.89 F9000
G1 X97.48 Y146.7 E544.658 F3600
G1 X94.06 Y143.28 E544.899
G1 X90.65 Y139.87 E545.14
G1 X87.23 Y136.45 E545.381
G1 Y137.01 F9000
G1 X90.51 Y140.29 E545.612 F3600
G1 X93.78 Y143.56 E545.843
G1 X97.06 Y146.84 E546.074
G1 X100.33 Y150.11 E546.305
G1 X99.76 F9000
G1 X96.63 Y146.98 E546.526 F3600
G1 X93.5 Y143.85 E546.747
G1 X90.36 Y140.71 E546.968
G1 X87.23 Y137.58 E547.189
G1 Y138.14 F9000
G1 X90.22 Y141.13 E547.4 F3600
G1 X93.22 Y144.13 E547.611
G1 X96.21 Y147.12 E547.822
G1 X99.2 Y150.11 E548.033
G1 X98.63 F9000
G1 X95.78 Y147.26 E548.234 F3600
G1 X92.93 Y144.41 E548.436
G1 X90.08 Y141.56 E548.637
G1 X87.23 Y138.71 E548.838
G1 Y139.27 F9000
G1 X89.94 Y141.98 E549.029 F3600
G1 X92.65 Y144.69 E549.22
G1 X95.36 Y147.4 E549.411
G1 X98.07 Y150.11 E549.602
G1 X97.5 F9000
G1 X94.08 Y146.69 E549.844 F3600
G1 X90.65 Y143.26 E550.085
G1 X87.23 Y139.84 E550.327
G1 Y140.41 F9000
G1 X90.46 Y143.64 E550.555 F3600
G1 X93.7 Y146.88 E550.783
G1 X96.93 Y150.11 E551.011
G1 X96.37 F9000
G1 X93.32 Y147.06 E551.226 F3600
G1 X90.28 Y144.02 E551.441
G1 X87.23 Y140.97 E551.656
G1 Y141.54 F9000
G1 X90.09 Y144.4 E551.858 F3600
G1 X92.94 Y147.25 E552.059
G1 X95.8 Y150.11 E552.261
G1 X95.24 F9000
G1 X92.57 Y147.44 E552.449 F3600
G1 X89.9 Y144.77 E552.638
G1 X87.23 Y142.1 E552.826
G1 Y142.67 F9000
G1 X89.71 Y145.15 E553.001 F3600
G1 X92.19 Y147.63 E553.176
G1 X94.67 Y150.11 E553.351
G1 X94.11 F9000
G1 X90.67 Y146.67 E553.594 F3600
G1 X87.23 Y143.23 E553.836
G1 Y143.8 F9000
G1 X90.39 Y146.96 E554.059 F3600
G1 X93.54 Y150.11 E554.281
G1 X92.97 F9000
G1 X90.1 Y147.24 E554.484 F3600
G1 X87.23 Y144.37 E554.686
G1 Y144.93 F9000
G1 X89.82 Y147.52 E554.869 F3600
G1 X92.41 Y150.11 E555.051
G1 X91.84 F9000
G1 X89.54 Y147.81 E555.214 F3600
G1 X87.23 Y145.5 E555.377
G1 Y146.06 F9000
G1 X91.28 Y150.11 E555.662 F3600
G1 X90.71 F9000
G1 X87.23 Y146.63 E555.908 F3600
G1 Y147.19 F9000
G1 X90.15 Y150.11 E556.113 F3600
G1 X89.58 F9000
G1 X87.23 Y147.76 E556.279 F3600
G1 Y148.32 F9000
G1 X89.01 Y150.11 E556.405 F3600
G1 X88.45 F9000
G1 X87.23 Y148.89 E556.491 F3600
G1 Y149.46 F9000
G1 X87.88 Y150.11 E556.537 F3600
G1 X87.32 F9000
G1 X87.23 Y150.02 E556.543 F3600
G1 E553.543 F1800
G1 Z1.1
G1 X87.23 Y141.4 F9000
G1 X87.22 Y132.79
G1 X87.22 Y124.17
G1 X87.21 Y115.55
G1 X86.29 Y114.5
G1 Y115.09
G1 X85.39
G1 X86.29 Y116.01
G1 X85.67 Y115.26
G1 X87.5 Y114.29
G1 X95.38
G1 X103.26
G1 X111.14
G1 Y123.26
G1 Y132.23
; TYPE:SUPPORT
G1 Z0.6
G1 E556.543 F1800
G1 X111.59 Y131.83 E556.573 F3600
G1 X111.94 Y131.65 E556.593
G1 X112.27 Y131.6 E556.609
G1 X112.83 Y131.76 E556.638
G1 X113.2 Y132.02 E556.661
G1 X113.58 Y132.42 E556.688
G1 X114.2 Y133.46 E556.749
G1 X114.59 Y134.51 E556.804
G1 X114.94 Y136.02 E556.882
G1 X115.06 Y137.31 E556.947
G1 X115.04 Y137.9 E556.976
G1 X114.78 Y139.51 E557.057
G1 X114.33 Y140.95 E557.133
G1 X113.86 Y141.9 E557.186
G1 X113.37 Y142.54 E557.225
G1 X112.9 Y142.93 E557.256
G1 X112.48 Y143.1 E557.279
G1 X112.17 Y143.12 E557.295
G1 X111.76 Y142.99 E557.316
G1 X111.3 Y142.66 E557.344
G1 X110.78 Y142.04 E557.384
G1 X110.23 Y140.98 E557.444
G1 X109.79 Y139.61 E557.515
G1 X109.52 Y137.98 E557.598
G1 X109.5 Y137.26 E557.634
G1 X109.63 Y135.92 E557.701
G1 X109.96 Y134.51 E557.773
G1 X110.5 Y133.18 E557.845
G1 X111.14 Y132.23 E557.902
G1 X111.44 Y132.65 F9000
G1 X114.33 Y135.55 E558.107 F3600
G1 X114.22 Y139.68 F9000
G1 X110.19 Y135.64 E558.392 F3600
G1 X110.48 Y140.18 F9000
G1 X112.74 Y142.44 E558.551 F3600
G1 E555.551 F1800
G1 Z1.1
G1 Y133.06 F9000
G1 Y123.67
G1 Y114.29
G1 X110.02 Y113.85
G1 X107.31 Y112.9
G1 X106.22 Y112.87
G1 Y105.02
G1 Z0.6
G1 E558.551 F1800
G1 X105.91 E558.567 F3600
G1 X105.44 Y104.83 E558.592
G1 X104.94 Y104.41 E558.624
G1 X104.44 Y103.72 E558.667
G1 X103.64 Y102.05 E558.759
G1 X103.2 E558.781
G1 Y101.7 E558.799
G1 X106.51 E558.964
G1 X109.81 E559.129
G1 Y102.05 E559.147
G1 X108.49 E559.212
G1 X107.7 Y103.71 E559.304
G1 X107.14 Y104.46 E559.35
G1 X106.69 Y104.83 E559.379
G1 X106.22 Y105.02 E559.405
G1 X107.42 Y103.18 F9000
G1 X106.42 Y102.18 E559.475 F3600
G1 E556.475 F1800
G1 Z1.1
G1 Y112.87 F9000
G1 X108.64 Y113.26
G1 X110.87 Y114.28
G1 X111.98 Y114.29
G1 Y122.19
G1 Y130.09
; TYPE:SUPPORT-INTERFACE
G1 Z0.6
G1 E559.475 F1800
G1 X112.29 Y130.04 E559.491 F3600
G1 X112.67 Y130.12 E559.51
G1 X112.98 Y130.29 E559.528
G1 X113.52 Y130.79 E559.565
G1 X113.98 Y131.49 E559.606
G1 X114.52 Y132.74 E559.674
G1 X114.86 Y134.11 E559.745
G1 X114.56 Y133.29 E559.788
G1 X113.9 Y132.19 E559.853
G1 X113.46 Y131.71 E559.884
G1 X113.01 Y131.39 E559.912
G1 X112.29 Y131.19 E559.95
G1 X111.82 Y131.27 E559.973
G1 X111.36 Y131.5 E559.999
G1 X110.84 Y131.96 E560.034
G1 X110.14 Y132.99 E560.096
G1 X109.68 Y134.14 E560.157
G1 X110.05 Y132.67 E560.233
G1 X110.59 Y131.45 E560.299
G1 X111.06 Y130.76 E560.341
G1 X111.53 Y130.31 E560.373
G1 X111.98 Y130.09 E560.398
G1 X112.13 Y130.55 F9000
G1 X112.21 Y130.75 E560.412 F3600
G1 X112.61 Y130.63 E560.433
G1 E557.433 F1800
G1 Z1.1
G1 Y122.46 F9000
G1 Y114.29
G1 X120.57
G1 X128.52
G1 X136.48
G1 X137.47 Y114.79
G1 X137.99 Y115.81
G1 Z0.6
G1 E560.433 F1800
G1 Y113.6 E560.543 F3600
G1 X133.21 E560.782
G1 X128.43 E561.02
G1 X123.64 E561.259
G1 X118.86 E561.497
G1 X114.08 E561.736
G1 X109.3 E561.974
G1 X104.52 E562.213
G1 X99.74 E562.451
G1 X94.95 E562.69
G1 X90.17 E562.928
G1 X85.39 E563.167
G1 Y115.81 E563.277
G1 X85.2 E563.287
G1 Y112.2 E563.467
G1 X90.03 E563.708
G1 X94.86 E563.949
G1 X99.68 E564.19
G1 X104.51 E564.431
G1 X109.34 E564.672
G1 X114.17 E564.912
G1 X119 E565.153
G1 X123.83 E565.394
G1 X128.65 E565.635
G1 X133.48 E565.876
G1 X138.31 E566.117
G1 Y115.81 E566.297
G1 X137.99 E566.313
G1 X137.62 Y115.18 F9000
G1 X137.48 Y113.12
G1 X137.59 Y112.72 E566.337 F3600
G1 X136.85 Y112.9 E566.368
G1 X136.29 E566.399
G1 X135.72 E566.43
G1 X135.16 E566.462
G1 X134.59 E566.493
G1 X134.02 E566.524
G1 X133.46 E566.555
G1 X132.89 E566.586
G1 X132.33 E566.617
G1 X131.76 E566.648
G1 X131.2 E566.68
G1 X130.63 E566.711
G1 X130.06 E566.742
G1 X129.5 E566.773
G1 X128.93 E566.804
G1 X128.37 E566.835
G1 X127.8 E566.866
G1 X127.24 E566.897
G1 X126.67 E566.929
G1 X126.1 E566.96
G1 X125.54 E566.991
G1 X124.97 E567.022
G1 X124.41 Y112.9 E567.053
G1 X123.84 E567.084
G1 X123.28 E567.116
G1 X122.71 E567.147
G1 X122.15 E567.178
G1 X121.58 E567.209
G1 X121.01 E567.241
G1 X120.45 E567.272
G1 X119.88 E567.303
G1 X119.32 E567.334
G1 X118.75 E567.365
G1 X118.19 E567.397
G1 X117.62 E567.428
G1 X117.05 E567.459
G1 X116.49 E567.49
G1 X115.92 E567.522
G1 X115.36 E567.553
G1 X114.79 E567.584
G1 X114.23 E567.615
G1 X113.66 E567.647
G1 X113.09 E567.678
G1 X112.53 E567.709
G1 X111.96 E567.74
G1 X111.4 E567.771
G1 X110.83 E567.803
G1 X110.27 E567.834
G1 X109.7 E567.865
G1 X109.14 E567.896
G1 X108.57 E567.927
G1 X108 E567.959
G1 X107.44 E567.99
G1 X106.87 E568.021
G1 X106.31 E568.052
G1 X105.74 E568.083
G1 X105.18 E568.114
G1 X104.61 E568.146
G1 X104.04 E568.177
G1 X103.48 E568.208
G1 X102.91 E568.239
G1 X102.35 E568.27
G1 X101.78 E568.302
G1 X101.22 E568.333
G1 X100.65 E568.364
G1 X100.08 E568.395
G1 X99.52 E568.426
G1 X98.95 E568.457
G1 X98.39 E568.489
G1 X97.82 E568.52
G1 X97.26 E568.551
G1 X96.69 E568.582
G1 X96.12 E568.614
G1 X95.56 E568.645
G1 X94.99 E568.676
G1 X94.43 E568.707
G1 X93.86 E568.739
G1 X93.3 E568.77
G1 X92.73 E568.801
G1 X92.17 E568.832
G1 X91.6 E568.864
G1 X91.03 E568.895
G1 X90.47 E568.926
G1 X89.9 E568.957
G1 X89.34 E568.989
G1 X88.77 E569.02
G1 X88.21 E569.051
G1 X87.64 E569.083
G1 X87.07 E569.114
G1 X86.51 E569.145
G1 X85.84 Y113 E569.176
G1 X85.88 Y112.67 E569.193
; Layer Change GCode
; LAYER:2
; LAYER_HEIGHT:0.3
; TYPE:FILL
G1 E566.193 F1800
G1 Z1.1
G1 X86.41 Y112.41 Z1.4 F9000
G1 X91.29 Y109.95
G1 X92.19 Y109.06
G1 X91.89 Y109.35
; TYPE:WALL-INNER
G1 Z0.9
G1 E569.193 F1800
G1 Y103.55 E569.482 F3600
G1 X95.42 E569.658
G1 X98.95 E569.834
G1 X102.48 E570.01
G1 X102.59 Y103.86 E570.027
G1 X102.91 Y104.58 E570.066
G1 X103.3 Y105.26 E570.105
G1 X103.69 Y105.79 E570.138
G1 X104.04 Y106.17 E570.164
G1 X104.45 Y106.51 E570.19
G1 X104.89 Y106.77 E570.216
G1 X105.34 Y106.96 E570.24
G1 X105.82 Y107.05 E570.265
G1 X106.31 E570.289
G1 X106.79 Y106.96 E570.313
G1 X107.21 Y106.79 E570.336
G1 X107.68 Y106.51 E570.363
G1 X108.09 Y106.17 E570.39
G1 X108.44 Y105.79 E570.415
G1 X108.83 Y105.26 E570.448
G1 X109.22 Y104.58 E570.487
G1 X109.55 Y103.86 E570.527
G1 X109.66 Y103.55 E570.543
G1 X114.15 E570.767
G1 X118.65 E570.991
G1 X123.14 E571.215
G1 X127.63 E571.44
G1 X132.12 E571.664
G1 X136.62 E571.888
G1 X141.11 E572.112
G1 Y109.35 E572.402
G1 X136.19 E572.647
G1 X131.27 E572.893
G1 X126.36 E573.138
G1 X121.44 E573.383
G1 X116.52 E573.629
G1 X111.6 E573.874
G1 X106.68 E574.119
G1 X101.77 E574.364
G1 X96.85 E574.61
G1 X91.93 E574.855
G1 X91.89
G1 X91.49 Y109.75 F9000
; TYPE:WALL-OUTER
G1 Y106.45 E575.02 F3000
G1 Y103.15 E575.185
G1 X95.25 E575.372
G1 X99 E575.56
G1 X102.76 E575.747
G1 X102.96 Y103.71 E575.777
G1 X103.27 Y104.4 E575.814
G1 X103.64 Y105.05 E575.851
G1 X104 Y105.54 E575.882
G1 X104.32 Y105.88 E575.905
G1 X104.69 Y106.19 E575.929
G1 X105.07 Y106.42 E575.951
G1 X105.46 Y106.57 E575.972
G1 X105.86 Y106.65 E575.993
G1 X106.27 E576.013
G1 X106.68 Y106.57 E576.034
G1 X107.04 Y106.43 E576.053
G1 X107.44 Y106.19 E576.077
G1 X107.81 Y105.88 E576.101
G1 X108.13 Y105.54 E576.124
G1 X108.49 Y105.05 E576.154
G1 X108.86 Y104.4 E576.192
G1 X109.17 Y103.71 E576.229
G1 X109.37 Y103.15 E576.259
G1 X113.96 E576.488
G1 X118.55 E576.717
G1 X123.14 E576.946
G1 X127.74 E577.175
G1 X132.33 E577.404
G1 X136.92 E577.633
G1 X141.51 E577.862
G1 Y106.45 E578.027
G1 Y109.75 E578.192
G1 X136.51 E578.441
G1 X131.51 E578.691
G1 X126.52 E578.94
G1 X121.52 E579.189
G1 X116.52 E579.439
G1 X111.52 E579.688
G1 X106.52 E579.937
G1 X101.53 E580.186
G1 X96.53 E580.436
G1 X91.53 E580.685
G1 X91.49
G1 Y106.75
G1 X91.89 Y109.35 F9000
G1 X92.38 Y109.01
; TYPE:FILL
G1 X94.94 Y106.45 E580.866 F3600
G1 X97.49 Y103.89 E581.046
G1 X98.06 F9000
G1 X95.5 Y106.45 E581.227 F3600
G1 X92.94 Y109.01 E581.407
G1 X93.51 F9000
G1 X96.07 Y106.45 E581.588 F3600
G1 X98.63 Y103.89 E581.769
G1 X99.19 F9000
G1 X96.63 Y106.45 E581.95 F3600
G1 X94.07 Y109.01 E582.13
G1 X94.64 F9000
G1 X97.2 Y106.45 E582.311 F3600
G1 X99.76 Y103.89 E582.491
G1 X100.32 F9000
G1 X97.76 Y106.45 E582.672 F3600
G1 X95.2 Y109.01 E582.852
G1 X95.77 F9000
G1 X98.33 Y106.45 E583.033 F3600
G1 X100.89 Y103.89 E583.213
G1 X101.45 F9000
G1 X98.89 Y106.45 E583.394 F3600
G1 X96.33 Y109.01 E583.574
G1 X96.9 F9000
G1 X99.46 Y106.45 E583.755 F3600
G1 X102.02 Y103.89 E583.936
G1 X102.34 Y104.14 F9000
G1 X99.91 Y106.58 E584.108 F3600
G1 X97.47 Y109.01 E584.279
G1 X98.03 F9000
G1 X100.27 Y106.77 E584.438 F3600
G1 X102.51 Y104.53 E584.596
G1 X102.7 Y104.9 F9000
G1 X98.6 Y109.01 E584.885 F3600
G1 X99.16 F9000
G1 X102.91 Y105.26 E585.149 F3600
G1 X103.13 Y105.6 F9000
G1 X99.73 Y109.01 E585.39 F3600
G1 X100.29 F9000
G1 X103.37 Y105.93 E585.607 F3600
G1 X103.64 Y106.23 F9000
G1 X100.86 Y109.01 E585.803 F3600
G1 X101.43 F9000
G1 X103.92 Y106.51 E585.979 F3600
G1 X104.23 Y106.77 F9000
G1 X101.99 Y109.01 E586.137 F3600
G1 X102.56 F9000
G1 X104.58 Y106.99 E586.28 F3600
G1 X104.96 Y107.17 F9000
G1 X103.12 Y109.01 E586.41 F3600
G1 X103.69 F9000
G1 X105.39 Y107.31 E586.529 F3600
G1 X105.87 Y107.39 F9000
G1 X104.25 Y109.01 E586.643 F3600
G1 X104.82 F9000
G1 X106.46 Y107.37 E586.759 F3600
G1 X107.26 Y107.14 F9000
G1 X105.39 Y109.01 E586.891 F3600
G1 X105.95 F9000
G1 X108.51 Y106.45 E587.072 F3600
G1 X111.07 Y103.89 E587.252
G1 X111.64 F9000
G1 X109.08 Y106.45 E587.433 F3600
G1 X106.52 Y109.01 E587.613
G1 X107.08 F9000
G1 X109.64 Y106.45 E587.794 F3600
G1 X112.2 Y103.89 E587.974
G1 X112.77 F9000
G1 X110.21 Y106.45 E588.155 F3600
G1 X107.65 Y109.01 E588.335
G1 X108.21 F9000
G1 X110.77 Y106.45 E588.516 F3600
G1 X113.33 Y103.89 E588.697
G1 X113.9 F9000
G1 X111.34 Y106.45 E588.878 F3600
G1 X108.78 Y109.01 E589.058
G1 X109.35 F9000
G1 X111.91 Y106.45 E589.239 F3600
G1 X114.46 Y103.89 E589.419
G1 X115.03 F9000
G1 X112.47 Y106.45 E589.6 F3600
G1 X109.91 Y109.01 E589.78
G1 X110.48 F9000
G1 X113.04 Y106.45 E589.961 F3600
G1 X115.6 Y103.89 E590.141
G1 X116.16 F9000
G1 X113.6 Y106.45 E590.322 F3600
G1 X111.04 Y109.01 E590.502
G1 X111.61 F9000
G1 X114.17 Y106.45 E590.683 F3600
G1 X116.73 Y103.89 E590.863
G1 X117.29 F9000
G1 X114.73 Y106.45 E591.044 F3600
G1 X112.17 Y109.01 E591.225
G1 X112.74 F9000
G1 X115.3 Y106.45 E591.406 F3600
G1 X117.86 Y103.89 E591.586
G1 X118.42 F9000
G1 X115.87 Y106.45 E591.767 F3600
G1 X113.31 Y109.01 E591.947
G1 X113.87 F9000
G1 X116.43 Y106.45 E592.128 F3600
G1 X118.99 Y103.89 E592.308
G1 X119.56 F9000
G1 X117 Y106.45 E592.489 F3600
G1 X114.44 Y109.01 E592.669
G1 X115 F9000
G1 X117.56 Y106.45 E592.85 F3600
G1 X120.12 Y103.89 E593.03
G1 X120.69 F9000
G1 X118.13 Y106.45 E593.211 F3600
G1 X115.57 Y109.01 E593.391
G1 X116.13 F9000
G1 X118.69 Y106.45 E593.572 F3600
G1 X121.25 Y103.89 E593.752
G1 X121.82 F9000
G1 X119.26 Y106.45 E593.933 F3600
G1 X116.7 Y109.01 E594.114
G1 X117.26 F9000
G1 X119.82 Y106.45 E594.295 F3600
G1 X122.38 Y103.89 E594.475
G1 X122.95 F9000
G1 X120.39 Y106.45 E594.656 F3600
G1 X117.83 Y109.01 E594.836
G1 X118.4 F9000
G1 X120.96 Y106.45 E595.017 F3600
G1 X123.52 Y103.89 E595.197
G1 X124.08 F9000
G1 X121.52 Y106.45 E595.378 F3600
G1 X118.96 Y109.01 E595.558
G1 X119.53 F9000
G1 X122.09 Y106.45 E595.739 F3600
G1 X124.65 Y103.89 E595.92
G1 X125.21 F9000
G1 X122.65 Y106.45 E596.101 F3600
G1 X120.09 Y109.01 E596.281
G1 X120.66 F9000
G1 X123.22 Y106.45 E596.462 F3600
G1 X125.78 Y103.89 E596.642
G1 X126.34 F9000
G1 X123.78 Y106.45 E596.823 F3600
G1 X121.22 Y109.01 E597.003
G1 X121.79 F9000
G1 X124.35 Y106.45 E597.184 F3600
G1 X126.91 Y103.89 E597.364
G1 X127.48 F9000
G1 X124.92 Y106.45 E597.545 F3600
G1 X122.36 Y109.01 E597.726
G1 X122.92 F9000
G1 X125.48 Y106.45 E597.907 F3600
G1 X128.04 Y103.89 E598.087
G1 X128.61 F9000
G1 X126.05 Y106.45 E598.268 F3600
G1 X123.49 Y109.01 E598.448
G1 X124.05 F9000
G1 X126.61 Y106.45 E598.629 F3600
G1 X129.17 Y103.89 E598.809
G1 X129.74 F9000
G1 X127.18 Y106.45 E598.99 F3600
G1 X124.62 Y109.01 E599.17
G1 X125.18 F9000
G1 X127.74 Y106.45 E599.351 F3600
G1 X130.3 Y103.89 E599.531
G1 X130.87 F9000
G1 X128.31 Y106.45 E599.712 F3600
G1 X125.75 Y109.01 E599.893
G1 X126.32 F9000
G1 X128.88 Y106.45 E600.074 F3600
G1 X131.43 Y103.89 E600.254
G1 X132 F9000
G1 X129.44 Y106.45 E600.435 F3600
G1 X126.88 Y109.01 E600.615
G1 X127.45 F9000
G1 X130.01 Y106.45 E600.796 F3600
G1 X132.57 Y103.89 E600.976
G1 X133.13 F9000
G1 X130.57 Y106.45 E601.157 F3600
G1 X128.01 Y109.01 E601.337
G1 X128.58 F9000
G1 X131.14 Y106.45 E601.518 F3600
G1 X133.7 Y103.89 E601.699
G1 X134.26 F9000
G1 X131.7 Y106.45 E601.88 F3600
G1 X129.14 Y109.01 E602.06
G1 X129.71 F9000
G1 X132.27 Y106.45 E602.241 F3600
G1 X134.83 Y103.89 E602.421
G1 X135.39 F9000
G1 X132.84 Y106.45 E602.602 F3600
G1 X130.28 Y109.01 E602.782
G1 X130.84 F9000
G1 X133.4 Y106.45 E602.963 F3600
G1 X135.96 Y103.89 E603.143
G1 X136.53 F9000
G1 X133.97 Y106.45 E603.324 F3600
G1 X131.41 Y109.01 E603.505
G1 X131.97 F9000
G1 X134.53 Y106.45 E603.686 F3600
G1 X137.09 Y103.89 E603.866
G1 X137.66 F9000
G1 X135.1 Y106.45 E604.047 F3600
G1 X132.54 Y109.01 E604.227
G1 X133.1 F9000
G1 X135.66 Y106.45 E604.408 F3600
G1 X138.22 Y103.89 E604.588
G1 X138.79 F9000
G1 X136.23 Y106.45 E604.769 F3600
G1 X133.67 Y109.01 E604.949
G1 X134.24 F9000
G1 X136.8 Y106.45 E605.13 F3600
G1 X139.35 Y103.89 E605.31
G1 X139.92 F9000
G1 X137.36 Y106.45 E605.491 F3600
G1 X134.8 Y109.01 E605.672
G1 X135.37 F9000
G1 X137.93 Y106.45 E605.853 F3600
G1 X140.49 Y103.89 E606.033
G1 X140.77 Y104.17 F9000
G1 X138.35 Y106.59 E606.204 F3600
G1 X135.93 Y109.01 E606.374
G1 X136.5 F9000
G1 X138.64 Y106.88 E606.525 F3600
G1 X140.77 Y104.74 E606.675
G1 Y105.31 F9000
G1 X137.06 Y109.01 E606.937 F3600
G1 X137.63 F9000
G1 X140.77 Y105.87 E607.158 F3600
G1 Y106.44 F9000
G1 X138.19 Y109.01 E607.339 F3600
G1 X138.76 F9000
G1 X140.77 Y107 E607.481 F3600
G1 Y107.57 F9000
G1 X139.33 Y109.01 E607.583 F3600
G1 X139.89 F9000
G1 X140.77 Y108.13 E607.644 F3600
G1 Y108.7 F9000
G1 X140.46 Y109.01 E607.666 F3600
G1 E604.666 F1800
G1 Z1.4
G1 Y108.86 F9000
G1 X132.97 Y107.62
G1 X125.48 Y106.38
G1 X117.99 Y105.13
G1 X110.5 Y103.89
G1 Z0.9
G1 E607.666 F1800
G1 X109.34 Y105.06 E607.749 F3600
G1 X109.87 Y103.96 F9000
G1 X109.94 Y103.89 E607.754 F3600
G1 X107.22 Y106.98 F9000
G1 X104.91
G1 X101.83 Y105.31
G1 X96.93 Y103.89
G1 X94.58 Y106.24 E607.92 F3600
G1 X92.23 Y108.59 E608.085
G1 Y108.02 F9000
G1 X96.36 Y103.89 E608.377 F3600
G1 X95.8 F9000
G1 X92.23 Y107.46 E608.628 F3600
G1 Y106.89 F9000
G1 X95.23 Y103.89 E608.84 F3600
G1 X94.67 F9000
G1 X92.23 Y106.32 E609.012 F3600
G1 Y105.76 F9000
G1 X94.1 Y103.89 E609.144 F3600
G1 X93.53 F9000
G1 X92.23 Y105.19 E609.236 F3600
G1 Y104.63 F9000
G1 X92.97 Y103.89 E609.288 F3600
G1 X92.4 F9000
G1 X92.23 Y104.06 E609.3 F3600
G1 E606.3 F1800
G1 Z1.4
G1 X92.15 Y108.7 F9000
G1 X91.29 Y109.95
G1 X90.83 Y110.33
G1 X87.3 Y113.09
G1 X86.8 Y113.06
G1 X86.29 Y114.08
G1 X87.19 Y114.98
G1 X86.89 Y114.68
; TYPE:WALL-INNER
G1 Z0.9
G1 E609.3 F1800
G1 X91.85 E609.548 F3600
G1 X96.81 E609.795
G1 X101.77 E610.043
G1 X106.73 E610.29
G1 X111.69 E610.538
G1 X116.65 E610.785
G1 X121.61 E611.033
G1 X126.57 E611.28
G1 X131.53 E611.527
G1 X136.49 E611.775
G1 Y119.15 E611.998
G1 Y123.62 E612.221
G1 Y128.09 E612.444
G1 Y132.57 E612.668
G1 Y137.04 E612.891
G1 Y141.51 E613.114
G1 Y145.98 E613.337
G1 Y150.45 E613.56
G1 X131.53 E613.807
G1 X126.57 E614.055
G1 X121.61 E614.302
G1 X116.65 E614.55
G1 X111.69 E614.797
G1 X106.73 E615.044
G1 X101.77 E615.292
G1 X96.81 E615.539
G1 X91.85 E615.787
G1 X86.89 E616.034
G1 Y145.98 E616.257
G1 Y141.52 E616.48
G1 Y137.05 E616.703
G1 Y132.58 E616.926
G1 Y128.11 E617.148
G1 Y123.65 E617.371
G1 Y119.18 E617.594
G1 Y114.71 E617.817
G1 Y114.68
G1 X86.49 Y114.28 F9000
; TYPE:WALL-OUTER
G1 X91.07 E618.046 F3000
G1 X95.65 E618.274
G1 X100.24 E618.503
G1 X104.82 E618.731
G1 X109.4 E618.96
G1 X113.98 E619.188
G1 X118.56 E619.417
G1 X123.14 E619.645
G1 X127.73 E619.874
G1 X132.31 E620.102
G1 X136.89 E620.331
G1 Y118.85 E620.559
G1 Y123.42 E620.787
G1 Y127.99 E621.015
G1 Y132.57 E621.244
G1 Y137.14 E621.472
G1 Y141.71 E621.7
G1 Y146.28 E621.928
G1 Y150.85 E622.156
G1 X132.31 E622.385
G1 X127.73 E622.613
G1 X123.14 E622.842
G1 X118.56 E623.071
G1 X113.98 E623.299
G1 X109.4 E623.528
G1 X104.82 E623.756
G1 X100.24 E623.985
G1 X95.65 E624.214
G1 X91.07 E624.442
G1 X86.49 E624.671
G1 Y146.28 E624.899
G1 Y141.72 E625.127
G1 Y137.15 E625.354
G1 Y132.58 E625.582
G1 Y128.01 E625.81
G1 Y123.45 E626.038
G1 Y118.88 E626.265
G1 Y114.31 E626.493
G1 Y114.28
G1 X89.49
G1 X86.89 Y114.68 F9000
G1 E623.493 F1800
G1 Z1.4
G1 X87.19 Y114.98 F9000
G1 X95.24 Y119.73
G1 X103.29 Y124.48
G1 X111.34 Y129.23
; TYPE:WALL-INNER
G1 Z0.9
G1 E626.493 F1800
G1 X110.91 Y129.44 E626.517 F3600
G1 X110.51 Y129.72 E626.541
G1 X110.14 Y130.06 E626.567
G1 X109.79 Y130.45 E626.593
G1 X109.5 Y130.87 E626.618
G1 X109.2 Y131.37 E626.647
G1 X108.86 Y132.08 E626.686
G1 X108.55 Y132.93 E626.732
G1 X108.37 Y133.58 E626.765
G1 X108.22 Y134.23 E626.799
G1 X108.07 Y135.14 E626.844
G1 X107.98 Y136.01 E626.888
G1 X107.95 Y137.01 E626.938
G1 X107.97 Y137.94 E626.984
G1 X108.05 Y138.88 E627.032
G1 X108.2 Y139.86 E627.081
G1 X108.37 Y140.64 E627.121
G1 X108.62 Y141.47 E627.164
G1 X108.85 Y142.1 E627.197
G1 X109.13 Y142.71 E627.231
G1 X109.51 Y143.36 E627.269
G1 X109.91 Y143.9 E627.302
G1 X110.27 Y144.29 E627.328
G1 X110.65 Y144.6 E627.353
G1 X111.06 Y144.86 E627.377
G1 X111.5 Y145.04 E627.401
G1 X111.94 Y145.14 E627.424
G1 X112.38 Y145.16 E627.445
G1 X112.83 Y145.1 E627.468
G1 X113.27 Y144.96 E627.491
G1 X113.69 Y144.74 E627.515
G1 X114.09 Y144.45 E627.539
G1 X114.46 Y144.1 E627.565
G1 X114.81 Y143.69 E627.592
G1 X115.19 Y143.12 E627.626
G1 X115.54 Y142.47 E627.663
G1 X115.86 Y141.69 E627.705
G1 X116.1 Y140.92 E627.745
G1 X116.25 Y140.33 E627.775
G1 X116.38 Y139.69 E627.808
G1 X116.51 Y138.8 E627.853
G1 X116.59 Y137.83 E627.902
G1 X116.6 Y136.83 E627.951
G1 X116.55 Y135.81 E628.002
G1 X116.43 Y134.79 E628.054
G1 X116.28 Y133.99 E628.094
G1 X116.16 Y133.51 E628.119
G1 X116 Y132.94 E628.148
G1 X115.8 Y132.36 E628.179
G1 X115.48 Y131.63 E628.218
G1 X115.11 Y130.96 E628.257
G1 X114.68 Y130.36 E628.294
G1 X114.33 Y129.97 E628.32
G1 X113.95 Y129.64 E628.345
G1 X113.59 Y129.41 E628.366
G1 X113.17 Y129.21 E628.39
G1 X112.72 Y129.08 E628.413
G1 X112.35 Y129.05 E628.431
G1 X111.98 Y129.07 E628.45
G1 X111.77 Y129.1 E628.46
G1 X111.37 Y129.21 E628.481
G1 X111.34 Y129.23
G1 X111.48 Y129.6 F9000
; TYPE:WALL-OUTER
G1 X111.11 Y129.78 E628.502 F3000
G1 X110.76 Y130.03 E628.523
G1 X110.42 Y130.34 E628.546
G1 X110.11 Y130.7 E628.57
G1 X109.83 Y131.09 E628.594
G1 X109.55 Y131.56 E628.621
G1 X109.23 Y132.24 E628.658
G1 X108.93 Y133.06 E628.702
G1 X108.76 Y133.68 E628.734
G1 X108.62 Y134.31 E628.766
G1 X108.47 Y135.19 E628.811
G1 X108.38 Y136.04 E628.853
G1 X108.35 Y137.02 E628.902
G1 X108.37 Y137.92 E628.947
G1 X108.45 Y138.84 E628.993
G1 X108.59 Y139.78 E629.041
G1 X108.76 Y140.54 E629.079
G1 X109 Y141.34 E629.121
G1 X109.22 Y141.94 E629.153
G1 X109.49 Y142.53 E629.185
G1 X109.85 Y143.14 E629.221
G1 X110.22 Y143.65 E629.252
G1 X110.55 Y143.99 E629.276
G1 X110.89 Y144.28 E629.298
G1 X111.25 Y144.5 E629.319
G1 X111.62 Y144.66 E629.339
G1 X112 Y144.74 E629.359
G1 X112.36 Y144.76 E629.377
G1 X112.74 Y144.71 E629.396
G1 X113.12 Y144.59 E629.416
G1 X113.48 Y144.4 E629.436
G1 X113.84 Y144.14 E629.458
G1 X114.17 Y143.83 E629.481
G1 X114.49 Y143.45 E629.506
G1 X114.84 Y142.92 E629.538
G1 X115.17 Y142.3 E629.573
G1 X115.48 Y141.55 E629.613
G1 X115.72 Y140.81 E629.652
G1 X115.86 Y140.24 E629.681
G1 X115.99 Y139.62 E629.713
G1 X116.11 Y138.75 E629.756
G1 X116.19 Y137.81 E629.804
G1 X116.2 Y136.84 E629.852
G1 X116.15 Y135.84 E629.902
G1 X116.03 Y134.85 E629.952
G1 X115.89 Y134.07 E629.991
G1 X115.78 Y133.62 E630.014
G1 X115.62 Y133.06 E630.043
G1 X115.42 Y132.5 E630.073
G1 X115.12 Y131.81 E630.11
G1 X114.77 Y131.17 E630.147
G1 X114.37 Y130.61 E630.181
G1 X114.05 Y130.26 E630.205
G1 X113.71 Y129.96 E630.228
G1 X113.39 Y129.76 E630.246
G1 X113.03 Y129.59 E630.266
G1 X112.64 Y129.48 E630.286
G1 X112.34 Y129.45 E630.301
G1 X112.02 Y129.46 E630.317
G1 X111.86 Y129.49 E630.325
G1 X111.52 Y129.59 E630.343
G1 X111.48 Y129.6
G1 X111.11 Y129.78
G1 X110.76 Y130.03
G1 X110.42 Y130.34
G1 X110.11 Y130.7
G1 X109.83 Y131.09
G1 X109.55 Y131.56
G1 X109.47 Y131.74
G1 X111.34 Y129.23 F9000
G1 X111.63 Y128.78
; TYPE:FILL
G1 X115.07 Y125.34 E630.586 F3600
G1 X118.52 Y121.9 E630.829
G1 X121.96 Y118.46 E631.071
G1 X125.4 Y115.02 E631.314
G1 X125.97 F9000
G1 X122.55 Y118.44 E631.556 F3600
G1 X119.12 Y121.87 E631.798
G1 X115.7 Y125.29 E632.039
G1 X112.27 Y128.71 E632.281
G1 X112.79 Y128.75 F9000
G1 X116.23 Y125.32 E632.523 F3600
G1 X119.66 Y121.89 E632.766
G1 X123.1 Y118.45 E633.008
G1 X126.53 Y115.02 E633.25
G1 X127.1 F9000
G1 X123.64 Y118.49 E633.495 F3600
G1 X120.17 Y121.95 E633.739
G1 X116.71 Y125.42 E633.984
G1 X113.24 Y128.88 E634.228
G1 X113.63 Y129.05 F9000
G1 X117.14 Y125.54 E634.476 F3600
G1 X120.65 Y122.04 E634.723
G1 X124.15 Y118.53 E634.971
G1 X127.66 Y115.02 E635.218
G1 X128.23 F9000
G1 X125.38 Y117.87 E635.419 F3600
G1 X122.53 Y120.72 E635.62
G1 X119.68 Y123.56 E635.821
G1 X116.83 Y126.41 E636.022
G1 X113.98 Y129.26 E636.223
G1 X114.31 Y129.5 F9000
G1 X117.21 Y126.6 E636.428 F3600
G1 X120.11 Y123.71 E636.632
G1 X123 Y120.81 E636.837
G1 X125.9 Y117.92 E637.041
G1 X128.8 Y115.02 E637.246
G1 X129.36 F9000
G1 X126.41 Y117.97 E637.454 F3600
G1 X123.46 Y120.92 E637.662
G1 X120.51 Y123.87 E637.871
G1 X117.56 Y126.82 E638.079
G1 X114.61 Y129.77 E638.287
G1 X114.88 Y130.07 F9000
G1 X117.89 Y127.06 E638.499 F3600
G1 X120.9 Y124.05 E638.711
G1 X123.91 Y121.04 E638.924
G1 X126.92 Y118.03 E639.136
G1 X129.93 Y115.02 E639.348
G1 X130.49 F9000
G1 X127.42 Y118.09 E639.565 F3600
G1 X124.34 Y121.17 E639.782
G1 X121.27 Y124.24 E639.999
G1 X118.19 Y127.32 E640.216
G1 X115.12 Y130.39 E640.433
G1 X115.36 Y130.72 F9000
G1 X118.5 Y127.58 E640.655 F3600
G1 X121.64 Y124.44 E640.876
G1 X124.78 Y121.3 E641.098
G1 X127.92 Y118.16 E641.319
G1 X131.06 Y115.02 E641.541
G1 X131.62 F9000
G1 X128.41 Y118.23 E641.768 F3600
G1 X125.2 Y121.44 E641.994
G1 X121.98 Y124.66 E642.221
G1 X118.77 Y127.87 E642.447
G1 X115.56 Y131.08 E642.674
G1 X115.76 Y131.44 F9000
G1 X119.05 Y128.16 E642.906 F3600
G1 X122.33 Y124.87 E643.138
G1 X125.62 Y121.59 E643.369
G1 X128.9 Y118.3 E643.601
G1 X132.19 Y115.02 E643.833
G1 X132.76 F9000
G1 X129.4 Y118.38 E644.07 F3600
G1 X126.03 Y121.74 E644.307
G1 X122.67 Y125.11 E644.545
G1 X119.3 Y128.47 E644.782
G1 X115.94 Y131.83 E645.019
G1 X116.11 Y132.23 F9000
G1 X119.55 Y128.79 E645.262 F3600
G1 X122.99 Y125.35 E645.505
G1 X126.44 Y121.9 E645.747
G1 X129.88 Y118.46 E645.99
G1 X133.32 Y115.02 E646.233
G1 X133.89 F9000
G1 X130.36 Y118.55 E646.482 F3600
G1 X126.84 Y122.07 E646.731
G1 X123.31 Y125.6 E646.979
G1 X119.79 Y129.12 E647.228
G1 X116.26 Y132.65 E647.477
G1 X116.39 Y133.08 F9000
G1 X119.4 Y130.07 E647.69 F3600
G1 X122.41 Y127.06 E647.902
G1 X125.42 Y124.05 E648.115
G1 X128.43 Y121.04 E648.327
G1 X131.44 Y118.03 E648.54
G1 X134.45 Y115.02 E648.752
G1 X135.02 F9000
G1 X131.94 Y118.1 E648.97 F3600
G1 X128.85 Y121.19 E649.187
G1 X125.77 Y124.27 E649.405
G1 X122.68 Y127.35 E649.622
G1 X119.6 Y130.44 E649.84
G1 X116.51 Y133.52 E650.057
G1 X116.62 Y133.98 F9000
G1 X119.78 Y130.82 E650.28 F3600
G1 X122.94 Y127.66 E650.503
G1 X126.1 Y124.5 E650.726
G1 X129.26 Y121.34 E650.949
G1 X132.42 Y118.18 E651.172
G1 X135.58 Y115.02 E651.395
G1 X136.15 F9000
G1 X132.91 Y118.26 E651.624 F3600
G1 X129.67 Y121.5 E651.852
G1 X126.43 Y124.74 E652.081
G1 X123.19 Y127.97 E652.31
G1 X119.95 Y131.21 E652.538
G1 X116.71 Y134.45 E652.767
G1 X116.79 Y134.94 F9000
G1 X120.02 Y131.71 E652.995 F3600
G1 X123.24 Y128.49 E653.222
G1 X126.47 Y125.26 E653.45
G1 X129.7 Y122.03 E653.678
G1 X132.92 Y118.81 E653.905
G1 X136.15 Y115.58 E654.133
G1 Y116.15 F9000
G1 X132.93 Y119.37 E654.36 F3600
G1 X129.72 Y122.58 E654.587
G1 X126.5 Y125.8 E654.814
G1 X123.28 Y129.02 E655.041
G1 X120.07 Y132.23 E655.268
G1 X116.85 Y135.45 E655.495
G1 X116.9 Y135.96 F9000
G1 X120.11 Y132.75 E655.721 F3600
G1 X123.32 Y129.54 E655.948
G1 X126.53 Y126.34 E656.174
G1 X129.73 Y123.13 E656.4
G1 X132.94 Y119.92 E656.627
G1 X136.15 Y116.71 E656.853
G1 Y117.28 F9000
G1 X132.95 Y120.48 E657.079 F3600
G1 X129.74 Y123.69 E657.305
G1 X126.54 Y126.89 E657.531
G1 X123.33 Y130.09 E657.757
G1 X120.13 Y133.3 E657.983
G1 X116.92 Y136.5 E658.209
G1 X116.94 Y137.06 F9000
G1 X120.14 Y133.86 E658.435 F3600
G1 X123.34 Y130.65 E658.661
G1 X126.55 Y127.45 E658.887
G1 X129.75 Y124.25 E659.113
G1 X132.95 Y121.04 E659.339
G1 X136.15 Y117.84 E659.565
G1 Y118.41 F9000
G1 X132.95 Y121.61 E659.791 F3600
G1 X129.74 Y124.82 E660.017
G1 X126.54 Y128.02 E660.243
G1 X123.34 Y131.22 E660.469
G1 X120.13 Y134.43 E660.695
G1 X116.93 Y137.63 E660.921
G1 X116.9 Y138.23 F9000
G1 X120.11 Y135.02 E661.148 F3600
G1 X123.32 Y131.81 E661.374
G1 X126.53 Y128.6 E661.601
G1 X129.73 Y125.39 E661.827
G1 X132.94 Y122.18 E662.054
G1 X136.15 Y118.97 E662.28
G1 Y119.54 F9000
G1 X132.93 Y122.76 E662.507 F3600
G1 X129.72 Y125.97 E662.734
G1 X126.5 Y129.19 E662.961
G1 X123.28 Y132.41 E663.188
G1 X120.07 Y135.62 E663.415
G1 X116.85 Y138.84 E663.642
G1 X116.75 Y139.5 F9000
G1 X119.98 Y136.27 E663.87 F3600
G1 X123.22 Y133.03 E664.098
G1 X126.45 Y129.8 E664.326
G1 X129.68 Y126.57 E664.554
G1 X132.92 Y123.33 E664.782
G1 X136.15 Y120.1 E665.01
G1 Y120.67 F9000
G1 X132.9 Y123.92 E665.24 F3600
G1 X129.64 Y127.18 E665.469
G1 X126.39 Y130.43 E665.699
G1 X123.14 Y133.68 E665.929
G1 X119.88 Y136.94 E666.158
G1 X116.63 Y140.19 E666.388
G1 X116.45 Y140.94 F9000
G1 X119.73 Y137.66 E666.62 F3600
G1 X123.02 Y134.37 E666.851
G1 X126.3 Y131.09 E667.083
G1 X129.58 Y127.81 E667.315
G1 X132.87 Y124.52 E667.546
G1 X136.15 Y121.24 E667.778
G1 Y121.8 F9000
G1 X132.82 Y125.13 E668.013 F3600
G1 X129.5 Y128.45 E668.247
G1 X126.17 Y131.78 E668.482
G1 X122.84 Y135.11 E668.717
G1 X119.52 Y138.43 E668.951
G1 X116.19 Y141.76 E669.186
G1 X115.77 Y142.74 F9000
G1 X119.17 Y139.35 E669.426 F3600
G1 X122.56 Y135.95 E669.665
G1 X125.96 Y132.56 E669.905
G1 X129.36 Y129.16 E670.144
G1 X132.75 Y125.77 E670.384
G1 X136.15 Y122.37 E670.623
G1 Y122.93 F9000
G1 X132.75 Y126.33 E670.863 F3600
G1 X129.36 Y129.73 E671.103
G1 X125.96 Y133.12 E671.342
G1 X122.57 Y136.52 E671.582
G1 X119.17 Y139.92 E671.822
G1 X115.77 Y143.32 E672.062
G1 X112.38 Y146.71 E672.301
G1 X108.98 Y150.11 E672.541
G1 X108.41 F9000
G1 X110.79 Y147.73 E672.709 F3600
G1 X113.17 Y145.35 E672.877
G1 X112.46 Y145.49 F9000
G1 X110.15 Y147.8 E673.04 F3600
G1 X107.84 Y150.11 E673.203
G1 X107.28 F9000
G1 X109.6 Y147.8 E673.366 F3600
G1 X111.91 Y145.48 E673.529
G1 X111.45 Y145.38 F9000
G1 X109.08 Y147.75 E673.696 F3600
G1 X106.71 Y150.11 E673.863
G1 X106.15 F9000
G1 X108.6 Y147.67 E674.036 F3600
G1 X111.04 Y145.22 E674.208
G1 X110.67 Y145.02 F9000
G1 X108.13 Y147.57 E674.388 F3600
G1 X105.58 Y150.11 E674.568
G1 X105.02 F9000
G1 X107.68 Y147.45 E674.756 F3600
G1 X110.34 Y144.79 E674.943
G1 X110.03 Y144.53 F9000
G1 X107.24 Y147.32 E675.14 F3600
G1 X104.45 Y150.11 E675.337
G1 X103.88 F9000
G1 X106.82 Y147.18 E675.544 F3600
G1 X109.76 Y144.24 E675.751
G1 X109.5 Y143.92 F9000
G1 X106.41 Y147.02 E675.97 F3600
G1 X103.32 Y150.11 E676.188
G1 X102.75 F9000
G1 X106.01 Y146.86 E676.418 F3600
G1 X109.26 Y143.6 E676.647
G1 X109.05 Y143.24 F9000
G1 X105.62 Y146.68 E676.889 F3600
G1 X102.19 Y150.11 E677.131
G1 X101.62 F9000
G1 X104.03 Y147.7 E677.301 F3600
G1 X106.43 Y145.3 E677.471
G1 X108.84 Y142.89 E677.641
