; Generated with MatterSlice 2.20.4
; filamentDiameter = 1.75
; extrusionWidth = 0.4
; firstLayerExtrusionWidth = 0.4
; layerThickness = 0.3
; firstLayerThickness = 0.3
; automatic settings before start_gcode
G21 ; set units to millimeters
M107 ; fan off
M140 S25 ; start heating the bed
M104 T0 S210 ; start heating T0
M190 S25 ; wait for bed temperature to be reached
T0 ; set the active extruder to 0
; settings from start_gcode
G28 X0 Y0 Z0 ; home all axes
G1 Z5 F5000
M109 S210 ; set the extruder temp and wait
G28 X0 Y0 Z0 ; Home Z again in case there was filament on nozzle
G29 ; probe the bed
; automatic settings after start_gcode
T0 ; set the active extruder to 0
G90 ; use absolute coordinates
G92 E0 ; reset the expected extruder position
M82 ; use absolute distance for extrusion
; Layer count: 64
; Layer Change GCode
; LAYER:0
; LAYER_HEIGHT:0.3
; TYPE:FILL
M400
M107
G1 X0 Y0 Z0.8 F9000
G1 X98.2 Y104.37
; TYPE:SKIRT
G1 Z0.3
G1 F1800
G1 X160.6 E3.113 F1080
G1 Y166.75 E6.225
G1 X98.2 E9.339
G1 Y104.37 E12.451
G1 X98.6 Y104.77 F9000
G1 X160.2 E15.524 F1080
G1 Y166.35 E18.596
G1 X98.6 E21.669
G1 Y104.77 E24.742
G1 E21.742 F1800
G1 Z0.8
G1 X99.02 Y105.19 F9000
G1 X104 Y110.17
G1 X104.9 Y111.07
G1 X104.2 Y110.37
; TYPE:WALL-OUTER
G1 Z0.3
G1 E24.742 F1800
G1 X154.6 E27.256 F1080
G1 Y145.85 E29.026
G1 X104.2 E31.541
G1 Y110.41 E33.309
G1 Y110.37
G1 X107.2
G1 X104.6 Y110.77 F9000
; TYPE:WALL-INNER
G1 X154.2 E35.784 F1080
G1 Y145.45 E37.514
G1 X104.6 E39.988
G1 Y110.81 E41.716
G1 Y110.77
G1 E38.716 F1800
G1 Z0.8
G1 X104.9 Y111.07 F9000
G1 X129.1 Y122.88
G1 X129.64 Y122.7
G1 X130.19 Y123.42
; TYPE:WALL-OUTER
G1 Z0.3
G1 E41.716 F1800
G1 X129.77 Y123.42 E41.737 F1080
G1 X129.57 Y123.45 E41.747
G1 X129.18 Y123.56 E41.768
G1 X128.8 Y123.75 E41.789
G1 X128.44 Y124.01 E41.811
G1 X128.09 Y124.34 E41.835
G1 X127.76 Y124.73 E41.86
G1 X127.45 Y125.2 E41.889
G1 X127.17 Y125.7 E41.917
G1 X126.92 Y126.25 E41.947
G1 X126.68 Y126.89 E41.981
G1 X126.42 Y127.81 E42.029
G1 X126.22 Y128.87 E42.083
G1 X126.1 Y129.93 E42.136
G1 X126.05 Y131.05 E42.192
G1 X126.09 Y132.16 E42.248
G1 X126.22 Y133.26 E42.303
G1 X126.41 Y134.25 E42.353
G1 X126.6 Y134.96 E42.39
G1 X126.88 Y135.79 E42.434
G1 X127.13 Y136.35 E42.464
G1 X127.43 Y136.91 E42.496
G1 X127.75 Y137.38 E42.524
G1 X128.07 Y137.77 E42.549
G1 X128.42 Y138.1 E42.573
G1 X128.78 Y138.36 E42.596
G1 X129.18 Y138.57 E42.618
G1 X129.58 Y138.68 E42.639
G1 X129.98 Y138.72 E42.659
G1 X130.38 Y138.69 E42.679
G1 X130.77 Y138.57 E42.699
G1 X131.15 Y138.38 E42.72
G1 X131.54 Y138.11 E42.744
G1 X131.89 Y137.78 E42.768
G1 X132.21 Y137.39 E42.793
G1 X132.51 Y136.94 E42.82
G1 X132.84 Y136.35 E42.854
G1 X133.17 Y135.56 E42.896
G1 X133.46 Y134.65 E42.944
G1 X133.63 Y133.92 E42.982
G1 X133.8 Y132.91 E43.033
G1 X133.89 Y131.8 E43.088
G1 X133.91 Y130.72 E43.142
G1 X133.87 Y129.94 E43.181
G1 X133.76 Y128.97 E43.23
G1 X133.62 Y128.14 E43.272
G1 X133.38 Y127.2 E43.32
G1 X133.18 Y126.59 E43.353
G1 X132.94 Y126.01 E43.384
G1 X132.66 Y125.44 E43.415
G1 X132.37 Y124.97 E43.443
G1 X132.06 Y124.55 E43.469
G1 X131.72 Y124.19 E43.494
G1 X131.37 Y123.89 E43.517
G1 X130.98 Y123.65 E43.54
G1 X130.59 Y123.49 E43.561
G1 X130.23 Y123.42 E43.579
G1 X130.19 Y123.42
G1 X129.77 Y123.42
G1 X129.57 Y123.45
G1 X129.18 Y123.56
G1 X128.8 Y123.75
G1 X128.44 Y124.01
G1 X128.09 Y124.34
G1 X127.76 Y124.73
G1 X127.7 Y124.83
G1 X130.23 Y123.02 F9000
; TYPE:WALL-INNER
G1 X129.74 Y123.02 E43.603 F1080
G1 X129.49 Y123.06 E43.616
G1 X129.04 Y123.19 E43.639
G1 X128.6 Y123.41 E43.664
G1 X128.18 Y123.7 E43.689
G1 X127.8 Y124.06 E43.716
G1 X127.45 Y124.48 E43.743
G1 X127.1 Y124.99 E43.773
G1 X126.81 Y125.52 E43.804
G1 X126.55 Y126.09 E43.835
G1 X126.3 Y126.77 E43.871
G1 X126.03 Y127.72 E43.92
G1 X125.82 Y128.81 E43.976
G1 X125.7 Y129.9 E44.031
G1 X125.65 Y131.05 E44.088
G1 X125.69 Y132.19 E44.145
G1 X125.82 Y133.32 E44.201
G1 X126.02 Y134.34 E44.253
G1 X126.21 Y135.08 E44.291
G1 X126.51 Y135.94 E44.337
G1 X126.77 Y136.53 E44.369
G1 X127.09 Y137.12 E44.403
G1 X127.43 Y137.62 E44.433
G1 X127.78 Y138.05 E44.46
G1 X128.16 Y138.41 E44.486
G1 X128.58 Y138.71 E44.512
G1 X129.03 Y138.94 E44.538
G1 X129.5 Y139.08 E44.562
G1 X129.98 Y139.13 E44.586
G1 X130.45 Y139.08 E44.61
G1 X130.92 Y138.94 E44.634
G1 X131.36 Y138.73 E44.658
G1 X131.79 Y138.42 E44.685
G1 X132.18 Y138.06 E44.711
G1 X132.53 Y137.63 E44.739
G1 X132.86 Y137.15 E44.768
G1 X133.2 Y136.53 E44.803
G1 X133.55 Y135.7 E44.848
G1 X133.85 Y134.75 E44.898
G1 X134.03 Y134 E44.936
G1 X134.2 Y132.95 E44.989
G1 X134.29 Y131.82 E45.046
G1 X134.31 Y130.71 E45.101
G1 X134.27 Y129.91 E45.141
G1 X134.16 Y128.92 E45.191
G1 X134.01 Y128.06 E45.234
G1 X133.77 Y127.09 E45.284
G1 X133.55 Y126.45 E45.318
G1 X133.31 Y125.84 E45.351
G1 X133.01 Y125.25 E45.384
G1 X132.7 Y124.74 E45.413
G1 X132.37 Y124.29 E45.441
G1 X132 Y123.89 E45.468
G1 X131.6 Y123.56 E45.494
G1 X131.16 Y123.29 E45.52
G1 X130.7 Y123.11 E45.545
G1 X130.27 Y123.02 E45.567
G1 X130.23 Y123.02
G1 X130.18 Y122.68 F9000
; TYPE:FILL
G1 X141.75 Y111.11 E46.383 F1080
G1 X142.32 F9000
G1 X130.67 Y122.76 E47.205 F1080
G1 X131.09 Y122.9 F9000
G1 X142.88 Y111.11 E48.037 F1080
G1 X143.45 F9000
G1 X131.47 Y123.09 E48.882 F1080
G1 X131.82 Y123.3 F9000
G1 X144.02 Y111.11 E49.742 F1080
G1 X144.58 F9000
G1 X132.13 Y123.56 E50.62 F1080
G1 X132.41 Y123.84 F9000
G1 X145.15 Y111.11 E51.519 F1080
G1 X145.71 F9000
G1 X132.68 Y124.14 E52.438 F1080
G1 X132.92 Y124.46 F9000
G1 X146.28 Y111.11 E53.381 F1080
G1 X146.84 F9000
G1 X133.14 Y124.81 E54.347 F1080
G1 X133.35 Y125.17 F9000
G1 X147.41 Y111.11 E55.339 F1080
G1 X147.97 F9000
G1 X133.54 Y125.55 E56.358 F1080
G1 X133.71 Y125.94 F9000
G1 X148.54 Y111.11 E57.404 F1080
G1 X149.11 F9000
G1 X133.87 Y126.34 E58.478 F1080
G1 X134.02 Y126.77 F9000
G1 X149.67 Y111.11 E59.583 F1080
G1 X150.24 F9000
G1 X134.14 Y127.2 E60.719 F1080
G1 X134.26 Y127.65 F9000
G1 X150.8 Y111.11 E61.886 F1080
G1 X151.37 F9000
G1 X134.36 Y128.12 E63.086 F1080
G1 X134.45 Y128.6 F9000
G1 X151.93 Y111.11 E64.32 F1080
G1 X152.5 F9000
G1 X134.52 Y129.09 E65.588 F1080
G1 X134.57 Y129.6 F9000
G1 X153.07 Y111.11 E66.893 F1080
G1 X153.63 F9000
G1 X134.62 Y130.12 E68.234 F1080
G1 X134.65 Y130.66 F9000
G1 X153.86 Y111.45 E69.59 F1080
G1 Y112.01 F9000
G1 X134.64 Y131.23 E70.946 F1080
G1 X134.63 Y131.8 F9000
G1 X153.86 Y112.58 E72.302 F1080
G1 Y113.15 F9000
G1 X134.58 Y132.42 E73.662 F1080
G1 X134.52 Y133.04 F9000
G1 X153.86 Y113.71 E75.026 F1080
G1 Y114.28 F9000
G1 X134.41 Y133.72 E76.398 F1080
G1 X134.27 Y134.43 F9000
G1 X153.86 Y114.84 E77.78 F1080
G1 Y115.41 F9000
G1 X134.06 Y135.21 E79.177 F1080
G1 X133.76 Y136.07 F9000
G1 X153.86 Y115.97 E80.595 F1080
G1 Y116.54 F9000
G1 X133.24 Y137.16 E82.049 F1080
G1 X131.23 Y139.17 F9000
G1 X125.29 Y145.11 E82.469 F1080
G1 X124.72 F9000
G1 X130.41 Y139.43 E82.87 F1080
G1 X129.82 Y139.45 F9000
G1 X124.16 Y145.11 E83.269 F1080
G1 X123.59 F9000
G1 X129.32 Y139.38 E83.673 F1080
G1 X128.89 Y139.25 F9000
G1 X123.03 Y145.11 E84.087 F1080
G1 X122.46 F9000
G1 X128.51 Y139.06 E84.514 F1080
G1 X128.17 Y138.83 F9000
G1 X121.9 Y145.11 E84.956 F1080
G1 X121.33 F9000
G1 X127.85 Y138.58 E85.417 F1080
G1 X127.56 Y138.31 F9000
G1 X120.76 Y145.11 E85.896 F1080
G1 X120.2 F9000
G1 X127.3 Y138 E86.398 F1080
G1 X127.06 Y137.68 F9000
G1 X119.63 Y145.11 E86.922 F1080
G1 X119.07 F9000
G1 X126.83 Y137.34 E87.469 F1080
G1 X126.63 Y136.98 F9000
G1 X118.5 Y145.11 E88.043 F1080
G1 X117.94 F9000
G1 X126.44 Y136.61 E88.643 F1080
G1 X126.26 Y136.22 F9000
G1 X117.37 Y145.11 E89.27 F1080
G1 X116.8 F9000
G1 X126.11 Y135.81 E89.926 F1080
G1 X125.96 Y135.39 F9000
G1 X116.24 Y145.11 E90.612 F1080
G1 X115.67 F9000
G1 X125.83 Y134.95 E91.329 F1080
G1 X125.71 Y134.51 F9000
G1 X115.11 Y145.11 E92.077 F1080
G1 X114.54 F9000
G1 X125.61 Y134.04 E92.858 F1080
G1 X125.52 Y133.56 F9000
G1 X113.98 Y145.11 E93.673 F1080
G1 X113.41 F9000
G1 X125.45 Y133.07 E94.522 F1080
G1 X125.39 Y132.56 F9000
G1 X112.84 Y145.11 E95.408 F1080
G1 X112.28 F9000
G1 X125.35 Y132.04 E96.33 F1080
G1 X125.33 Y131.49 F9000
G1 X111.71 Y145.11 E97.291 F1080
G1 X111.15 F9000
G1 X125.32 Y130.94 E98.29 F1080
G1 X125.34 Y130.35 F9000
G1 X110.58 Y145.11 E99.332 F1080
G1 X110.02 F9000
G1 X125.37 Y129.75 E100.415 F1080
G1 X125.44 Y129.11 F9000
G1 X109.45 Y145.11 E101.544 F1080
G1 X108.88 F9000
G1 X125.54 Y128.45 E102.719 F1080
G1 X125.68 Y127.75 F9000
G1 X108.32 Y145.11 E103.944 F1080
G1 X107.75 F9000
G1 X125.89 Y126.97 E105.224 F1080
G1 X126.18 Y126.12 F9000
G1 X107.19 Y145.11 E106.564 F1080
G1 X106.62 F9000
G1 X126.68 Y125.05 E107.979 F1080
G1 X128.81 Y122.92 F9000
G1 X140.62 Y111.11 E108.812 F1080
G1 X140.06 F9000
G1 X106.06 Y145.11 E111.211 F1080
G1 X105.49 F9000
G1 X139.49 Y111.11 E113.61 F1080
G1 X138.92 F9000
G1 X104.94 Y145.09 E116.008 F1080
G1 Y144.53 F9000
G1 X138.36 Y111.11 E118.366 F1080
G1 X137.79 F9000
G1 X104.94 Y143.96 E120.684 F1080
G1 Y143.4 F9000
G1 X137.23 Y111.11 E122.962 F1080
G1 X136.66 F9000
G1 X104.94 Y142.83 E125.2 F1080
G1 Y142.27 F9000
G1 X136.1 Y111.11 E127.398 F1080
G1 X135.53 F9000
G1 X104.94 Y141.7 E129.557 F1080
G1 Y141.13 F9000
G1 X134.96 Y111.11 E131.675 F1080
G1 X134.4 F9000
G1 X104.94 Y140.57 E133.754 F1080
G1 Y140 F9000
G1 X133.83 Y111.11 E135.792 F1080
G1 X133.27 F9000
G1 X104.94 Y139.44 E137.791 F1080
G1 Y138.87 F9000
G1 X132.7 Y111.11 E139.75 F1080
G1 X132.14 F9000
G1 X104.94 Y138.31 E141.669 F1080
G1 Y137.74 F9000
G1 X131.57 Y111.11 E143.548 F1080
G1 X131 F9000
G1 X104.94 Y137.17 E145.387 F1080
G1 Y136.61 F9000
G1 X130.44 Y111.11 E147.186 F1080
G1 X129.87 F9000
G1 X104.94 Y136.04 E148.945 F1080
G1 Y135.48 F9000
G1 X129.31 Y111.11 E150.664 F1080
G1 X128.74 F9000
G1 X104.94 Y134.91 E152.344 F1080
G1 Y134.35 F9000
G1 X128.18 Y111.11 E153.983 F1080
G1 X127.61 F9000
G1 X104.94 Y133.78 E155.583 F1080
G1 Y133.21 F9000
G1 X127.05 Y111.11 E157.143 F1080
G1 X126.48 F9000
G1 X104.94 Y132.65 E158.663 F1080
G1 Y132.08 F9000
G1 X125.91 Y111.11 E160.143 F1080
G1 X125.35 F9000
G1 X104.94 Y131.52 E161.583 F1080
G1 Y130.95 F9000
G1 X124.78 Y111.11 E162.983 F1080
G1 X124.22 F9000
G1 X104.94 Y130.39 E164.343 F1080
G1 Y129.82 F9000
G1 X123.65 Y111.11 E165.663 F1080
G1 X123.09 F9000
G1 X104.94 Y129.25 E166.943 F1080
G1 Y128.69 F9000
G1 X122.52 Y111.11 E168.184 F1080
G1 X121.95 F9000
G1 X104.94 Y128.12 E169.384 F1080
G1 X104.94 Y127.56 F9000
G1 X121.39 Y111.11 E170.545 F1080
G1 X120.82 F9000
G1 X104.94 Y126.99 E171.666 F1080
G1 Y126.43 F9000
G1 X120.26 Y111.11 E172.746 F1080
G1 X119.69 F9000
G1 X104.94 Y125.86 E173.787 F1080
G1 Y125.29 F9000
G1 X119.13 Y111.11 E174.788 F1080
G1 X118.56 F9000
G1 X104.94 Y124.73 E175.749 F1080
G1 Y124.16 F9000
G1 X117.99 Y111.11 E176.67 F1080
G1 X117.43 F9000
G1 X104.94 Y123.6 E177.551 F1080
G1 Y123.03 F9000
G1 X116.86 Y111.11 E178.392 F1080
G1 X116.3 F9000
G1 X104.94 Y122.47 E179.194 F1080
G1 Y121.9 F9000
G1 X115.73 Y111.11 E179.955 F1080
G1 X115.17 F9000
G1 X104.94 Y121.33 E180.677 F1080
G1 Y120.77 F9000
G1 X114.6 Y111.11 E181.358 F1080
G1 X114.03 F9000
G1 X104.94 Y120.2 E182 F1080
G1 Y119.64 F9000
G1 X113.47 Y111.11 E182.602 F1080
G1 X112.9 F9000
G1 X104.94 Y119.07 E183.164 F1080
G1 Y118.51 F9000
G1 X112.34 Y111.11 E183.686 F1080
G1 X111.77 F9000
G1 X104.94 Y117.94 E184.168 F1080
G1 Y117.37 F9000
G1 X111.21 Y111.11 E184.61 F1080
G1 X110.64 F9000
G1 X104.94 Y116.81 E185.012 F1080
G1 Y116.24 F9000
G1 X110.07 Y111.11 E185.374 F1080
G1 X109.51 F9000
G1 X104.94 Y115.68 E185.697 F1080
G1 Y115.11 F9000
G1 X108.94 Y111.11 E185.979 F1080
G1 X108.38 F9000
G1 X104.94 Y114.55 E186.222 F1080
G1 Y113.98 F9000
G1 X107.81 Y111.11 E186.424 F1080
G1 X107.25 F9000
G1 X104.94 Y113.41 E186.587 F1080
G1 Y112.85 F9000
G1 X106.68 Y111.11 E186.71 F1080
G1 X106.11 F9000
G1 X104.94 Y112.28 E186.793 F1080
G1 Y111.72 F9000
G1 X105.55 Y111.11 E186.836 F1080
G1 X104.98 F9000
G1 X104.94 Y111.15 E186.839 F1080
G1 E183.839 F1800
G1 Z0.8
G1 X129.6 Y122.7 F9000
G1 Z0.3
G1 E186.839 F1800
G1 X141.19 Y111.11 E187.656 F1080
G1 X153.86 Y117.11 F9000
G1 X125.86 Y145.11 E189.632 F1080
G1 X126.42 F9000
G1 X153.86 Y117.67 E191.568 F1080
G1 Y118.24 F9000
G1 X126.99 Y145.11 E193.464 F1080
G1 X127.55 F9000
G1 X153.86 Y118.8 E195.32 F1080
G1 Y119.37 F9000
G1 X128.12 Y145.11 E197.136 F1080
G1 X128.68 F9000
G1 X153.86 Y119.93 E198.912 F1080
G1 Y120.5 F9000
G1 X129.25 Y145.11 E200.648 F1080
G1 X129.81 F9000
G1 X153.86 Y121.07 E202.345 F1080
G1 Y121.63 F9000
G1 X130.38 Y145.11 E204.001 F1080
G1 X130.95 F9000
G1 X153.86 Y122.2 E205.618 F1080
G1 Y122.76 F9000
G1 X131.51 Y145.11 E207.194 F1080
G1 X132.08 F9000
G1 X153.86 Y123.33 E208.731 F1080
G1 Y123.89 F9000
G1 X132.64 Y145.11 E210.228 F1080
G1 X133.21 F9000
G1 X153.86 Y124.46 E211.685 F1080
G1 Y125.02 F9000
G1 X133.77 Y145.11 E213.102 F1080
G1 X134.34 F9000
G1 X153.86 Y125.59 E214.479 F1080
G1 Y126.16 F9000
G1 X134.91 Y145.11 E215.816 F1080
G1 X135.47 F9000
G1 X153.86 Y126.72 E217.113 F1080
G1 Y127.29 F9000
G1 X136.04 Y145.11 E218.371 F1080
G1 X136.6 F9000
G1 X153.86 Y127.85 E219.588 F1080
G1 X153.86 Y128.42 F9000
G1 X137.17 Y145.11 E220.766 F1080
G1 X137.73 F9000
G1 X153.86 Y128.98 E221.904 F1080
G1 Y129.55 F9000
G1 X138.3 Y145.11 E223.001 F1080
G1 X138.87 F9000
G1 X153.86 Y130.12 E224.059 F1080
G1 Y130.68 F9000
G1 X139.43 Y145.11 E225.077 F1080
G1 X140 F9000
G1 X153.86 Y131.25 E226.055 F1080
G1 Y131.81 F9000
G1 X140.56 Y145.11 E226.993 F1080
G1 X141.13 F9000
G1 X153.86 Y132.38 E227.891 F1080
G1 Y132.94 F9000
G1 X141.69 Y145.11 E228.75 F1080
G1 X142.26 F9000
G1 X153.86 Y133.51 E229.568 F1080
G1 Y134.08 F9000
G1 X142.82 Y145.11 E230.347 F1080
G1 X143.39 F9000
G1 X153.86 Y134.64 E231.085 F1080
G1 Y135.21 F9000
G1 X143.96 Y145.11 E231.784 F1080
G1 X144.52 F9000
G1 X153.86 Y135.77 E232.442 F1080
G1 Y136.34 F9000
G1 X145.09 Y145.11 E233.061 F1080
G1 X145.65 F9000
G1 X153.86 Y136.9 E233.64 F1080
G1 Y137.47 F9000
G1 X146.22 Y145.11 E234.179 F1080
G1 X146.78 F9000
G1 X153.86 Y138.04 E234.678 F1080
G1 Y138.6 F9000
G1 X147.35 Y145.11 E235.137 F1080
G1 X147.92 F9000
G1 X153.86 Y139.17 E235.557 F1080
G1 Y139.73 F9000
G1 X148.48 Y145.11 E235.936 F1080
G1 X149.05 F9000
G1 X153.86 Y140.3 E236.275 F1080
G1 Y140.86 F9000
G1 X149.61 Y145.11 E236.575 F1080
G1 X150.18 F9000
G1 X153.86 Y141.43 E236.835 F1080
G1 Y141.99 F9000
G1 X150.74 Y145.11 E237.054 F1080
G1 X151.31 F9000
G1 X153.86 Y142.56 E237.234 F1080
G1 Y143.13 F9000
G1 X151.88 Y145.11 E237.374 F1080
G1 X152.44 F9000
G1 X153.86 Y143.69 E237.474 F1080
G1 Y144.26 F9000
G1 X153.01 Y145.11 E237.534 F1080
G1 X153.57 F9000
G1 X153.86 Y144.82 E237.554 F1080
G1 E234.554 F1800
G1 Z0.8
G1 X153.71 F9000
G1 X154.8 Y146.05
G1 Y146.65
G1 Y152.95
G1 X153.9 Y153.86
G1 X154.6 Y153.15
; TYPE:WALL-OUTER
G1 Z0.3
G1 E237.554 F1800
G1 Y160.75 E237.933 F1080
G1 X104.2 E240.448
G1 Y153.15 E240.827
G1 X127.97 E242.013
G1 X128.27 Y153.43 E242.033
G1 X128.59 Y153.66 E242.053
G1 X128.9 Y153.81 E242.07
G1 X129.23 Y153.9 E242.087
G1 X129.56 Y153.94 E242.104
G1 X129.89 Y153.9 E242.12
G1 X130.21 Y153.81 E242.137
G1 X130.53 Y153.66 E242.155
G1 X130.85 Y153.43 E242.174
G1 X131.14 Y153.15 E242.194
G1 X154.56 E243.363
G1 X154.6
G1 Y156.15
G1 X154.2 Y153.55 F9000
; TYPE:WALL-INNER
G1 Y160.35 E243.702 F1080
G1 X104.6 E246.177
G1 Y153.55 E246.516
G1 X127.81 E247.674
G1 X128.01 Y153.74 E247.688
G1 X128.38 Y154 E247.71
G1 X128.76 Y154.19 E247.731
G1 X129.15 Y154.3 E247.752
G1 X129.56 Y154.34 E247.772
G1 X129.96 Y154.3 E247.792
G1 X130.36 Y154.19 E247.813
G1 X130.73 Y154 E247.833
G1 X131.1 Y153.74 E247.856
G1 X131.3 Y153.55 E247.87
G1 X154.16 E249.01
G1 X154.2
G1 X153.84 Y153.89 F9000
; TYPE:FILL
G1 X147.72 Y160.01 E249.442 F1080
G1 X147.16 F9000
G1 X153.28 Y153.89 E249.874 F1080
G1 X152.71 F9000
G1 X146.59 Y160.01 E250.306 F1080
G1 X146.03 F9000
G1 X152.15 Y153.89 E250.737 F1080
G1 X151.58 F9000
G1 X145.46 Y160.01 E251.169 F1080
G1 X144.9 F9000
G1 X151.02 Y153.89 E251.601 F1080
G1 X150.45 F9000
G1 X144.33 Y160.01 E252.033 F1080
G1 X143.76 F9000
G1 X149.88 Y153.89 E252.465 F1080
G1 X149.32 F9000
G1 X143.2 Y160.01 E252.896 F1080
G1 X142.63 F9000
G1 X148.75 Y153.89 E253.328 F1080
G1 X148.19 F9000
G1 X142.07 Y160.01 E253.76 F1080
G1 X141.5 F9000
G1 X147.62 Y153.89 E254.192 F1080
G1 X147.06 F9000
G1 X140.94 Y160.01 E254.624 F1080
G1 X140.37 F9000
G1 X146.49 Y153.89 E255.055 F1080
G1 X145.92 F9000
G1 X139.8 Y160.01 E255.487 F1080
G1 X139.24 F9000
G1 X145.36 Y153.89 E255.919 F1080
G1 X144.79 F9000
G1 X138.67 Y160.01 E256.351 F1080
G1 X138.11 F9000
G1 X144.23 Y153.89 E256.783 F1080
G1 X143.66 F9000
G1 X137.54 Y160.01 E257.214 F1080
G1 X136.98 F9000
G1 X143.1 Y153.89 E257.646 F1080
G1 X142.53 F9000
G1 X136.41 Y160.01 E258.078 F1080
G1 X135.84 F9000
G1 X141.96 Y153.89 E258.51 F1080
G1 X141.4 F9000
G1 X135.28 Y160.01 E258.942 F1080
G1 X134.71 F9000
G1 X140.83 Y153.89 E259.373 F1080
G1 X140.27 F9000
G1 X134.15 Y160.01 E259.805 F1080
G1 X133.58 F9000
G1 X139.7 Y153.89 E260.237 F1080
G1 X139.14 F9000
G1 X133.02 Y160.01 E260.669 F1080
G1 X132.45 F9000
G1 X138.57 Y153.89 E261.101 F1080
G1 X138 F9000
G1 X131.88 Y160.01 E261.532 F1080
G1 X131.32 F9000
G1 X137.44 Y153.89 E261.964 F1080
G1 X136.87 F9000
G1 X130.75 Y160.01 E262.396 F1080
G1 X130.19 F9000
G1 X136.31 Y153.89 E262.828 F1080
G1 X135.74 F9000
G1 X129.62 Y160.01 E263.26 F1080
G1 X129.06 F9000
G1 X135.18 Y153.89 E263.691 F1080
G1 X134.61 F9000
G1 X128.49 Y160.01 E264.123 F1080
G1 X127.92 F9000
G1 X134.04 Y153.89 E264.555 F1080
G1 X133.48 F9000
G1 X127.36 Y160.01 E264.987 F1080
G1 X126.79 F9000
G1 X132.91 Y153.89 E265.419 F1080
G1 X132.35 F9000
G1 X126.23 Y160.01 E265.851 F1080
G1 X125.66 F9000
G1 X131.78 Y153.89 E266.282 F1080
G1 X130.72 Y154.38 F9000
G1 X125.1 Y160.01 E266.679 F1080
G1 X124.53 F9000
G1 X129.89 Y154.65 E267.058 F1080
G1 X129.32 Y154.66 F9000
G1 X123.96 Y160.01 E267.435 F1080
G1 X123.4 F9000
G1 X128.84 Y154.56 E267.82 F1080
G1 X128.44 Y154.41 F9000
G1 X122.83 Y160.01 E268.215 F1080
G1 X122.27 F9000
G1 X128.08 Y154.2 E268.625 F1080
G1 X127.75 Y153.96 F9000
G1 X121.7 Y160.01 E269.052 F1080
G1 X121.14 F9000
G1 X127.26 Y153.89 E269.483 F1080
G1 X126.69 F9000
G1 X120.57 Y160.01 E269.915 F1080
G1 X120 F9000
G1 X126.13 Y153.89 E270.347 F1080
G1 X125.56 F9000
G1 X119.44 Y160.01 E270.779 F1080
G1 X118.87 F9000
G1 X124.99 Y153.89 E271.211 F1080
G1 X124.43 F9000
G1 X118.31 Y160.01 E271.643 F1080
G1 X117.74 F9000
G1 X123.86 Y153.89 E272.074 F1080
G1 X123.3 F9000
G1 X117.18 Y160.01 E272.506 F1080
G1 X116.61 F9000
G1 X122.73 Y153.89 E272.938 F1080
G1 X122.17 F9000
G1 X116.04 Y160.01 E273.37 F1080
G1 X115.48 F9000
G1 X121.6 Y153.89 E273.802 F1080
G1 X121.03 F9000
G1 X114.91 Y160.01 E274.234 F1080
G1 X114.35 F9000
G1 X120.47 Y153.89 E274.665 F1080
G1 X119.9 F9000
G1 X113.78 Y160.01 E275.097 F1080
G1 X113.22 F9000
G1 X119.34 Y153.89 E275.529 F1080
G1 X118.77 F9000
G1 X112.65 Y160.01 E275.961 F1080
G1 X112.08 F9000
G1 X118.21 Y153.89 E276.393 F1080
G1 X117.64 F9000
G1 X111.52 Y160.01 E276.824 F1080
G1 X110.95 F9000
G1 X117.07 Y153.89 E277.256 F1080
G1 X116.51 F9000
G1 X110.39 Y160.01 E277.688 F1080
G1 X109.82 F9000
G1 X115.94 Y153.89 E278.12 F1080
G1 X115.38 F9000
G1 X109.26 Y160.01 E278.552 F1080
G1 X108.69 F9000
G1 X114.81 Y153.89 E278.984 F1080
G1 X114.25 F9000
G1 X108.13 Y160.01 E279.415 F1080
G1 X107.56 F9000
G1 X113.68 Y153.89 E279.847 F1080
G1 X113.11 F9000
G1 X106.99 Y160.01 E280.279 F1080
G1 X106.43 F9000
G1 X112.55 Y153.89 E280.711 F1080
G1 X111.98 F9000
G1 X105.86 Y160.01 E281.143 F1080
G1 X105.3 F9000
G1 X111.42 Y153.89 E281.575 F1080
G1 X110.85 F9000
G1 X104.94 Y159.8 E281.992 F1080
G1 Y159.24 F9000
G1 X110.29 Y153.89 E282.369 F1080
G1 X109.72 F9000
G1 X104.94 Y158.67 E282.706 F1080
G1 Y158.1 F9000
G1 X109.15 Y153.89 E283.004 F1080
G1 X108.59 F9000
G1 X104.94 Y157.54 E283.261 F1080
G1 Y156.97 F9000
G1 X108.02 Y153.89 E283.479 F1080
G1 X107.46 F9000
G1 X104.94 Y156.41 E283.657 F1080
G1 Y155.84 F9000
G1 X106.89 Y153.89 E283.794 F1080
G1 X106.33 F9000
G1 X104.94 Y155.28 E283.892 F1080
G1 Y154.71 F9000
G1 X105.76 Y153.89 E283.95 F1080
G1 X105.19 F9000
G1 X104.94 Y154.15 E283.968 F1080
G1 E280.968 F1800
G1 Z0.8
G1 X148.29 Y160.01 F9000
G1 Z0.3
G1 E283.968 F1800
G1 X153.86 Y154.44 E284.361 F1080
G1 Y155 F9000
G1 X148.86 Y160.01 E284.714 F1080
G1 X149.42 F9000
G1 X153.86 Y155.57 E285.028 F1080
G1 Y156.14 F9000
G1 X149.99 Y160.01 E285.301 F1080
G1 X150.55 F9000
G1 X153.86 Y156.7 E285.534 F1080
G1 X153.86 Y157.27 F9000
G1 X151.12 Y160.01 E285.728 F1080
G1 X151.68 F9000
G1 X153.86 Y157.83 E285.881 F1080
G1 Y158.4 F9000
G1 X152.25 Y160.01 E285.995 F1080
G1 X152.81 F9000
G1 X153.86 Y158.97 E286.068 F1080
G1 Y159.53 F9000
G1 X153.38 Y160.01 E286.102 F1080
; Layer Change GCode
; LAYER:1
; LAYER_HEIGHT:0.3
; TYPE:FILL
G1 E283.102 F1800
G1 Z0.8
G1 Y159.86 Z1.1 F9000
G1 X153.78 Y153.99
G1 X154.8 Y152.95
G1 Y152.35
G1 X154.95 Y152.2
G1 X154.8 Y146.05
G1 X153.9 Y145.15
G1 X154.2 Y145.45
; TYPE:WALL-INNER
G1 Z0.6
G1 E286.102 F1800
G1 X149.24 E286.35 F3600
G1 X144.28 E286.597
G1 X139.32 E286.845
G1 X134.36 E287.092
G1 X129.4 E287.34
G1 X124.44 E287.587
G1 X119.48 E287.835
G1 X114.52 E288.082
G1 X109.56 E288.33
G1 X104.6 E288.577
G1 Y141.03 E288.797
G1 Y136.61 E289.018
G1 Y132.19 E289.238
G1 Y127.78 E289.459
G1 Y123.36 E289.679
G1 Y118.94 E289.899
G1 Y114.52 E290.12
G1 Y110.1 E290.34
G1 X109.56 E290.588
G1 X114.52 E290.835
G1 X119.48 E291.083
G1 X124.44 E291.33
G1 X129.4 E291.578
G1 X134.36 E291.825
G1 X139.32 E292.073
G1 X144.28 E292.32
G1 X149.24 E292.568
G1 X154.2 E292.815
G1 Y114.51 E293.035
G1 Y118.93 E293.256
G1 Y123.34 E293.476
G1 Y127.76 E293.696
G1 Y132.17 E293.916
G1 Y136.58 E294.137
G1 Y141 E294.357
G1 Y145.41 E294.577
G1 Y145.45
G1 X154.6 Y145.85 F9000
; TYPE:WALL-OUTER
G1 X150.02 E294.806 F3000
G1 X145.44 E295.034
G1 X140.85 E295.263
G1 X136.27 E295.491
G1 X131.69 E295.72
G1 X127.11 E295.948
G1 X122.53 E296.177
G1 X117.95 E296.405
G1 X113.36 E296.634
G1 X108.78 E296.862
G1 X104.2 E297.091
G1 Y141.33 E297.317
G1 Y136.81 E297.542
G1 Y132.29 E297.768
G1 Y127.78 E297.993
G1 Y123.26 E298.219
G1 Y118.74 E298.444
G1 Y114.22 E298.67
G1 Y109.7 E298.895
G1 X108.78 E299.124
G1 X113.36 E299.352
G1 X117.95 E299.581
G1 X122.53 E299.809
G1 X127.11 E300.038
G1 X131.69 E300.266
G1 X136.27 E300.495
G1 X140.85 E300.723
G1 X145.44 E300.952
G1 X150.02 E301.18
G1 X154.6 E301.409
G1 Y114.21 E301.634
G1 Y118.73 E301.86
G1 Y123.24 E302.085
G1 Y127.76 E302.31
G1 Y132.27 E302.535
G1 Y136.78 E302.761
G1 Y141.3 E302.986
G1 Y145.81 E303.211
G1 Y145.85
G1 X151.6
G1 X154.2 Y145.45 F9000
G1 E300.211 F1800
G1 Z1.1
G1 X153.75 Y145 F9000
G1 X146.93 Y138.63
G1 X140.1 Y132.27
G1 X133.28 Y125.9
G1 X131.34 Y123.53
G1 X130.44 Y123.57
; TYPE:WALL-INNER
G1 Z0.6
G1 E303.211 F1800
G1 X130.04 Y123.53 E303.231 F3600
G1 X129.69 Y123.54 E303.248
G1 X129.24 Y123.64 E303.271
G1 X128.79 Y123.82 E303.295
G1 X128.37 Y124.08 E303.32
G1 X127.98 Y124.4 E303.345
G1 X127.61 Y124.79 E303.372
G1 X127.23 Y125.32 E303.404
G1 X126.82 Y126.03 E303.445
G1 X126.5 Y126.73 E303.484
G1 X126.21 Y127.57 E303.528
G1 X126 Y128.41 E303.572
G1 X125.82 Y129.34 E303.619
G1 X125.7 Y130.38 E303.671
G1 X125.66 Y131.22 E303.713
G1 X125.67 Y132.26 E303.765
G1 X125.73 Y133.12 E303.808
G1 X125.86 Y134.1 E303.857
G1 X126.04 Y134.97 E303.901
G1 X126.27 Y135.77 E303.943
G1 X126.55 Y136.56 E303.985
G1 X126.84 Y137.18 E304.019
G1 X127.09 Y137.64 E304.045
G1 X127.42 Y138.13 E304.075
G1 X127.77 Y138.55 E304.102
G1 X128.14 Y138.91 E304.127
G1 X128.54 Y139.2 E304.152
G1 X128.86 Y139.38 E304.171
G1 X129.31 Y139.55 E304.194
G1 X129.77 Y139.64 E304.218
G1 X130.24 Y139.63 E304.241
G1 X130.7 Y139.54 E304.265
G1 X131.14 Y139.36 E304.289
G1 X131.56 Y139.11 E304.313
G1 X131.96 Y138.79 E304.338
G1 X132.33 Y138.41 E304.365
G1 X132.71 Y137.91 E304.396
G1 X133 Y137.42 E304.425
G1 X133.32 Y136.79 E304.46
G1 X133.61 Y136.04 E304.5
G1 X133.89 Y135.1 E304.549
G1 X134.09 Y134.18 E304.596
G1 X134.23 Y133.21 E304.645
G1 X134.3 Y132.32 E304.689
G1 X134.31 Y131.16 E304.747
G1 X134.23 Y130.02 E304.804
G1 X134.09 Y129.01 E304.855
G1 X133.9 Y128.1 E304.901
G1 X133.66 Y127.26 E304.945
G1 X133.34 Y126.44 E304.989
G1 X133.01 Y125.77 E305.026
G1 X132.71 Y125.27 E305.055
G1 X132.32 Y124.76 E305.087
G1 X131.96 Y124.38 E305.113
G1 X131.57 Y124.06 E305.139
G1 X131.15 Y123.81 E305.163
G1 X130.88 Y123.69 E305.177
G1 X130.48 Y123.58 E305.198
G1 X130.44 Y123.57
G1 X130.37 Y123.96 F9000
; TYPE:WALL-OUTER
G1 X130.02 Y123.93 E305.216 F3000
G1 X129.74 Y123.94 E305.23
G1 X129.35 Y124.02 E305.249
G1 X128.97 Y124.18 E305.27
G1 X128.6 Y124.41 E305.292
G1 X128.25 Y124.7 E305.314
G1 X127.92 Y125.05 E305.338
G1 X127.56 Y125.54 E305.369
G1 X127.17 Y126.21 E305.407
G1 X126.88 Y126.88 E305.444
G1 X126.6 Y127.68 E305.486
G1 X126.39 Y128.5 E305.529
G1 X126.22 Y129.4 E305.574
G1 X126.1 Y130.41 E305.625
G1 X126.06 Y131.22 E305.666
G1 X126.07 Y132.25 E305.717
G1 X126.13 Y133.08 E305.759
G1 X126.26 Y134.03 E305.806
G1 X126.43 Y134.87 E305.849
G1 X126.65 Y135.65 E305.889
G1 X126.92 Y136.41 E305.93
G1 X127.2 Y137 E305.962
G1 X127.44 Y137.44 E305.987
G1 X127.74 Y137.89 E306.014
G1 X128.06 Y138.28 E306.039
G1 X128.4 Y138.6 E306.063
G1 X128.75 Y138.86 E306.085
G1 X129.03 Y139.02 E306.101
G1 X129.41 Y139.16 E306.121
G1 X129.8 Y139.24 E306.141
G1 X130.2 Y139.23 E306.16
G1 X130.59 Y139.16 E306.18
G1 X130.97 Y139 E306.201
G1 X131.33 Y138.78 E306.222
G1 X131.69 Y138.5 E306.245
G1 X132.02 Y138.15 E306.269
G1 X132.37 Y137.68 E306.298
G1 X132.65 Y137.22 E306.325
G1 X132.95 Y136.62 E306.358
G1 X133.23 Y135.91 E306.396
G1 X133.5 Y135.01 E306.444
G1 X133.69 Y134.11 E306.489
G1 X133.83 Y133.16 E306.537
G1 X133.9 Y132.3 E306.58
G1 X133.91 Y131.17 E306.636
G1 X133.83 Y130.06 E306.692
G1 X133.7 Y129.07 E306.742
G1 X133.51 Y128.2 E306.786
G1 X133.28 Y127.38 E306.829
G1 X132.97 Y126.6 E306.871
G1 X132.66 Y125.96 E306.906
G1 X132.38 Y125.49 E306.933
G1 X132.02 Y125.02 E306.963
G1 X131.69 Y124.67 E306.987
G1 X131.34 Y124.39 E307.009
G1 X130.97 Y124.17 E307.031
G1 X130.75 Y124.07 E307.043
G1 X130.4 Y123.97 E307.061
G1 X130.37 Y123.96
G1 X130.02 Y123.93
G1 X129.74 Y123.94
G1 X129.35 Y124.02
G1 X128.97 Y124.18
G1 X128.6 Y124.41
G1 X128.25 Y124.7
G1 X127.92 Y125.05
G1 X127.81 Y125.21
G1 X130.44 Y123.57 F9000
G1 X130.62 Y123.26
; TYPE:FILL
G1 X127.41 Y120.06 E307.287 F3600
G1 X124.21 Y116.85 E307.514
G1 X121 Y113.65 E307.74
G1 X117.79 Y110.44 E307.966
G1 X118.36 F9000
G1 X121.67 Y113.75 E308.2 F3600
G1 X124.98 Y117.06 E308.433
G1 X128.29 Y120.37 E308.667
G1 X131.6 Y123.68 E308.9
G1 X129.98 Y123.19 F9000
G1 X126.79 Y120 E309.125 F3600
G1 X123.61 Y116.82 E309.35
G1 X120.42 Y113.63 E309.575
G1 X117.23 Y110.44 E309.8
G1 X116.66 F9000
G1 X119.86 Y113.64 E310.026 F3600
G1 X123.07 Y116.84 E310.252
G1 X126.27 Y120.04 E310.478
G1 X129.47 Y123.24 E310.704
G1 X129.02 Y123.36 F9000
G1 X125.79 Y120.13 E310.932 F3600
G1 X122.56 Y116.9 E311.16
G1 X119.32 Y113.67 E311.387
G1 X116.09 Y110.44 E311.615
G1 X115.53 F9000
G1 X118.8 Y113.71 E311.846 F3600
G1 X122.08 Y116.99 E312.077
G1 X125.35 Y120.26 E312.308
G1 X128.62 Y123.53 E312.539
G1 X128.27 Y123.74 F9000
G1 X124.94 Y120.42 E312.774 F3600
G1 X121.62 Y117.09 E313.009
G1 X118.29 Y113.77 E313.243
G1 X114.96 Y110.44 E313.478
G1 X114.4 F9000
G1 X117.79 Y113.83 E313.717 F3600
G1 X121.18 Y117.22 E313.956
G1 X124.56 Y120.6 E314.195
G1 X127.95 Y123.99 E314.434
G1 X127.65 Y124.26 F9000
G1 X124.2 Y120.81 E314.678 F3600
G1 X120.74 Y117.35 E314.921
G1 X117.29 Y113.9 E315.165
G1 X113.83 Y110.44 E315.408
G1 X113.27 F9000
G1 X116.8 Y113.97 E315.657 F3600
G1 X120.33 Y117.5 E315.906
G1 X123.85 Y121.02 E316.155
G1 X127.38 Y124.55 E316.404
G1 X127.13 Y124.87 F9000
G1 X124.24 Y121.98 E316.608 F3600
G1 X121.36 Y119.1 E316.811
G1 X118.47 Y116.21 E317.015
G1 X115.59 Y113.33 E317.218
G1 X112.7 Y110.44 E317.422
G1 X112.13 F9000
G1 X115.08 Y113.39 E317.63 F3600
G1 X118.04 Y116.34 E317.839
G1 X120.99 Y119.3 E318.047
G1 X123.95 Y122.25 E318.256
G1 X126.9 Y125.2 E318.464
G1 X126.69 Y125.56 F9000
G1 X123.67 Y122.54 E318.677 F3600
G1 X120.64 Y119.51 E318.891
G1 X117.62 Y116.49 E319.104
G1 X114.59 Y113.46 E319.318
G1 X111.57 Y110.44 E319.531
G1 X111 F9000
G1 X114.1 Y113.54 E319.749 F3600
G1 X117.2 Y116.63 E319.968
G1 X120.29 Y119.73 E320.186
G1 X123.39 Y122.82 E320.405
G1 X126.49 Y125.92 E320.623
G1 X126.32 Y126.32 F9000
G1 X123.14 Y123.14 E320.847 F3600
G1 X119.97 Y119.97 E321.071
G1 X116.79 Y116.79 E321.296
G1 X113.62 Y113.62 E321.52
G1 X110.44 Y110.44 E321.744
G1 X109.87 F9000
G1 X113.13 Y113.69 E321.974 F3600
G1 X116.38 Y116.95 E322.203
G1 X119.64 Y120.2 E322.433
G1 X122.89 Y123.46 E322.662
G1 X126.15 Y126.71 E322.892
G1 X126 Y127.13 F9000
G1 X122.66 Y123.79 E323.128 F3600
G1 X119.32 Y120.45 E323.363
G1 X115.99 Y117.12 E323.599
G1 X112.65 Y113.78 E323.834
G1 X109.31 Y110.44 E324.07
G1 X108.74 F9000
G1 X112.16 Y113.86 E324.312 F3600
G1 X115.59 Y117.29 E324.553
G1 X119.01 Y120.71 E324.795
G1 X122.44 Y124.14 E325.036
G1 X125.86 Y127.56 E325.278
G1 X125.75 Y128.01 F9000
G1 X122.23 Y124.5 E325.526 F3600
G1 X118.72 Y120.98 E325.774
G1 X115.2 Y117.47 E326.022
G1 X111.69 Y113.95 E326.27
G1 X108.17 Y110.44 E326.518
G1 X107.61 F9000
G1 X110.62 Y113.45 E326.73 F3600
G1 X113.62 Y116.45 E326.942
G1 X116.63 Y119.46 E327.154
G1 X119.63 Y122.46 E327.366
G1 X122.64 Y125.47 E327.578
G1 X125.64 Y128.47 E327.79
G1 X125.55 Y128.94 F9000
G1 X122.47 Y125.86 E328.008 F3600
G1 X119.38 Y122.77 E328.225
G1 X116.3 Y119.69 E328.443
G1 X113.21 Y116.61 E328.661
G1 X110.13 Y113.52 E328.878
G1 X107.04 Y110.44 E329.096
G1 X106.48 F9000
G1 X109.65 Y113.61 E329.319 F3600
G1 X112.81 Y116.77 E329.543
G1 X115.98 Y119.94 E329.766
G1 X119.14 Y123.1 E329.989
G1 X122.31 Y126.27 E330.213
G1 X125.47 Y129.43 E330.436
G1 X125.41 Y129.94 F9000
G1 X122.16 Y126.69 E330.665 F3600
G1 X118.91 Y123.44 E330.894
G1 X115.66 Y120.19 E331.124
G1 X112.41 Y116.94 E331.353
G1 X109.16 Y113.69 E331.582
G1 X105.91 Y110.44 E331.811
G1 X105.35 F9000
G1 X108.69 Y113.78 E332.046 F3600
G1 X112.02 Y117.11 E332.282
G1 X115.36 Y120.45 E332.517
G1 X118.69 Y123.78 E332.752
G1 X122.03 Y127.12 E332.988
G1 X125.36 Y130.45 E333.223
G1 X125.33 Y130.99 F9000
G1 X121.93 Y127.59 E333.463 F3600
G1 X118.53 Y124.19 E333.703
G1 X115.14 Y120.8 E333.943
G1 X111.74 Y117.4 E334.182
G1 X108.34 Y114 E334.422
G1 X104.94 Y110.6 E334.662
G1 Y111.16 F9000
G1 X108.34 Y114.56 E334.902 F3600
G1 X111.73 Y117.95 E335.141
G1 X115.13 Y121.35 E335.381
G1 X118.53 Y124.75 E335.621
G1 X121.92 Y128.14 E335.86
G1 X125.32 Y131.54 E336.1
G1 X125.33 Y132.12 F9000
G1 X121.93 Y128.72 E336.34 F3600
G1 X118.53 Y125.32 E336.58
G1 X115.14 Y121.93 E336.82
G1 X111.74 Y118.53 E337.059
G1 X108.34 Y115.13 E337.299
G1 X104.94 Y111.73 E337.539
G1 Y112.29 F9000
G1 X108.34 Y115.69 E337.779 F3600
G1 X111.75 Y119.1 E338.019
G1 X115.15 Y122.5 E338.259
G1 X118.55 Y125.9 E338.499
G1 X121.96 Y129.31 E338.739
G1 X125.36 Y132.71 E338.979
G1 X125.42 Y133.34 F9000
G1 X122.01 Y129.93 E339.22 F3600
G1 X118.59 Y126.51 E339.461
G1 X115.18 Y123.1 E339.702
G1 X111.77 Y119.69 E339.942
G1 X108.35 Y116.27 E340.183
G1 X104.94 Y112.86 E340.424
G1 Y113.42 F9000
G1 X108.37 Y116.85 E340.666 F3600
G1 X111.8 Y120.28 E340.908
G1 X115.23 Y123.71 E341.15
G1 X118.65 Y127.13 E341.391
G1 X122.08 Y130.56 E341.633
G1 X125.51 Y133.99 E341.875
G1 X125.64 Y134.69 F9000
G1 X122.19 Y131.24 E342.119 F3600
G1 X118.74 Y127.79 E342.362
G1 X115.29 Y124.34 E342.606
G1 X111.84 Y120.89 E342.849
G1 X108.39 Y117.44 E343.093
G1 X104.94 Y113.99 E343.336
G1 Y114.56 F9000
G1 X108.42 Y118.04 E343.582 F3600
G1 X111.9 Y121.52 E343.827
G1 X115.38 Y125 E344.073
G1 X118.86 Y128.48 E344.318
G1 X122.34 Y131.96 E344.564
G1 X125.82 Y135.44 E344.809
G1 X126.08 Y136.27 F9000
G1 X122.56 Y132.75 E345.058 F3600
G1 X119.03 Y129.22 E345.306
G1 X115.51 Y125.7 E345.555
G1 X111.99 Y122.17 E345.804
G1 X108.46 Y118.65 E346.052
G1 X104.94 Y115.12 E346.301
G1 Y115.69 F9000
G1 X108.02 Y118.77 E346.518 F3600
G1 X111.1 Y121.85 E346.735
G1 X114.18 Y124.93 E346.952
G1 X117.25 Y128 E347.17
G1 X120.33 Y131.08 E347.387
G1 X123.41 Y134.16 E347.604
G1 X126.49 Y137.24 E347.821
G1 X129.08 Y139.83 F9000
G1 X131.72 Y142.47 E348.008 F3600
G1 X134.36 Y145.11 E348.194
G1 X133.8 F9000
G1 X130.59 Y141.9 E348.42 F3600
G1 X127.39 Y138.7 E348.646
G1 X124.18 Y135.49 E348.873
G1 X120.97 Y132.28 E349.099
G1 X117.77 Y129.08 E349.325
G1 X114.56 Y125.87 E349.551
G1 X111.35 Y122.66 E349.778
G1 X108.15 Y119.46 E350.004
G1 X104.94 Y116.25 E350.23
G1 Y116.82 F9000
G1 X108.08 Y119.96 E350.452 F3600
G1 X111.23 Y123.11 E350.674
G1 X114.37 Y126.25 E350.895
G1 X117.51 Y129.39 E351.117
G1 X120.66 Y132.54 E351.339
G1 X123.8 Y135.68 E351.561
G1 X126.94 Y138.82 E351.782
G1 X130.09 Y141.97 E352.004
G1 X133.23 Y145.11 E352.226
G1 X132.66 F9000
G1 X129.2 Y141.64 E352.471 F3600
G1 X125.73 Y138.18 E352.715
G1 X122.27 Y134.71 E352.96
G1 X118.8 Y131.25 E353.204
G1 X115.34 Y127.78 E353.449
G1 X111.87 Y124.31 E353.693
G1 X108.41 Y120.85 E353.938
G1 X104.94 Y117.38 E354.182
G1 Y117.95 F9000
G1 X108.34 Y121.35 E354.422 F3600
G1 X111.73 Y124.74 E354.661
G1 X115.13 Y128.14 E354.901
G1 X118.52 Y131.53 E355.14
G1 X121.92 Y134.93 E355.38
G1 X125.31 Y138.32 E355.619
G1 X128.71 Y141.72 E355.859
G1 X132.1 Y145.11 E356.098
G1 X131.53 F9000
G1 X128.21 Y141.79 E356.333 F3600
G1 X124.88 Y138.46 E356.567
G1 X121.56 Y135.14 E356.802
G1 X118.24 Y131.82 E357.037
G1 X114.91 Y128.49 E357.271
G1 X111.59 Y125.17 E357.506
G1 X108.26 Y121.84 E357.74
G1 X104.94 Y118.52 E357.975
G1 Y119.08 F9000
G1 X108.19 Y122.33 E358.205 F3600
G1 X111.45 Y125.59 E358.434
G1 X114.7 Y128.84 E358.664
G1 X117.96 Y132.1 E358.893
G1 X121.21 Y135.35 E359.123
G1 X124.46 Y138.6 E359.352
G1 X127.72 Y141.86 E359.582
G1 X130.97 Y145.11 E359.811
G1 X130.4 F9000
G1 X127.22 Y141.93 E360.036 F3600
G1 X124.04 Y138.75 E360.26
G1 X120.85 Y135.56 E360.485
G1 X117.67 Y132.38 E360.71
G1 X114.49 Y129.2 E360.934
G1 X111.31 Y126.02 E361.159
G1 X108.12 Y122.83 E361.383
G1 X104.94 Y119.65 E361.608
G1 Y120.21 F9000
G1 X108.05 Y123.32 E361.828 F3600
G1 X111.17 Y126.44 E362.047
G1 X114.28 Y129.55 E362.267
G1 X117.39 Y132.66 E362.486
G1 X120.5 Y135.77 E362.706
G1 X123.62 Y138.89 E362.925
G1 X126.73 Y142 E363.145
G1 X129.84 Y145.11 E363.364
G1 X129.27 F9000
G1 X125.79 Y141.63 E363.609 F3600
G1 X122.32 Y138.16 E363.855
G1 X118.84 Y134.68 E364.1
G1 X115.37 Y131.21 E364.345
G1 X111.89 Y127.73 E364.59
G1 X108.42 Y124.26 E364.836
G1 X104.94 Y120.78 E365.081
G1 Y121.34 F9000
G1 X108.33 Y124.74 E365.321 F3600
G1 X111.73 Y128.13 E365.56
G1 X115.12 Y131.53 E365.8
G1 X118.52 Y134.92 E366.039
G1 X121.91 Y138.32 E366.279
G1 X125.31 Y141.71 E366.518
G1 X128.7 Y145.11 E366.758
G1 X128.14 F9000
G1 X124.83 Y141.8 E366.992 F3600
G1 X121.51 Y138.48 E367.225
G1 X118.2 Y135.17 E367.459
G1 X114.88 Y131.85 E367.693
G1 X111.57 Y128.54 E367.927
G1 X108.25 Y125.22 E368.16
G1 X104.94 Y121.91 E368.394
G1 Y122.48 F9000
G1 X108.17 Y125.71 E368.622 F3600
G1 X111.41 Y128.95 E368.85
G1 X114.64 Y132.18 E369.078
G1 X117.87 Y135.41 E369.307
G1 X121.1 Y138.64 E369.535
G1 X124.34 Y141.88 E369.763
G1 X127.57 Y145.11 E369.991
G1 X127.01 F9000
G1 X123.86 Y141.96 E370.213 F3600
G1 X120.7 Y138.8 E370.436
G1 X117.55 Y135.65 E370.658
G1 X114.4 Y132.5 E370.881
G1 X111.25 Y129.35 E371.103
G1 X108.09 Y126.19 E371.326
G1 X104.94 Y123.04 E371.548
G1 Y123.61 F9000
G1 X108.01 Y126.68 E371.765 F3600
G1 X111.08 Y129.75 E371.981
G1 X114.15 Y132.82 E372.198
G1 X117.23 Y135.9 E372.415
G1 X120.3 Y138.97 E372.632
G1 X123.37 Y142.04 E372.848
G1 X126.44 Y145.11 E373.065
G1 X125.87 F9000
G1 X122.38 Y141.62 E373.311 F3600
G1 X118.89 Y138.13 E373.558
G1 X115.41 Y134.64 E373.804
G1 X111.92 Y131.15 E374.05
G1 X108.43 Y127.66 E374.297
G1 X104.94 Y124.17 E374.543
G1 Y124.74 F9000
G1 X108.34 Y128.14 E374.783 F3600
G1 X111.73 Y131.53 E375.022
G1 X115.13 Y134.93 E375.262
G1 X118.52 Y138.32 E375.501
G1 X121.92 Y141.72 E375.741
G1 X125.31 Y145.11 E375.98
G1 X124.74 F9000
G1 X121.44 Y141.81 E376.213 F3600
G1 X118.14 Y138.51 E376.446
G1 X114.84 Y135.21 E376.679
G1 X111.54 Y131.9 E376.911
G1 X108.24 Y128.6 E377.144
G1 X104.94 Y125.3 E377.377
G1 Y125.87 F9000
G1 X108.15 Y129.08 E377.603 F3600
G1 X111.35 Y132.28 E377.83
G1 X114.56 Y135.49 E378.056
G1 X117.77 Y138.7 E378.282
G1 X120.97 Y141.9 E378.509
G1 X124.18 Y145.11 E378.735
G1 X123.61 F9000
G1 X120.5 Y142 E378.955 F3600
G1 X117.39 Y138.88 E379.174
G1 X114.28 Y135.77 E379.394
G1 X111.16 Y132.66 E379.613
G1 X108.05 Y129.54 E379.833
G1 X104.94 Y126.43 E380.052
G1 Y127 F9000
G1 X107.96 Y130.02 E380.265 F3600
G1 X110.98 Y133.04 E380.478
G1 X114 Y136.06 E380.691
G1 X117.01 Y139.07 E380.904
G1 X120.03 Y142.09 E381.117
G1 X123.05 Y145.11 E381.33
G1 X122.48 F9000
G1 X118.97 Y141.6 E381.577 F3600
G1 X115.46 Y138.09 E381.825
G1 X111.96 Y134.59 E382.072
G1 X108.45 Y131.08 E382.32
G1 X104.94 Y127.57 E382.567
G1 Y128.13 F9000
G1 X108.34 Y131.53 E382.807 F3600
G1 X111.73 Y134.92 E383.046
G1 X115.13 Y138.32 E383.286
G1 X118.52 Y141.71 E383.525
G1 X121.92 Y145.11 E383.765
G1 X121.35 F9000
G1 X118.07 Y141.83 E383.997 F3600
G1 X114.79 Y138.55 E384.228
G1 X111.5 Y135.26 E384.46
G1 X108.22 Y131.98 E384.691
G1 X104.94 Y128.7 E384.923
G1 Y129.26 F9000
G1 X108.11 Y132.43 E385.147 F3600
G1 X111.28 Y135.6 E385.37
G1 X114.44 Y138.77 E385.594
G1 X117.61 Y141.94 E385.817
G1 X120.78 Y145.11 E386.041
G1 X120.22 F9000
G1 X117.16 Y142.05 E386.257 F3600
G1 X114.11 Y139 E386.472
G1 X111.05 Y135.94 E386.688
G1 X108 Y132.89 E386.903
G1 X104.94 Y129.83 E387.119
G1 Y130.39 F9000
G1 X107.88 Y133.33 E387.327 F3600
G1 X110.82 Y136.28 E387.534
G1 X113.77 Y139.22 E387.742
G1 X116.71 Y142.17 E387.949
G1 X119.65 Y145.11 E388.157
G1 X119.09 F9000
G1 X116.26 Y142.28 E388.357 F3600
G1 X113.43 Y139.45 E388.557
G1 X110.6 Y136.62 E388.756
G1 X107.77 Y133.79 E388.956
G1 X104.94 Y130.96 E389.156
G1 Y131.53 F9000
G1 X108.34 Y134.93 E389.396 F3600
G1 X111.73 Y138.32 E389.635
G1 X115.13 Y141.72 E389.875
G1 X118.52 Y145.11 E390.114
G1 X117.96 F9000
G1 X114.71 Y141.86 E390.344 F3600
G1 X111.45 Y138.6 E390.573
G1 X108.2 Y135.35 E390.803
G1 X104.94 Y132.09 E391.032
G1 Y132.66 F9000
G1 X108.05 Y135.77 E391.252 F3600
G1 X111.17 Y138.89 E391.472
G1 X114.28 Y142 E391.691
G1 X117.39 Y145.11 E391.911
G1 X116.82 F9000
G1 X113.85 Y142.14 E392.121 F3600
G1 X110.88 Y139.17 E392.33
G1 X107.91 Y136.19 E392.54
G1 X104.94 Y133.22 E392.749
G1 Y133.79 F9000
G1 X107.77 Y136.62 E392.949 F3600
G1 X110.6 Y139.45 E393.149
G1 X113.43 Y142.28 E393.348
G1 X116.26 Y145.11 E393.548
G1 X115.69 F9000
G1 X113 Y142.42 E393.738 F3600
G1 X110.32 Y139.73 E393.928
G1 X107.63 Y137.04 E394.117
G1 X104.94 Y134.35 E394.307
G1 Y134.92 F9000
G1 X108.34 Y138.32 E394.547 F3600
G1 X111.73 Y141.71 E394.786
G1 X115.13 Y145.11 E395.026
G1 X114.56 F9000
G1 X111.35 Y141.9 E395.252 F3600
G1 X108.15 Y138.7 E395.478
G1 X104.94 Y135.49 E395.704
G1 Y136.05 F9000
G1 X107.96 Y139.07 E395.917 F3600
G1 X110.98 Y142.09 E396.131
G1 X114 Y145.11 E396.344
G1 X113.43 F9000
G1 X110.6 Y142.28 E396.544 F3600
G1 X107.77 Y139.45 E396.743
G1 X104.94 Y136.62 E396.943
G1 Y137.18 F9000
G1 X107.58 Y139.82 E397.129 F3600
G1 X110.22 Y142.47 E397.316
G1 X112.86 Y145.11 E397.502
G1 X112.3 F9000
G1 X109.85 Y142.66 E397.675 F3600
G1 X107.39 Y140.2 E397.848
G1 X104.94 Y137.75 E398.021
G1 Y138.31 F9000
G1 X108.34 Y141.71 E398.261 F3600
G1 X111.73 Y145.11 E398.5
G1 X111.17 F9000
G1 X108.06 Y142 E398.72 F3600
G1 X104.94 Y138.88 E398.94
G1 Y139.45 F9000
G1 X107.77 Y142.28 E399.14 F3600
G1 X110.6 Y145.11 E399.339
G1 X110.04 F9000
G1 X107.49 Y142.56 E399.519 F3600
G1 X104.94 Y140.01 E399.699
G1 Y140.58 F9000
G1 X107.21 Y142.85 E399.859 F3600
G1 X109.47 Y145.11 E400.019
G1 X108.9 F9000
G1 X104.94 Y141.14 E400.299 F3600
G1 Y141.71 F9000
G1 X108.34 Y145.11 E400.539 F3600
G1 X107.77 F9000
G1 X104.94 Y142.27 E400.738 F3600
G1 Y142.84 F9000
G1 X107.21 Y145.11 E400.899 F3600
G1 X106.64 F9000
G1 X104.94 Y143.41 E401.019 F3600
G1 Y143.97 F9000
G1 X106.08 Y145.11 E401.099 F3600
G1 X105.51 F9000
G1 X104.94 Y144.54 E401.139 F3600
G1 Y145.1 F9000
G1 X104.94 Y145.11 E401.14 F3600
G1 E398.14 F1800
G1 Z1.1
G1 X105.09 Y144.96 F9000
G1 X113.32 Y143.3
G1 X121.56 Y141.63
G1 X129.79 Y139.97
G1 Z0.6
G1 E401.14 F1800
G1 X132.36 Y142.54 E401.321 F3600
G1 X134.93 Y145.11 E401.502
G1 X135.49 F9000
G1 X132.92 Y142.54 E401.684 F3600
G1 X130.34 Y139.96 E401.866
G1 X130.81 Y139.86 F9000
G1 X133.44 Y142.49 E402.051 F3600
G1 X136.06 Y145.11 E402.236
G1 X136.62 F9000
G1 X133.92 Y142.41 E402.427 F3600
G1 X131.21 Y139.7 E402.617
G1 X131.58 Y139.5 F9000
G1 X134.39 Y142.31 E402.815 F3600
G1 X137.19 Y145.11 E403.013
G1 X137.76 F9000
G1 X134.84 Y142.19 E403.219 F3600
G1 X131.91 Y139.27 E403.425
G1 X132.22 Y139.01 F9000
G1 X135.27 Y142.06 E403.641 F3600
G1 X138.32 Y145.11 E403.856
G1 X138.89 F9000
G1 X135.7 Y141.92 E404.082 F3600
G1 X132.5 Y138.72 E404.307
G1 X132.75 Y138.41 F9000
G1 X136.1 Y141.76 E404.543 F3600
G1 X139.45 Y145.11 E404.779
G1 X140.02 F9000
G1 X136.51 Y141.6 E405.027 F3600
G1 X132.99 Y138.09 E405.275
G1 X133.21 Y137.73 F9000
G1 X135.67 Y140.19 E405.448 F3600
G1 X138.12 Y142.65 E405.622
G1 X140.58 Y145.11 E405.795
G1 X141.15 F9000
G1 X138.57 Y142.53 E405.977 F3600
G1 X135.99 Y139.95 E406.159
G1 X133.41 Y137.37 E406.341
G1 X133.59 Y136.99 F9000
G1 X136.3 Y139.7 E406.532 F3600
G1 X139 Y142.4 E406.723
G1 X141.71 Y145.11 E406.914
G1 X142.28 F9000
G1 X139.44 Y142.27 E407.115 F3600
G1 X136.6 Y139.43 E407.315
G1 X133.76 Y136.59 E407.516
G1 X133.92 Y136.18 F9000
G1 X136.9 Y139.16 E407.726 F3600
G1 X139.87 Y142.13 E407.935
G1 X142.85 Y145.11 E408.145
G1 X143.41 F9000
G1 X140.29 Y141.99 E408.365 F3600
G1 X137.17 Y138.87 E408.586
G1 X134.05 Y135.75 E408.806
G1 X134.18 Y135.31 F9000
G1 X137.45 Y138.58 E409.036 F3600
G1 X140.71 Y141.84 E409.267
G1 X143.98 Y145.11 E409.497
G1 X144.54 F9000
G1 X141.12 Y141.69 E409.738 F3600
G1 X137.71 Y138.28 E409.979
G1 X134.29 Y134.86 E410.22
G1 X134.39 Y134.39 F9000
G1 X137.07 Y137.07 E410.409 F3600
G1 X139.75 Y139.75 E410.598
G1 X142.43 Y142.43 E410.787
G1 X145.11 Y145.11 E410.976
G1 X145.67 F9000
G1 X142.87 Y142.31 E411.174 F3600
G1 X140.07 Y139.51 E411.372
G1 X137.27 Y136.7 E411.569
G1 X134.47 Y133.9 E411.767
G1 X134.54 Y133.41 F9000
G1 X137.47 Y136.34 E411.973 F3600
G1 X140.39 Y139.26 E412.18
G1 X143.32 Y142.19 E412.386
G1 X146.24 Y145.11 E412.592
G1 X146.81 F9000
G1 X143.76 Y142.06 E412.808 F3600
G1 X140.7 Y139 E413.023
G1 X137.65 Y135.95 E413.239
G1 X134.59 Y132.89 E413.454
G1 X134.63 Y132.37 F9000
G1 X137.82 Y135.56 E413.679 F3600
G1 X141 Y138.74 E413.904
G1 X144.19 Y141.93 E414.128
G1 X147.37 Y145.11 E414.353
G1 X147.94 F9000
G1 X144.62 Y141.79 E414.588 F3600
G1 X141.29 Y138.46 E414.822
G1 X137.97 Y135.14 E415.057
G1 X134.64 Y131.81 E415.291
G1 X134.65 Y131.25 F9000
G1 X138.11 Y134.72 E415.536 F3600
G1 X141.58 Y138.18 E415.78
G1 X145.04 Y141.65 E416.025
G1 X148.5 Y145.11 E416.269
G1 X149.07 F9000
G1 X146.18 Y142.22 E416.473 F3600
G1 X143.29 Y139.33 E416.677
G1 X140.39 Y136.43 E416.881
G1 X137.5 Y133.54 E417.085
G1 X134.61 Y130.65 E417.289
G1 X134.57 Y130.05 F9000
G1 X137.58 Y133.06 E417.502 F3600
G1 X140.59 Y136.07 E417.714
G1 X143.61 Y139.09 E417.927
G1 X146.62 Y142.1 E418.139
G1 X149.63 Y145.11 E418.352
G1 X150.2 F9000
G1 X147.06 Y141.97 E418.574 F3600
G1 X143.92 Y138.83 E418.795
G1 X140.77 Y135.68 E419.017
G1 X137.63 Y132.54 E419.238
G1 X134.49 Y129.4 E419.46
G1 X134.38 Y128.72 F9000
G1 X137.66 Y132 E419.691 F3600
G1 X140.94 Y135.28 E419.922
G1 X144.21 Y138.55 E420.154
G1 X147.49 Y141.83 E420.385
G1 X150.77 Y145.11 E420.616
G1 X151.33 F9000
G1 X147.91 Y141.69 E420.858 F3600
G1 X144.49 Y138.27 E421.099
G1 X141.06 Y134.84 E421.341
G1 X137.64 Y131.42 E421.582
G1 X134.22 Y128 E421.824
G1 X133.99 Y127.21 F9000
G1 X136.98 Y130.19 E422.035 F3600
G1 X139.96 Y133.18 E422.245
G1 X142.95 Y136.16 E422.456
G1 X145.93 Y139.14 E422.666
G1 X148.92 Y142.13 E422.877
G1 X151.9 Y145.11 E423.087
G1 X152.46 F9000
G1 X149.32 Y141.97 E423.308 F3600
G1 X146.19 Y138.84 E423.529
G1 X143.05 Y135.7 E423.751
G1 X139.91 Y132.56 E423.972
G1 X136.78 Y129.43 E424.193
G1 X133.64 Y126.29 E424.414
G1 X132.97 Y125.05 F9000
G1 X136.31 Y128.39 E424.65 F3600
G1 X139.66 Y131.74 E424.886
G1 X143 Y135.08 E425.122
G1 X146.34 Y138.42 E425.357
G1 X149.69 Y141.77 E425.593
G1 X153.03 Y145.11 E425.829
G1 X153.59 F9000
G1 X150.12 Y141.64 E426.074 F3600
G1 X146.66 Y138.18 E426.318
G1 X143.19 Y134.71 E426.563
G1 X139.72 Y131.24 E426.808
G1 X136.26 Y127.78 E427.053
G1 X132.79 Y124.31 E427.297
G1 X129.32 Y120.84 E427.542
G1 X125.85 Y117.37 E427.787
G1 X122.39 Y113.91 E428.031
G1 X118.92 Y110.44 E428.276
G1 X119.49 F9000
G1 X122.93 Y113.88 E428.519 F3600
G1 X126.36 Y117.31 E428.761
G1 X129.8 Y120.75 E429.004
G1 X133.24 Y124.19 E429.246
G1 X136.68 Y127.63 E429.489
G1 X140.11 Y131.06 E429.731
G1 X143.55 Y134.5 E429.974
G1 X146.99 Y137.94 E430.216
G1 X150.42 Y141.37 E430.459
G1 X153.86 Y144.81 E430.701
G1 Y144.24 F9000
G1 X150.48 Y140.86 E430.94 F3600
G1 X147.1 Y137.48 E431.178
G1 X143.72 Y134.1 E431.417
G1 X140.34 Y130.72 E431.655
G1 X136.96 Y127.34 E431.894
G1 X133.57 Y123.96 E432.132
G1 X130.19 Y120.58 E432.371
G1 X126.81 Y117.2 E432.609
G1 X123.43 Y113.82 E432.848
G1 X120.05 Y110.44 E433.086
G1 X120.62 F9000
G1 X123.94 Y113.76 E433.321 F3600
G1 X127.27 Y117.09 E433.555
G1 X130.59 Y120.41 E433.79
G1 X133.92 Y123.74 E434.024
G1 X137.24 Y127.06 E434.259
G1 X140.56 Y130.38 E434.493
G1 X143.89 Y133.71 E434.728
G1 X147.21 Y137.03 E434.962
G1 X150.54 Y140.36 E435.197
G1 X153.86 Y143.68 E435.431
G1 Y143.11 F9000
G1 X150.59 Y139.84 E435.662 F3600
G1 X147.33 Y136.58 E435.892
G1 X144.06 Y133.31 E436.123
G1 X140.79 Y130.04 E436.353
G1 X137.53 Y126.78 E436.584
G1 X134.26 Y123.51 E436.814
G1 X130.99 Y120.24 E437.045
G1 X127.72 Y116.97 E437.275
G1 X124.46 Y113.71 E437.506
G1 X121.19 Y110.44 E437.736
G1 X121.75 F9000
G1 X124.96 Y113.65 E437.963 F3600
G1 X128.17 Y116.86 E438.189
G1 X131.38 Y120.07 E438.416
G1 X134.59 Y123.28 E438.642
G1 X137.81 Y126.49 E438.869
G1 X141.02 Y129.7 E439.096
G1 X144.23 Y132.91 E439.322
G1 X147.44 Y136.12 E439.549
G1 X150.65 Y139.33 E439.775
G1 X153.86 Y142.54 E440.002
G1 Y141.98 F9000
G1 X150.36 Y138.48 E440.249 F3600
G1 X146.85 Y134.97 E440.496
G1 X143.35 Y131.47 E440.744
G1 X139.84 Y127.96 E440.991
G1 X136.34 Y124.46 E441.238
G1 X132.83 Y120.95 E441.485
G1 X129.33 Y117.45 E441.733
G1 X125.82 Y113.94 E441.98
G1 X122.32 Y110.44 E442.227
G1 X122.88 F9000
G1 X126.32 Y113.88 E442.47 F3600
G1 X129.76 Y117.32 E442.713
G1 X133.21 Y120.76 E442.956
G1 X136.65 Y124.2 E443.199
G1 X140.09 Y127.65 E443.441
G1 X143.53 Y131.09 E443.684
G1 X146.98 Y134.53 E443.927
G1 X150.42 Y137.97 E444.17
G1 X153.86 Y141.41 E444.413
G1 Y140.85 F9000
G1 X150.48 Y137.47 E444.651 F3600
G1 X147.1 Y134.09 E444.89
G1 X143.72 Y130.71 E445.128
G1 X140.34 Y127.33 E445.366
G1 X136.97 Y123.96 E445.605
G1 X133.59 Y120.58 E445.843
G1 X130.21 Y117.2 E446.081
G1 X126.83 Y113.82 E446.32
G1 X123.45 Y110.44 E446.558
G1 X124.01 F9000
G1 X127.33 Y113.76 E446.792 F3600
G1 X130.64 Y117.07 E447.026
G1 X133.96 Y120.39 E447.26
G1 X137.28 Y123.7 E447.494
G1 X140.59 Y127.02 E447.728
G1 X143.91 Y130.33 E447.962
G1 X147.23 Y133.65 E448.196
G1 X150.54 Y136.96 E448.43
G1 X153.86 Y140.28 E448.664
G1 Y139.72 F9000
G1 X150.61 Y136.47 E448.894 F3600
G1 X147.35 Y133.21 E449.123
G1 X144.1 Y129.96 E449.353
G1 X140.85 Y126.71 E449.582
G1 X137.59 Y123.45 E449.812
G1 X134.34 Y120.2 E450.041
G1 X131.09 Y116.95 E450.271
G1 X127.83 Y113.69 E450.5
G1 X124.58 Y110.44 E450.73
G1 X125.15 F9000
G1 X128.34 Y113.63 E450.955 F3600
G1 X131.53 Y116.82 E451.18
G1 X134.72 Y120.01 E451.405
G1 X137.91 Y123.2 E451.63
G1 X141.1 Y126.39 E451.856
G1 X144.29 Y129.58 E452.081
G1 X147.48 Y132.77 E452.306
G1 X150.67 Y135.96 E452.531
G1 X153.86 Y139.15 E452.756
G1 Y138.59 F9000
G1 X150.34 Y135.07 E453.004 F3600
G1 X146.82 Y131.55 E453.253
G1 X143.3 Y128.03 E453.501
G1 X139.79 Y124.52 E453.749
G1 X136.27 Y121 E453.997
G1 X132.75 Y117.48 E454.246
G1 X129.23 Y113.96 E454.494
G1 X125.71 Y110.44 E454.742
G1 X126.28 F9000
G1 X129.73 Y113.89 E454.985 F3600
G1 X133.18 Y117.34 E455.229
G1 X136.62 Y120.78 E455.472
G1 X140.07 Y124.23 E455.715
G1 X143.52 Y127.68 E455.958
G1 X146.97 Y131.13 E456.202
G1 X150.41 Y134.57 E456.445
G1 X153.86 Y138.02 E456.688
G1 Y137.45 F9000
G1 X150.48 Y134.07 E456.926 F3600
G1 X147.11 Y130.7 E457.165
G1 X143.73 Y127.32 E457.403
G1 X140.35 Y123.95 E457.641
G1 X136.97 Y120.57 E457.879
G1 X133.6 Y117.19 E458.118
G1 X130.22 Y113.82 E458.356
G1 X126.84 Y110.44 E458.594
G1 X127.41 F9000
G1 X130.72 Y113.75 E458.827 F3600
G1 X134.02 Y117.05 E459.061
G1 X137.33 Y120.36 E459.294
G1 X140.64 Y123.67 E459.527
G1 X143.94 Y126.97 E459.76
G1 X147.25 Y130.28 E459.994
G1 X150.55 Y133.58 E460.227
G1 X153.86 Y136.89 E460.46
G1 Y136.32 F9000
G1 X150.62 Y133.09 E460.688 F3600
G1 X147.39 Y129.85 E460.917
G1 X144.15 Y126.62 E461.145
G1 X140.92 Y123.38 E461.373
G1 X137.68 Y120.15 E461.601
G1 X134.44 Y116.91 E461.83
G1 X131.21 Y113.68 E462.058
G1 X127.97 Y110.44 E462.286
G1 X128.54 F9000
G1 X131.71 Y113.61 E462.509 F3600
G1 X134.87 Y116.77 E462.733
G1 X138.04 Y119.94 E462.956
G1 X141.2 Y123.1 E463.18
G1 X144.37 Y126.27 E463.403
G1 X147.53 Y129.43 E463.626
G1 X150.7 Y132.6 E463.85
G1 X153.86 Y135.76 E464.073
G1 Y135.19 F9000
G1 X150.77 Y132.1 E464.291 F3600
G1 X147.67 Y129 E464.51
G1 X144.58 Y125.91 E464.728
G1 X141.48 Y122.82 E464.946
G1 X138.39 Y119.72 E465.164
G1 X135.29 Y116.63 E465.383
G1 X132.2 Y113.53 E465.601
G1 X129.1 Y110.44 E465.819
G1 X129.67 Y110.44 F9000
G1 X133.13 Y113.9 E466.063 F3600
G1 X136.58 Y117.35 E466.307
G1 X140.04 Y120.81 E466.551
G1 X143.49 Y124.26 E466.794
G1 X146.95 Y127.72 E467.038
G1 X150.4 Y131.17 E467.282
G1 X153.86 Y134.63 E467.526
G1 Y134.06 F9000
G1 X150.49 Y130.69 E467.764 F3600
G1 X147.11 Y127.31 E468.002
G1 X143.74 Y123.94 E468.24
G1 X140.36 Y120.56 E468.478
G1 X136.99 Y117.19 E468.716
G1 X133.61 Y113.81 E468.954
G1 X130.24 Y110.44 E469.192
G1 X130.8 F9000
G1 X134.09 Y113.73 E469.424 F3600
G1 X137.39 Y117.03 E469.657
G1 X140.68 Y120.32 E469.889
G1 X143.98 Y123.61 E470.122
G1 X147.27 Y126.9 E470.354
G1 X150.57 Y130.2 E470.587
G1 X153.86 Y133.49 E470.819
G1 Y132.93 F9000
G1 X150.65 Y129.72 E471.046 F3600
G1 X147.43 Y126.5 E471.272
G1 X144.22 Y123.29 E471.499
G1 X141.01 Y120.08 E471.726
G1 X137.8 Y116.87 E471.953
G1 X134.58 Y113.65 E472.179
G1 X131.37 Y110.44 E472.406
G1 X131.93 F9000
G1 X135.06 Y113.57 E472.627 F3600
G1 X138.2 Y116.7 E472.848
G1 X141.33 Y119.83 E473.069
G1 X144.46 Y122.97 E473.29
G1 X147.59 Y126.1 E473.511
G1 X150.73 Y129.23 E473.732
G1 X153.86 Y132.36 E473.953
G1 Y131.8 F9000
G1 X150.81 Y128.75 E474.168 F3600
G1 X147.76 Y125.7 E474.384
G1 X144.71 Y122.65 E474.599
G1 X141.65 Y119.59 E474.814
G1 X138.6 Y116.54 E475.029
G1 X135.55 Y113.49 E475.245
G1 X132.5 Y110.44 E475.46
G1 X133.07 F9000
G1 X136.54 Y113.91 E475.705 F3600
G1 X140 Y117.37 E475.949
G1 X143.47 Y120.84 E476.194
G1 X146.93 Y124.3 E476.438
G1 X150.4 Y127.77 E476.683
G1 X153.86 Y131.23 E476.927
G1 Y130.67 F9000
G1 X150.49 Y127.3 E477.165 F3600
G1 X147.12 Y123.93 E477.403
G1 X143.75 Y120.56 E477.641
G1 X140.37 Y117.18 E477.878
G1 X137 Y113.81 E478.116
G1 X133.63 Y110.44 E478.354
G1 X134.2 F9000
G1 X137.48 Y113.72 E478.585 F3600
G1 X140.75 Y116.99 E478.816
G1 X144.03 Y120.27 E479.048
G1 X147.31 Y123.55 E479.279
G1 X150.58 Y126.82 E479.51
G1 X153.86 Y130.1 E479.741
G1 Y129.53 F9000
G1 X150.68 Y126.35 E479.966 F3600
G1 X147.49 Y123.17 E480.19
G1 X144.31 Y119.99 E480.415
G1 X141.13 Y116.8 E480.639
G1 X137.94 Y113.62 E480.864
G1 X134.76 Y110.44 E481.088
G1 X135.33 F9000
G1 X138.42 Y113.53 E481.306 F3600
G1 X141.51 Y116.62 E481.524
G1 X144.6 Y119.71 E481.742
G1 X147.68 Y122.79 E481.96
G1 X150.77 Y125.88 E482.178
G1 X153.86 Y128.97 E482.396
G1 Y128.4 F9000
G1 X150.87 Y125.41 E482.607 F3600
G1 X147.87 Y122.41 E482.818
G1 X144.88 Y119.42 E483.03
G1 X141.88 Y116.43 E483.241
G1 X138.89 Y113.43 E483.452
G1 X135.89 Y110.44 E483.663
G1 X136.46 F9000
G1 X139.94 Y113.92 E483.909 F3600
G1 X143.42 Y117.4 E484.154
G1 X146.9 Y120.88 E484.4
G1 X150.38 Y124.36 E484.645
G1 X153.86 Y127.84 E484.891
G1 Y127.27 F9000
G1 X150.49 Y123.9 E485.128 F3600
G1 X147.13 Y120.54 E485.366
G1 X143.76 Y117.17 E485.603
G1 X140.4 Y113.81 E485.841
G1 X137.03 Y110.44 E486.078
G1 X137.59 F9000
G1 X140.84 Y113.69 E486.308 F3600
G1 X144.1 Y116.95 E486.537
G1 X147.35 Y120.2 E486.767
G1 X150.61 Y123.46 E486.996
G1 X153.86 Y126.71 E487.226
G1 Y126.14 F9000
G1 X150.72 Y123 E487.448 F3600
G1 X147.58 Y119.86 E487.669
G1 X144.44 Y116.72 E487.891
G1 X141.3 Y113.58 E488.112
G1 X138.16 Y110.44 E488.334
G1 X138.72 F9000
G1 X141.75 Y113.47 E488.548 F3600
G1 X144.78 Y116.49 E488.761
G1 X147.8 Y119.52 E488.975
G1 X150.83 Y122.54 E489.188
G1 X153.86 Y125.57 E489.402
G1 Y125.01 F9000
G1 X150.95 Y122.1 E489.608 F3600
G1 X148.03 Y119.18 E489.813
G1 X145.12 Y116.27 E490.019
G1 X142.2 Y113.35 E490.224
G1 X139.29 Y110.44 E490.43
G1 X139.85 F9000
G1 X143.35 Y113.94 E490.677 F3600
G1 X146.86 Y117.44 E490.924
G1 X150.36 Y120.94 E491.171
G1 X153.86 Y124.44 E491.418
G1 Y123.88 F9000
G1 X150.5 Y120.52 E491.655 F3600
G1 X147.14 Y117.16 E491.892
G1 X143.78 Y113.8 E492.129
G1 X140.42 Y110.44 E492.366
G1 X140.99 F9000
G1 X144.21 Y113.66 E492.593 F3600
G1 X147.43 Y116.88 E492.821
G1 X150.64 Y120.09 E493.048
G1 X153.86 Y123.31 E493.275
G1 Y122.75 F9000
G1 X150.78 Y119.67 E493.492 F3600
G1 X147.71 Y116.6 E493.709
G1 X144.63 Y113.52 E493.926
G1 X141.55 Y110.44 E494.143
G1 X142.12 F9000
G1 X145.06 Y113.38 E494.35 F3600
G1 X147.99 Y116.31 E494.557
G1 X150.93 Y119.25 E494.764
G1 X153.86 Y122.18 E494.971
G1 Y121.61 F9000
G1 X151.07 Y118.82 E495.168 F3600
G1 X148.27 Y116.03 E495.366
G1 X145.48 Y113.23 E495.563
G1 X142.68 Y110.44 E495.76
G1 X143.25 F9000
G1 X145.9 Y113.09 E495.947 F3600
G1 X148.56 Y115.75 E496.135
G1 X151.21 Y118.4 E496.322
G1 X153.86 Y121.05 E496.509
G1 Y120.48 F9000
G1 X150.51 Y117.13 E496.745 F3600
G1 X147.16 Y113.79 E496.981
G1 X143.81 Y110.44 E497.217
G1 X144.38 F9000
G1 X147.54 Y113.6 E497.44 F3600
G1 X150.7 Y116.76 E497.663
G1 X153.86 Y119.92 E497.886
G1 Y119.35 F9000
G1 X150.89 Y116.38 E498.096 F3600
G1 X147.91 Y113.41 E498.305
G1 X144.94 Y110.44 E498.515
G1 X145.51 F9000
G1 X148.29 Y113.22 E498.711 F3600
G1 X151.08 Y116.01 E498.908
G1 X153.86 Y118.79 E499.104
G1 Y118.22 F9000
G1 X151.27 Y115.63 E499.287 F3600
G1 X148.67 Y113.03 E499.47
G1 X146.08 Y110.44 E499.653
G1 X146.64 F9000
G1 X149.05 Y112.84 E499.823 F3600
G1 X151.45 Y115.25 E499.992
G1 X153.86 Y117.65 E500.162
G1 Y117.09 F9000
G1 X150.54 Y113.77 E500.397 F3600
G1 X147.21 Y110.44 E500.631
G1 X147.77 F9000
G1 X150.82 Y113.48 E500.846 F3600
G1 X153.86 Y116.52 E501.061
G1 Y115.96 F9000
G1 X151.1 Y113.2 E501.256 F3600
G1 X148.34 Y110.44 E501.45
G1 X148.9 F9000
G1 X151.38 Y112.92 E501.625 F3600
G1 X153.86 Y115.39 E501.8
G1 Y114.83 F9000
G1 X151.67 Y112.64 E501.955 F3600
G1 X149.47 Y110.44 E502.109
G1 X150.04 F9000
G1 X153.86 Y114.26 E502.379 F3600
G1 Y113.69 F9000
G1 X150.6 Y110.44 E502.609 F3600
G1 X151.17 F9000
G1 X153.86 Y113.13 E502.799 F3600
G1 Y112.56 F9000
G1 X151.73 Y110.44 E502.949 F3600
G1 X152.3 F9000
G1 X153.86 Y112 E503.059 F3600
G1 Y111.43 F9000
G1 X152.86 Y110.44 E503.129 F3600
G1 X153.43 F9000
G1 X153.86 Y110.87 E503.159 F3600
G1 E500.159 F1800
G1 Z1.1
G1 X153.71 F9000
G1 X153.75 Y119.4
G1 X153.8 Y127.93
G1 X153.84 Y136.46
G1 X153.88 Y144.99
G1 X154.8 Y146.05
G1 Y146.65
G1 X154.95 Y146.8
G1 X154.8 Y152.95
G1 X153.9 Y153.86
G1 X154.2 Y153.55
; TYPE:WALL-INNER
G1 Z0.6
G1 E503.159 F1800
G1 Y156.95 E503.329 F3600
G1 Y160.35 E503.498
G1 X149.24 E503.746
G1 X144.28 E503.993
G1 X139.32 E504.241
G1 X134.36 E504.488
G1 X129.4 E504.736
G1 X124.44 E504.983
G1 X119.48 E505.231
G1 X114.52 E505.478
G1 X109.56 E505.726
G1 X104.6 E505.973
G1 Y156.95 E506.143
G1 Y153.55 E506.312
G1 X109.12 E506.538
G1 X113.65 E506.764
G1 X118.17 E506.989
G1 X122.7 E507.215
G1 X127.22 E507.441
G1 X127.43 Y153.82 E507.458
G1 X127.74 Y154.17 E507.481
G1 X128.18 Y154.54 E507.51
G1 X128.54 Y154.76 E507.531
G1 X128.92 Y154.92 E507.551
G1 X129.32 Y155 E507.571
G1 X129.72 Y155.01 E507.592
G1 X130.12 Y154.94 E507.612
G1 X130.51 Y154.79 E507.633
G1 X130.93 Y154.55 E507.657
G1 X131.37 Y154.18 E507.686
G1 X131.66 Y153.86 E507.707
G1 X131.9 Y153.55 E507.726
G1 X136.35 E507.948
G1 X140.8 E508.17
G1 X145.26 E508.393
G1 X149.71 E508.615
G1 X154.16 E508.837
G1 X154.2
G1 X154.6 Y153.15 F9000
; TYPE:WALL-OUTER
G1 Y156.95 E509.027 F3000
G1 Y160.75 E509.216
G1 X150.02 E509.445
G1 X145.44 E509.673
G1 X140.85 E509.902
G1 X136.27 E510.131
G1 X131.69 E510.359
G1 X127.11 E510.588
G1 X122.53 E510.816
G1 X117.95 E511.045
G1 X113.36 E511.274
G1 X108.78 E511.502
G1 X104.2 E511.731
G1 Y156.95 E511.921
G1 Y153.15 E512.11
G1 X108.85 E512.342
G1 X113.49 E512.574
G1 X118.14 E512.805
G1 X122.78 E513.037
G1 X127.43 E513.269
G1 X127.74 Y153.57 E513.295
G1 X128.02 Y153.89 E513.316
G1 X128.41 Y154.22 E513.342
G1 X128.72 Y154.4 E513.36
G1 X129.04 Y154.53 E513.377
G1 X129.36 Y154.6 E513.393
G1 X129.69 Y154.6 E513.41
G1 X130.02 Y154.55 E513.426
G1 X130.34 Y154.43 E513.443
G1 X130.7 Y154.22 E513.464
G1 X131.09 Y153.89 E513.49
G1 X131.36 Y153.6 E513.509
G1 X131.68 Y153.15 E513.537
G1 X136.26 E513.765
G1 X140.83 E513.993
G1 X145.41 E514.222
G1 X149.98 E514.45
G1 X154.56 E514.678
G1 X154.6
G1 Y156.15
G1 X154.2 Y153.55 F9000
G1 X153.86 Y154.43
; TYPE:FILL
G1 X153.32 Y153.89 E514.716 F3600
G1 X152.76 F9000
G1 X153.86 Y154.99 E514.794 F3600
G1 Y155.56 F9000
G1 X152.19 Y153.89 E514.911 F3600
G1 X151.63 F9000
G1 X153.86 Y156.12 E515.069 F3600
G1 Y156.69 F9000
G1 X151.06 Y153.89 E515.266 F3600
G1 X150.49 F9000
G1 X153.86 Y157.25 E515.504 F3600
G1 Y157.82 F9000
G1 X149.93 Y153.89 E515.781 F3600
G1 X149.36 F9000
G1 X151.61 Y156.14 E515.94 F3600
G1 X153.86 Y158.38 E516.098
G1 Y158.95 F9000
G1 X151.33 Y156.42 E516.277 F3600
G1 X148.8 Y153.89 E516.455
G1 X148.23 F9000
G1 X151.05 Y156.71 E516.654 F3600
G1 X153.86 Y159.52 E516.852
G1 X153.79 Y160.01 F9000
G1 X150.73 Y156.95 E517.068 F3600
G1 X147.67 Y153.89 E517.284
G1 X147.1 F9000
G1 X150.16 Y156.95 E517.5 F3600
G1 X153.22 Y160.01 E517.716
G1 X152.66 F9000
G1 X149.6 Y156.95 E517.932 F3600
G1 X146.54 Y153.89 E518.147
G1 X145.97 F9000
G1 X149.03 Y156.95 E518.363 F3600
G1 X152.09 Y160.01 E518.579
G1 X151.52 F9000
G1 X148.46 Y156.95 E518.795 F3600
G1 X145.4 Y153.89 E519.011
G1 X144.84 F9000
G1 X147.9 Y156.95 E519.227 F3600
G1 X150.96 Y160.01 E519.443
G1 X150.39 F9000
G1 X147.33 Y156.95 E519.659 F3600
G1 X144.27 Y153.89 E519.875
G1 X143.71 F9000
G1 X146.77 Y156.95 E520.091 F3600
G1 X149.83 Y160.01 E520.306
G1 X149.26 F9000
G1 X146.2 Y156.95 E520.522 F3600
G1 X143.14 Y153.89 E520.738
G1 X142.58 F9000
G1 X145.64 Y156.95 E520.954 F3600
G1 X148.7 Y160.01 E521.17
G1 X148.13 F9000
G1 X145.07 Y156.95 E521.386 F3600
G1 X142.01 Y153.89 E521.602
G1 X141.44 F9000
G1 X144.5 Y156.95 E521.818 F3600
G1 X147.56 Y160.01 E522.034
G1 X147 F9000
G1 X143.94 Y156.95 E522.25 F3600
G1 X140.88 Y153.89 E522.465
G1 X140.31 F9000
G1 X143.37 Y156.95 E522.681 F3600
G1 X146.43 Y160.01 E522.897
G1 X145.87 F9000
G1 X142.81 Y156.95 E523.113 F3600
G1 X139.75 Y153.89 E523.329
G1 X139.18 F9000
G1 X142.24 Y156.95 E523.545 F3600
G1 X145.3 Y160.01 E523.761
G1 X144.74 F9000
G1 X141.68 Y156.95 E523.977 F3600
G1 X138.62 Y153.89 E524.192
G1 X138.05 F9000
G1 X141.11 Y156.95 E524.408 F3600
G1 X144.17 Y160.01 E524.624
G1 X143.6 F9000
G1 X140.54 Y156.95 E524.84 F3600
G1 X137.48 Y153.89 E525.056
G1 X136.92 F9000
G1 X139.98 Y156.95 E525.272 F3600
G1 X143.04 Y160.01 E525.488
G1 X142.47 F9000
G1 X139.41 Y156.95 E525.704 F3600
G1 X136.35 Y153.89 E525.92
G1 X135.79 F9000
G1 X138.85 Y156.95 E526.136 F3600
G1 X141.91 Y160.01 E526.351
G1 X141.34 F9000
G1 X138.28 Y156.95 E526.567 F3600
G1 X135.22 Y153.89 E526.783
G1 X134.66 F9000
G1 X137.72 Y156.95 E526.999 F3600
G1 X140.78 Y160.01 E527.215
G1 X140.21 F9000
G1 X137.15 Y156.95 E527.431 F3600
G1 X134.09 Y153.89 E527.647
G1 X133.53 F9000
G1 X136.59 Y156.95 E527.863 F3600
G1 X139.64 Y160.01 E528.078
G1 X139.08 F9000
G1 X136.02 Y156.95 E528.294 F3600
G1 X132.96 Y153.89 E528.51
G1 X132.39 F9000
G1 X135.45 Y156.95 E528.726 F3600
G1 X138.51 Y160.01 E528.942
G1 X137.95 F9000
G1 X134.96 Y157.02 E529.153 F3600
G1 X131.96 Y154.02 E529.364
G1 X131.7 Y154.32 F9000
G1 X134.54 Y157.17 E529.565 F3600
G1 X137.38 Y160.01 E529.766
G1 X136.82 F9000
G1 X134.11 Y157.3 E529.957 F3600
G1 X131.4 Y154.59 E530.148
G1 X131.09 Y154.85 F9000
G1 X133.67 Y157.43 E530.33 F3600
G1 X136.25 Y160.01 E530.512
G1 X135.68 F9000
G1 X133.21 Y157.54 E530.687 F3600
G1 X130.73 Y155.06 E530.861
G1 X130.33 Y155.22 F9000
G1 X132.73 Y157.62 E531.03 F3600
G1 X135.12 Y160.01 E531.199
G1 X134.55 F9000
G1 X132.21 Y157.67 E531.365 F3600
G1 X129.87 Y155.32 E531.53
G1 X129.31 Y155.34 F9000
G1 X131.65 Y157.68 E531.695 F3600
G1 X133.99 Y160.01 E531.86
G1 X133.42 F9000
G1 X130.98 Y157.57 E532.032 F3600
G1 X128.54 Y155.13 E532.204
G1 X126.74 Y153.89 F9000
G1 X129.8 Y156.95 E532.42 F3600
G1 X132.86 Y160.01 E532.636
G1 X132.29 F9000
G1 X129.23 Y156.95 E532.852 F3600
G1 X126.17 Y153.89 E533.068
G1 X125.6 F9000
G1 X128.66 Y156.95 E533.284 F3600
G1 X131.72 Y160.01 E533.499
G1 X131.16 F9000
G1 X128.1 Y156.95 E533.715 F3600
G1 X125.04 Y153.89 E533.931
G1 X124.47 F9000
G1 X127.53 Y156.95 E534.147 F3600
G1 X130.59 Y160.01 E534.363
G1 X130.03 F9000
G1 X126.97 Y156.95 E534.579 F3600
G1 X123.91 Y153.89 E534.795
G1 X123.34 F9000
G1 X126.4 Y156.95 E535.011 F3600
G1 X129.46 Y160.01 E535.227
G1 X128.9 F9000
G1 X125.84 Y156.95 E535.443 F3600
G1 X122.78 Y153.89 E535.658
G1 X122.21 F9000
G1 X125.27 Y156.95 E535.874 F3600
G1 X128.33 Y160.01 E536.09
G1 X127.77 F9000
G1 X124.71 Y156.95 E536.306 F3600
G1 X121.64 Y153.89 E536.522
G1 X121.08 F9000
G1 X124.14 Y156.95 E536.738 F3600
G1 X127.2 Y160.01 E536.954
G1 X126.63 F9000
G1 X123.57 Y156.95 E537.17 F3600
G1 X120.51 Y153.89 E537.386
G1 X119.95 F9000
G1 X123.01 Y156.95 E537.602 F3600
G1 X126.07 Y160.01 E537.818
G1 X125.5 F9000
G1 X122.44 Y156.95 E538.034 F3600
G1 X119.38 Y153.89 E538.249
G1 X118.82 F9000
G1 X121.88 Y156.95 E538.465 F3600
G1 X124.94 Y160.01 E538.681
G1 X124.37 F9000
G1 X121.31 Y156.95 E538.897 F3600
G1 X118.25 Y153.89 E539.113
G1 X117.69 F9000
G1 X120.75 Y156.95 E539.329 F3600
G1 X123.81 Y160.01 E539.545
G1 X123.24 F9000
G1 X120.18 Y156.95 E539.761 F3600
G1 X117.12 Y153.89 E539.977
G1 X116.55 F9000
G1 X119.61 Y156.95 E540.193 F3600
G1 X122.67 Y160.01 E540.409
G1 X122.11 F9000
G1 X119.05 Y156.95 E540.625 F3600
G1 X115.99 Y153.89 E540.84
G1 X115.42 F9000
G1 X118.48 Y156.95 E541.056 F3600
G1 X121.54 Y160.01 E541.272
G1 X120.98 F9000
G1 X117.92 Y156.95 E541.488 F3600
G1 X114.86 Y153.89 E541.704
G1 X114.29 F9000
G1 X117.35 Y156.95 E541.92 F3600
G1 X120.41 Y160.01 E542.136
G1 X119.85 F9000
G1 X116.79 Y156.95 E542.352 F3600
G1 X113.73 Y153.89 E542.568
G1 X113.16 F9000
G1 X116.22 Y156.95 E542.784 F3600
G1 X119.28 Y160.01 E542.999
G1 X118.71 F9000
G1 X115.65 Y156.95 E543.215 F3600
G1 X112.59 Y153.89 E543.431
G1 X112.03 F9000
G1 X115.09 Y156.95 E543.647 F3600
G1 X118.15 Y160.01 E543.863
G1 X117.58 F9000
G1 X114.52 Y156.95 E544.079 F3600
G1 X111.46 Y153.89 E544.295
G1 X110.9 F9000
G1 X113.96 Y156.95 E544.511 F3600
G1 X117.02 Y160.01 E544.727
G1 X116.45 F9000
G1 X113.39 Y156.95 E544.943 F3600
G1 X110.33 Y153.89 E545.159
G1 X109.77 F9000
G1 X112.83 Y156.95 E545.375 F3600
G1 X115.89 Y160.01 E545.59
G1 X115.32 F9000
G1 X112.26 Y156.95 E545.806 F3600
G1 X109.2 Y153.89 E546.022
G1 X108.63 F9000
G1 X111.69 Y156.95 E546.238 F3600
G1 X114.75 Y160.01 E546.454
G1 X114.19 F9000
G1 X111.13 Y156.95 E546.67 F3600
G1 X108.07 Y153.89 E546.886
G1 X107.5 F9000
G1 X110.56 Y156.95 E547.102 F3600
G1 X113.62 Y160.01 E547.318
G1 X113.06 F9000
G1 X110 Y156.95 E547.534 F3600
G1 X106.94 Y153.89 E547.75
G1 X106.37 F9000
G1 X109.43 Y156.95 E547.966 F3600
G1 X112.49 Y160.01 E548.181
G1 X111.93 F9000
G1 X108.87 Y156.95 E548.397 F3600
G1 X105.81 Y153.89 E548.613
G1 X105.24 F9000
G1 X108.3 Y156.95 E548.829 F3600
G1 X111.36 Y160.01 E549.045
G1 X110.8 F9000
G1 X107.87 Y157.08 E549.252 F3600
G1 X104.94 Y154.15 E549.458
G1 Y154.72 F9000
G1 X107.59 Y157.37 E549.645 F3600
G1 X110.23 Y160.01 E549.831
G1 X109.66 F9000
G1 X107.3 Y157.65 E549.998 F3600
G1 X104.94 Y155.28 E550.165
G1 Y155.85 F9000
G1 X109.1 Y160.01 E550.458 F3600
G1 X108.53 F9000
G1 X104.94 Y156.42 E550.712 F3600
G1 Y156.98 F9000
G1 X107.97 Y160.01 E550.926 F3600
G1 X107.4 F9000
G1 X104.94 Y157.55 E551.099 F3600
G1 Y158.11 F9000
G1 X106.84 Y160.01 E551.233 F3600
G1 X106.27 F9000
G1 X104.94 Y158.68 E551.327 F3600
G1 Y159.24 F9000
G1 X105.7 Y160.01 E551.381 F3600
G1 X105.14 F9000
G1 X104.94 Y159.81 E551.395 F3600
; Layer Change GCode
; LAYER:2
; LAYER_HEIGHT:0.3
; TYPE:FILL
G1 E548.395 F1800
G1 Z1.1
G1 Z1.4 F9000
G1 X104.84 Y154.03
G1 X104 Y152.95
G1 Y152.35
G1 X103.85 Y152.2
G1 X104 Y146.05
G1 X104.9 Y145.15
G1 X104.6 Y145.45
; TYPE:WALL-INNER
G1 Z0.9
G1 E551.395 F1800
G1 Y140.98 E551.618 F3600
G1 Y136.51 E551.841
G1 Y132.04 E552.064
G1 Y127.57 E552.288
G1 Y123.09 E552.511
G1 Y118.62 E552.734
G1 Y114.15 E552.957
G1 Y109.68 E553.18
G1 X109.56 E553.427
G1 X114.52 E553.675
G1 X119.48 E553.922
G1 X124.44 E554.17
G1 X129.4 E554.417
G1 X134.36 E554.664
G1 X139.32 E554.912
G1 X144.28 E555.159
G1 X149.24 E555.407
G1 X154.2 E555.654
G1 Y114.15 E555.877
G1 Y118.62 E556.1
G1 Y123.09 E556.323
G1 Y127.57 E556.547
G1 Y132.04 E556.77
G1 Y136.51 E556.993
G1 Y140.98 E557.216
G1 Y145.45 E557.439
G1 X149.24 E557.686
G1 X144.29 E557.934
G1 X139.33 E558.181
G1 X134.38 E558.428
G1 X129.42 E558.676
G1 X124.46 E558.923
G1 X119.51 E559.17
G1 X114.55 E559.417
G1 X109.6 E559.665
G1 X104.64 E559.912
G1 X104.6
G1 X104.2 Y145.85 F9000
; TYPE:WALL-OUTER
G1 Y141.28 E560.14 F3000
G1 Y136.71 E560.368
G1 Y132.14 E560.596
G1 Y127.57 E560.824
G1 Y122.99 E561.052
G1 Y118.42 E561.28
G1 Y113.85 E561.508
G1 Y109.28 E561.736
G1 X108.78 E561.965
G1 X113.36 E562.193
G1 X117.95 E562.422
G1 X122.53 E562.651
G1 X127.11 E562.879
G1 X131.69 E563.108
G1 X136.27 E563.336
G1 X140.85 E563.565
G1 X145.44 E563.794
G1 X150.02 E564.022
G1 X154.6 E564.251
G1 Y113.85 E564.479
G1 Y118.42 E564.707
G1 Y122.99 E564.935
G1 Y127.57 E565.164
G1 Y132.14 E565.392
G1 Y136.71 E565.62
G1 Y141.28 E565.848
G1 Y145.85 E566.076
G1 X150.02 E566.304
G1 X145.44 E566.533
G1 X140.87 E566.761
G1 X136.29 E566.989
G1 X131.71 E567.218
G1 X127.13 E567.446
G1 X122.55 E567.675
G1 X117.97 E567.903
G1 X113.4 E568.131
G1 X108.82 E568.36
G1 X104.24 E568.588
G1 X104.2
G1 Y142.85
G1 X104.6 Y145.45 F9000
G1 E565.588 F1800
G1 Z1.4
G1 X105.05 Y145 F9000
G1 X112.08 Y139
G1 X119.1 Y132.99
G1 X126.13 Y126.99
G1 X128.32 Y124.36
G1 X130.53 Y123.75
G1 X131.15 Y124.33
; TYPE:WALL-INNER
G1 Z0.9
G1 E568.588 F1800
G1 X130.86 Y124.21 E568.604 F3600
G1 X130.42 Y124.08 E568.626
G1 X130.06 Y124.05 E568.644
G1 X129.69 Y124.07 E568.663
G1 X129.48 Y124.1 E568.673
G1 X129.04 Y124.23 E568.696
G1 X128.62 Y124.44 E568.72
G1 X128.22 Y124.72 E568.744
G1 X127.84 Y125.06 E568.77
G1 X127.5 Y125.45 E568.796
G1 X127.2 Y125.87 E568.821
G1 X126.91 Y126.37 E568.85
G1 X126.57 Y127.08 E568.889
G1 X126.26 Y127.93 E568.935
G1 X126.08 Y128.58 E568.968
G1 X125.93 Y129.23 E569.001
G1 X125.78 Y130.14 E569.047
G1 X125.69 Y131.01 E569.091
G1 X125.66 Y132.01 E569.141
G1 X125.68 Y132.94 E569.187
G1 X125.76 Y133.88 E569.235
G1 X125.91 Y134.86 E569.284
G1 X126.08 Y135.64 E569.324
G1 X126.33 Y136.47 E569.367
G1 X126.56 Y137.1 E569.4
G1 X126.84 Y137.71 E569.434
G1 X127.22 Y138.36 E569.472
G1 X127.62 Y138.9 E569.505
G1 X127.98 Y139.29 E569.531
G1 X128.36 Y139.6 E569.556
G1 X128.77 Y139.86 E569.58
G1 X129.2 Y140.04 E569.604
G1 X129.65 Y140.14 E569.627
G1 X130.09 Y140.16 E569.648
G1 X130.54 Y140.1 E569.671
G1 X130.98 Y139.96 E569.694
G1 X131.4 Y139.74 E569.718
G1 X131.8 Y139.45 E569.742
G1 X132.17 Y139.1 E569.768
G1 X132.52 Y138.69 E569.795
G1 X132.9 Y138.12 E569.829
G1 X133.25 Y137.47 E569.866
G1 X133.57 Y136.69 E569.908
G1 X133.86 Y135.75 E569.957
G1 X134.06 Y134.87 E570.002
G1 X134.22 Y133.8 E570.056
G1 X134.3 Y132.83 E570.104
G1 X134.31 Y131.83 E570.154
G1 X134.26 Y130.81 E570.205
G1 X134.13 Y129.79 E570.257
G1 X133.99 Y128.99 E570.297
G1 X133.87 Y128.51 E570.322
G1 X133.71 Y127.94 E570.351
G1 X133.51 Y127.36 E570.382
G1 X133.27 Y126.8 E570.412
G1 X132.92 Y126.12 E570.451
G1 X132.6 Y125.64 E570.479
G1 X132.3 Y125.25 E570.504
G1 X131.94 Y124.88 E570.529
G1 X131.55 Y124.57 E570.554
G1 X131.18 Y124.35 E570.576
G1 X131.15 Y124.33
G1 X130.97 Y124.68 F9000
; TYPE:WALL-OUTER
G1 X130.73 Y124.58 E570.589 F3000
G1 X130.35 Y124.48 E570.608
G1 X130.05 Y124.45 E570.623
G1 X129.73 Y124.46 E570.639
G1 X129.57 Y124.49 E570.647
G1 X129.19 Y124.6 E570.667
G1 X128.82 Y124.78 E570.688
G1 X128.47 Y125.03 E570.709
G1 X128.13 Y125.34 E570.732
G1 X127.82 Y125.7 E570.756
G1 X127.54 Y126.09 E570.78
G1 X127.26 Y126.56 E570.807
G1 X126.94 Y127.24 E570.844
G1 X126.64 Y128.06 E570.888
G1 X126.47 Y128.68 E570.92
G1 X126.32 Y129.31 E570.952
G1 X126.18 Y130.19 E570.997
G1 X126.09 Y131.04 E571.039
G1 X126.06 Y132.02 E571.088
G1 X126.08 Y132.92 E571.133
G1 X126.16 Y133.84 E571.179
G1 X126.3 Y134.78 E571.227
G1 X126.47 Y135.54 E571.266
G1 X126.71 Y136.34 E571.307
G1 X126.93 Y136.94 E571.34
G1 X127.2 Y137.53 E571.371
G1 X127.56 Y138.14 E571.407
G1 X127.93 Y138.65 E571.438
G1 X128.25 Y138.99 E571.462
G1 X128.6 Y139.28 E571.484
G1 X128.95 Y139.5 E571.505
G1 X129.33 Y139.66 E571.525
G1 X129.7 Y139.74 E571.545
G1 X130.07 Y139.76 E571.563
G1 X130.45 Y139.71 E571.582
G1 X130.83 Y139.59 E571.602
G1 X131.19 Y139.4 E571.622
G1 X131.54 Y139.14 E571.644
G1 X131.88 Y138.83 E571.667
G1 X132.2 Y138.45 E571.692
G1 X132.55 Y137.92 E571.724
G1 X132.88 Y137.3 E571.759
G1 X133.19 Y136.55 E571.799
G1 X133.47 Y135.65 E571.846
G1 X133.66 Y134.79 E571.89
G1 X133.82 Y133.75 E571.942
G1 X133.9 Y132.81 E571.99
G1 X133.91 Y131.84 E572.038
G1 X133.86 Y130.84 E572.088
G1 X133.74 Y129.85 E572.138
G1 X133.6 Y129.07 E572.177
G1 X133.48 Y128.62 E572.201
G1 X133.32 Y128.06 E572.23
G1 X133.13 Y127.51 E572.259
G1 X132.91 Y126.97 E572.288
G1 X132.57 Y126.32 E572.324
G1 X132.28 Y125.87 E572.351
G1 X132 Y125.51 E572.374
G1 X131.67 Y125.18 E572.397
G1 X131.33 Y124.9 E572.419
G1 X131 Y124.7 E572.438
G1 X130.97 Y124.68
G1 X130.73 Y124.58
G1 X130.35 Y124.48
G1 X130.05 Y124.45
G1 X129.73 Y124.46
G1 X129.57 Y124.49
G1 X129.19 Y124.6
G1 X128.82 Y124.78
G1 X128.47 Y125.03
G1 X128.22 Y125.25
G1 X131.15 Y124.33 F9000
G1 X131.16 Y123.96
; TYPE:FILL
G1 X134.65 Y120.48 E572.684 F3600
G1 X138.14 Y116.99 E572.93
G1 X141.62 Y113.51 E573.176
G1 X145.11 Y110.02 E573.422
G1 X144.54 F9000
G1 X141.09 Y113.47 E573.666 F3600
G1 X137.64 Y116.92 E573.909
G1 X134.19 Y120.37 E574.153
G1 X130.74 Y123.82 E574.396
G1 X130.27 Y123.73 F9000
G1 X133.7 Y120.3 E574.638 F3600
G1 X137.13 Y116.88 E574.88
G1 X140.55 Y113.45 E575.121
G1 X143.98 Y110.02 E575.363
G1 X143.41 F9000
G1 X139.98 Y113.45 E575.605 F3600
G1 X136.56 Y116.87 E575.847
G1 X133.13 Y120.3 E576.089
G1 X129.7 Y123.72 E576.331
G1 X128.97 Y123.89 F9000
G1 X132.44 Y120.42 E576.576 F3600
G1 X135.91 Y116.96 E576.821
G1 X139.38 Y113.49 E577.065
G1 X142.85 Y110.02 E577.31
G1 X142.28 F9000
G1 X138.77 Y113.53 E577.558 F3600
G1 X135.26 Y117.04 E577.805
G1 X131.75 Y120.55 E578.053
G1 X128.24 Y124.06 E578.3
G1 X124.74 Y127.57 E578.548
G1 X121.23 Y131.07 E578.796
G1 X117.72 Y134.58 E579.043
G1 X114.21 Y138.09 E579.291
G1 X110.7 Y141.6 E579.538
G1 X107.19 Y145.11 E579.786
G1 X107.75 F9000
G1 X110.89 Y141.97 E580.007 F3600
G1 X114.02 Y138.84 E580.228
G1 X117.16 Y135.7 E580.45
G1 X120.3 Y132.56 E580.671
G1 X123.43 Y129.43 E580.892
G1 X126.57 Y126.29 E581.113
G1 X126.13 Y127.3 F9000
G1 X123.16 Y130.27 E581.323 F3600
G1 X120.19 Y133.24 E581.532
G1 X117.23 Y136.21 E581.742
G1 X114.26 Y139.17 E581.951
G1 X111.29 Y142.14 E582.161
G1 X108.32 Y145.11 E582.37
G1 X108.88 F9000
G1 X112.27 Y141.72 E582.609 F3600
G1 X115.67 Y138.33 E582.849
G1 X119.06 Y134.93 E583.088
G1 X122.46 Y131.54 E583.328
G1 X125.85 Y128.15 E583.567
G1 X125.66 Y128.9 F9000
G1 X122.42 Y132.14 E583.796 F3600
G1 X119.18 Y135.38 E584.024
G1 X115.93 Y138.63 E584.253
G1 X112.69 Y141.87 E584.481
G1 X109.45 Y145.11 E584.71
G1 X110.02 F9000
G1 X113.12 Y142.01 E584.929 F3600
G1 X116.22 Y138.91 E585.148
G1 X119.33 Y135.8 E585.366
G1 X122.43 Y132.7 E585.585
G1 X125.53 Y129.6 E585.804
G1 X125.43 Y130.26 F9000
G1 X122.46 Y133.23 E586.014 F3600
G1 X119.49 Y136.2 E586.223
G1 X116.52 Y139.17 E586.433
G1 X113.55 Y142.14 E586.642
G1 X110.58 Y145.11 E586.852
G1 X111.15 F9000
G1 X113.99 Y142.27 E587.053 F3600
G1 X116.83 Y139.42 E587.253
G1 X119.68 Y136.58 E587.454
G1 X122.52 Y133.73 E587.654
G1 X125.36 Y130.89 E587.855
G1 X125.33 Y131.49 F9000
G1 X121.93 Y134.9 E588.095 F3600
G1 X118.52 Y138.3 E588.336
G1 X115.12 Y141.71 E588.576
G1 X111.71 Y145.11 E588.816
G1 X112.28 F9000
G1 X115.54 Y141.85 E589.046 F3600
G1 X118.8 Y138.59 E589.276
G1 X122.06 Y135.33 E589.506
G1 X125.32 Y132.07 E589.736
G1 X125.33 Y132.62 F9000
G1 X122.21 Y135.74 E589.956 F3600
G1 X119.09 Y138.87 E590.177
G1 X115.96 Y141.99 E590.397
G1 X112.84 Y145.11 E590.617
G1 X113.41 F9000
G1 X116.4 Y142.12 E590.828 F3600
G1 X119.39 Y139.14 E591.038
G1 X122.37 Y136.15 E591.249
G1 X125.36 Y133.16 E591.459
G1 X125.4 Y133.68 F9000
G1 X122.55 Y136.54 E591.661 F3600
G1 X119.69 Y139.4 E591.862
G1 X116.84 Y142.25 E592.064
G1 X113.98 Y145.11 E592.265
G1 X114.54 F9000
G1 X117.27 Y142.38 E592.458 F3600
G1 X120 Y139.65 E592.651
G1 X122.73 Y136.92 E592.843
G1 X125.46 Y134.19 E593.036
G1 X125.54 Y134.68 F9000
G1 X122.06 Y138.16 E593.281 F3600
G1 X118.59 Y141.63 E593.527
G1 X115.11 Y145.11 E593.772
G1 X115.67 F9000
G1 X118.99 Y141.79 E594.006 F3600
G1 X122.31 Y138.48 E594.24
G1 X125.63 Y135.16 E594.474
G1 X125.73 Y135.62 F9000
G1 X122.57 Y138.78 E594.697 F3600
G1 X119.4 Y141.95 E594.92
G1 X116.24 Y145.11 E595.143
G1 X116.8 F9000
G1 X119.82 Y142.09 E595.356 F3600
G1 X122.83 Y139.08 E595.569
G1 X125.85 Y136.06 E595.782
G1 X125.98 Y136.5 F9000
G1 X123.11 Y139.37 E595.984 F3600
G1 X120.24 Y142.24 E596.187
G1 X117.37 Y145.11 E596.389
G1 X117.94 F9000
G1 X120.67 Y142.38 E596.582 F3600
G1 X123.4 Y139.64 E596.774
G1 X126.13 Y136.91 E596.967
G1 X126.29 Y137.32 F9000
G1 X123.69 Y139.92 E597.15 F3600
G1 X121.1 Y142.51 E597.334
G1 X118.5 Y145.11 E597.517
G1 X119.07 F9000
G1 X121.54 Y142.64 E597.691 F3600
G1 X124 Y140.18 E597.865
G1 X126.47 Y137.71 E598.039
G1 X126.66 Y138.08 F9000
G1 X123.15 Y141.6 E598.287 F3600
G1 X119.63 Y145.11 E598.535
G1 X120.2 F9000
G1 X123.54 Y141.78 E598.771 F3600
G1 X126.87 Y138.44 E599.006
G1 X127.1 Y138.77 F9000
G1 X123.93 Y141.94 E599.23 F3600
G1 X120.76 Y145.11 E599.453
G1 X121.33 F9000
G1 X124.34 Y142.11 E599.665 F3600
G1 X127.34 Y139.1 E599.877
G1 X127.61 Y139.39 F9000
G1 X124.76 Y142.25 E600.079 F3600
G1 X121.9 Y145.11 E600.28
G1 X122.46 F9000
G1 X125.18 Y142.39 E600.472 F3600
G1 X127.9 Y139.67 E600.664
G1 X128.22 Y139.91 F9000
G1 X125.63 Y142.51 E600.848 F3600
G1 X123.03 Y145.11 E601.031
G1 X123.59 F9000
G1 X126.08 Y142.62 E601.207 F3600
G1 X128.57 Y140.13 E601.382
G1 X128.96 Y140.31 F9000
G1 X126.56 Y142.71 E601.551 F3600
G1 X124.16 Y145.11 E601.72
G1 X124.72 F9000
G1 X127.06 Y142.77 E601.886 F3600
G1 X129.4 Y140.43 E602.051
G1 X129.91 Y140.49 F9000
G1 X127.6 Y142.8 E602.214 F3600
G1 X125.29 Y145.11 E602.376
G1 X125.86 F9000
G1 X128.19 Y142.78 E602.541 F3600
G1 X130.52 Y140.44 E602.705
G1 X131.41 Y140.11 F9000
G1 X128.92 Y142.61 E602.882 F3600
G1 X126.42 Y145.11 E603.058
G1 X126.99 F9000
G1 X130.35 Y141.75 E603.295 F3600
G1 X133.71 Y138.39 E603.532
G1 X137.07 Y135.03 E603.769
G1 X140.43 Y131.68 E604.006
G1 X143.78 Y128.32 E604.243
G1 X147.14 Y124.96 E604.48
G1 X150.5 Y121.6 E604.717
G1 X153.86 Y118.24 E604.954
G1 Y118.8 F9000
G1 X150.57 Y122.09 E605.186 F3600
G1 X147.28 Y125.38 E605.418
G1 X143.99 Y128.67 E605.65
G1 X140.71 Y131.96 E605.882
G1 X137.42 Y135.24 E606.114
G1 X134.13 Y138.53 E606.346
G1 X130.84 Y141.82 E606.578
G1 X127.55 Y145.11 E606.81
G1 X128.12 F9000
G1 X131.34 Y141.89 E607.037 F3600
G1 X134.56 Y138.68 E607.264
G1 X137.77 Y135.46 E607.491
G1 X140.99 Y132.24 E607.718
G1 X144.21 Y129.02 E607.945
G1 X147.43 Y125.81 E608.172
G1 X150.64 Y122.59 E608.399
G1 X153.86 Y119.37 E608.626
G1 Y119.93 F9000
G1 X150.71 Y123.08 E608.848 F3600
G1 X147.57 Y126.23 E609.07
G1 X144.42 Y129.37 E609.292
G1 X141.27 Y132.52 E609.514
G1 X138.12 Y135.67 E609.736
G1 X134.98 Y138.82 E609.958
G1 X131.83 Y141.96 E610.18
G1 X128.68 Y145.11 E610.402
G1 X129.25 F9000
G1 X132.77 Y141.59 E610.65 F3600
G1 X136.28 Y138.08 E610.898
G1 X139.8 Y134.56 E611.146
G1 X143.31 Y131.05 E611.394
G1 X146.83 Y127.53 E611.642
G1 X150.34 Y124.02 E611.89
G1 X153.86 Y120.5 E612.138
G1 Y121.06 F9000
G1 X150.42 Y124.5 E612.38 F3600
G1 X146.99 Y127.93 E612.623
G1 X143.55 Y131.37 E612.865
G1 X140.12 Y134.8 E613.108
G1 X136.68 Y138.24 E613.35
G1 X133.25 Y141.67 E613.593
G1 X129.81 Y145.11 E613.835
G1 X130.38 F9000
G1 X133.73 Y141.76 E614.072 F3600
G1 X137.09 Y138.4 E614.308
G1 X140.44 Y135.05 E614.545
G1 X143.8 Y131.69 E614.781
G1 X147.15 Y128.34 E615.018
G1 X150.51 Y124.98 E615.254
G1 X153.86 Y121.63 E615.491
G1 Y122.2 F9000
G1 X150.59 Y125.47 E615.722 F3600
G1 X147.31 Y128.75 E615.953
G1 X144.04 Y132.02 E616.184
G1 X140.77 Y135.29 E616.415
G1 X137.5 Y138.56 E616.646
G1 X134.22 Y141.84 E616.877
G1 X130.95 Y145.11 E617.108
G1 X131.51 F9000
G1 X134.7 Y141.92 E617.333 F3600
G1 X137.9 Y138.72 E617.559
G1 X141.09 Y135.53 E617.784
G1 X144.28 Y132.34 E618.009
G1 X147.47 Y129.15 E618.234
G1 X150.67 Y125.95 E618.46
G1 X153.86 Y122.76 E618.685
G1 Y123.33 F9000
G1 X150.75 Y126.44 E618.905 F3600
G1 X147.64 Y129.55 E619.124
G1 X144.53 Y132.66 E619.344
G1 X141.41 Y135.78 E619.563
G1 X138.3 Y138.89 E619.783
G1 X135.19 Y142 E620.002
G1 X132.08 Y145.11 E620.222
G1 X132.64 F9000
G1 X135.67 Y142.08 E620.436 F3600
G1 X138.7 Y139.05 E620.65
G1 X141.73 Y136.02 E620.864
G1 X144.77 Y132.98 E621.077
G1 X147.8 Y129.95 E621.291
G1 X150.83 Y126.92 E621.505
G1 X153.86 Y123.89 E621.719
G1 Y124.46 F9000
G1 X150.42 Y127.9 E621.962 F3600
G1 X146.98 Y131.34 E622.204
G1 X143.54 Y134.79 E622.447
G1 X140.09 Y138.23 E622.69
G1 X136.65 Y141.67 E622.932
G1 X133.21 Y145.11 E623.175
G1 X133.77 F9000
G1 X137.12 Y141.76 E623.411 F3600
G1 X140.47 Y138.41 E623.648
G1 X143.82 Y135.07 E623.884
G1 X147.16 Y131.72 E624.12
G1 X150.51 Y128.37 E624.357
G1 X153.86 Y125.02 E624.593
G1 Y125.59 F9000
G1 X150.61 Y128.84 E624.823 F3600
G1 X147.35 Y132.1 E625.052
G1 X144.1 Y135.35 E625.282
G1 X140.85 Y138.6 E625.511
G1 X137.59 Y141.86 E625.741
G1 X134.34 Y145.11 E625.97
G1 X134.91 F9000
G1 X138.07 Y141.95 E626.193 F3600
G1 X141.23 Y138.79 E626.416
G1 X144.39 Y135.64 E626.639
G1 X147.54 Y132.48 E626.861
G1 X150.7 Y129.32 E627.084
G1 X153.86 Y126.16 E627.307
G1 Y126.72 F9000
G1 X150.8 Y129.79 E627.523 F3600
G1 X147.73 Y132.85 E627.739
G1 X144.67 Y135.92 E627.956
G1 X141.6 Y138.98 E628.172
G1 X138.54 Y142.05 E628.388
G1 X135.47 Y145.11 E628.604
G1 X136.04 F9000
G1 X139.01 Y142.14 E628.814 F3600
G1 X141.98 Y139.17 E629.023
G1 X144.95 Y136.2 E629.233
G1 X147.92 Y133.23 E629.443
G1 X150.89 Y130.26 E629.652
G1 X153.86 Y127.29 E629.862
G1 Y127.85 F9000
G1 X150.41 Y131.3 E630.105 F3600
G1 X146.96 Y134.75 E630.349
G1 X143.5 Y138.21 E630.592
G1 X140.05 Y141.66 E630.836
G1 X136.6 Y145.11 E631.079
G1 X137.17 F9000
G1 X140.51 Y141.77 E631.315 F3600
G1 X143.85 Y138.43 E631.55
G1 X147.18 Y135.1 E631.786
G1 X150.52 Y131.76 E632.021
G1 X153.86 Y128.42 E632.257
G1 Y128.98 F9000
G1 X150.63 Y132.21 E632.484 F3600
G1 X147.41 Y135.43 E632.712
G1 X144.18 Y138.66 E632.939
G1 X140.96 Y141.88 E633.167
G1 X137.73 Y145.11 E633.394
G1 X138.3 F9000
G1 X141.41 Y142 E633.614 F3600
G1 X144.52 Y138.89 E633.833
G1 X147.64 Y135.77 E634.053
G1 X150.75 Y132.66 E634.272
G1 X153.86 Y129.55 E634.492
G1 Y130.12 F9000
G1 X150.86 Y133.12 E634.704 F3600
G1 X147.86 Y136.12 E634.915
G1 X144.87 Y139.11 E635.127
G1 X141.87 Y142.11 E635.338
G1 X138.87 Y145.11 E635.55
G1 X139.43 F9000
G1 X142.32 Y142.22 E635.754 F3600
G1 X145.2 Y139.34 E635.957
G1 X148.09 Y136.45 E636.161
G1 X150.97 Y133.57 E636.364
G1 X153.86 Y130.68 E636.568
G1 Y131.25 F9000
G1 X150.4 Y134.72 E636.813 F3600
G1 X146.93 Y138.18 E637.057
G1 X143.47 Y141.65 E637.302
G1 X140 Y145.11 E637.546
G1 X140.56 F9000
G1 X143.89 Y141.79 E637.781 F3600
G1 X147.21 Y138.46 E638.015
G1 X150.54 Y135.14 E638.25
G1 X153.86 Y131.81 E638.484
G1 Y132.38 F9000
G1 X150.68 Y135.56 E638.709 F3600
G1 X147.5 Y138.75 E638.933
G1 X144.31 Y141.93 E639.158
G1 X141.13 Y145.11 E639.382
G1 X141.69 F9000
G1 X144.73 Y142.07 E639.597 F3600
G1 X147.78 Y139.03 E639.812
G1 X150.82 Y135.98 E640.026
G1 X153.86 Y132.94 E640.241
G1 Y133.51 F9000
G1 X150.96 Y136.41 E640.446 F3600
G1 X148.06 Y139.31 E640.65
G1 X145.16 Y142.21 E640.855
G1 X142.26 Y145.11 E641.059
G1 X142.82 F9000
G1 X145.58 Y142.35 E641.254 F3600
G1 X148.34 Y139.6 E641.448
G1 X151.1 Y136.84 E641.643
G1 X153.86 Y134.08 E641.837
G1 Y134.64 F9000
G1 X150.37 Y138.13 E642.083 F3600
G1 X146.88 Y141.62 E642.33
G1 X143.39 Y145.11 E642.576
G1 X143.96 F9000
G1 X147.26 Y141.81 E642.809 F3600
G1 X150.56 Y138.51 E643.042
G1 X153.86 Y135.21 E643.275
G1 Y135.77 F9000
G1 X150.75 Y138.88 E643.494 F3600
G1 X147.63 Y142 E643.714
G1 X144.52 Y145.11 E643.933
G1 X145.09 F9000
G1 X148.01 Y142.19 E644.139 F3600
G1 X150.94 Y139.26 E644.346
G1 X153.86 Y136.34 E644.552
G1 Y136.9 F9000
G1 X151.12 Y139.64 E644.745 F3600
G1 X148.39 Y142.37 E644.938
G1 X145.65 Y145.11 E645.131
G1 X146.22 F9000
G1 X148.77 Y142.56 E645.311 F3600
G1 X151.31 Y140.02 E645.49
G1 X153.86 Y137.47 E645.67
G1 Y138.04 F9000
G1 X151.5 Y140.4 E645.836 F3600
G1 X149.14 Y142.75 E646.003
G1 X146.78 Y145.11 E646.169
G1 X147.35 F9000
G1 X150.61 Y141.86 E646.399 F3600
G1 X153.86 Y138.6 E646.628
G1 Y139.17 F9000
G1 X150.89 Y142.14 E646.838 F3600
G1 X147.92 Y145.11 E647.048
G1 X148.48 F9000
G1 X151.17 Y142.42 E647.238 F3600
G1 X153.86 Y139.73 E647.427
G1 Y140.3 F9000
G1 X151.46 Y142.71 E647.597 F3600
G1 X149.05 Y145.11 E647.766
G1 X149.61 F9000
G1 X151.74 Y142.99 E647.916 F3600
G1 X153.86 Y140.86 E648.066
G1 Y141.43 F9000
G1 X150.18 Y145.11 E648.326 F3600
G1 X150.74 F9000
G1 X153.86 Y141.99 E648.545 F3600
G1 Y142.56 F9000
G1 X151.31 Y145.11 E648.725 F3600
G1 X151.88 F9000
G1 X153.86 Y143.13 E648.865 F3600
G1 Y143.69 F9000
G1 X152.44 Y145.11 E648.965 F3600
G1 X153.01 F9000
G1 X153.86 Y144.26 E649.025 F3600
G1 Y144.82 F9000
G1 X153.57 Y145.11 E649.045 F3600
G1 E646.045 F1800
G1 Z1.4
G1 Y144.96 F9000
G1 X143.63 Y141.12
G1 X133.69 Y137.27
G1 Z0.9
G1 E649.045 F1800
G1 X137.05 Y133.91 E649.282 F3600
G1 X140.41 Y130.55 E649.519
G1 X143.78 Y127.19 E649.757
G1 X147.14 Y123.82 E649.994
G1 X150.5 Y120.46 E650.231
G1 X153.86 Y117.1 E650.468
G1 Y116.54 F9000
G1 X150.55 Y119.85 E650.701 F3600
G1 X147.25 Y123.15 E650.935
G1 X143.94 Y126.46 E651.168
G1 X140.63 Y129.77 E651.401
G1 X137.33 Y133.07 E651.635
G1 X134.02 Y136.38 E651.868
G1 X134.24 Y135.59 F9000
G1 X137.51 Y132.32 E652.099 F3600
G1 X140.78 Y129.05 E652.329
G1 X144.05 Y125.78 E652.56
G1 X147.32 Y122.51 E652.791
G1 X150.59 Y119.24 E653.021
G1 X153.86 Y115.97 E653.252
G1 Y115.41 F9000
G1 X150.62 Y118.65 E653.481 F3600
G1 X147.37 Y121.9 E653.71
G1 X144.13 Y125.14 E653.939
G1 X140.89 Y128.38 E654.167
G1 X137.64 Y131.63 E654.396
G1 X134.4 Y134.87 E654.625
G1 X134.5 Y134.2 F9000
G1 X137.73 Y130.97 E654.853 F3600
G1 X140.95 Y127.75 E655.08
G1 X144.18 Y124.52 E655.308
G1 X147.41 Y121.29 E655.535
G1 X150.63 Y118.07 E655.763
G1 X153.86 Y114.84 E655.99
G1 Y114.28 F9000
G1 X150.65 Y117.49 E656.217 F3600
G1 X147.43 Y120.71 E656.444
G1 X144.22 Y123.92 E656.671
G1 X141.01 Y127.13 E656.897
G1 X137.79 Y130.35 E657.124
G1 X134.58 Y133.56 E657.351
G1 X134.63 Y132.94 F9000
G1 X137.84 Y129.74 E657.577 F3600
G1 X141.04 Y126.53 E657.803
G1 X144.25 Y123.33 E658.03
G1 X147.45 Y120.12 E658.256
G1 X150.66 Y116.92 E658.482
G1 X153.86 Y113.71 E658.708
G1 Y113.14 F9000
G1 X150.66 Y116.34 E658.934 F3600
G1 X147.45 Y119.55 E659.16
G1 X144.25 Y122.75 E659.386
G1 X141.05 Y125.95 E659.612
G1 X137.84 Y129.16 E659.838
G1 X134.64 Y132.36 E660.064
G1 X134.65 Y131.79 F9000
G1 X137.85 Y128.59 E660.29 F3600
G1 X141.05 Y125.39 E660.516
G1 X144.26 Y122.19 E660.742
G1 X147.46 Y118.98 E660.967
G1 X150.66 Y115.78 E661.193
G1 X153.86 Y112.58 E661.419
G1 Y112.01 F9000
G1 X150.65 Y115.22 E661.645 F3600
G1 X147.45 Y118.42 E661.872
G1 X144.24 Y121.63 E662.098
G1 X141.03 Y124.84 E662.324
G1 X137.83 Y128.04 E662.551
G1 X134.62 Y131.25 E662.777
G1 X134.59 Y130.72 F9000
G1 X137.8 Y127.51 E663.004 F3600
G1 X141.01 Y124.3 E663.23
G1 X144.23 Y121.09 E663.457
G1 X147.44 Y117.87 E663.683
G1 X150.65 Y114.66 E663.91
G1 X153.86 Y111.45 E664.136
G1 Y110.88 F9000
G1 X150.64 Y114.1 E664.363 F3600
G1 X147.42 Y117.32 E664.591
G1 X144.2 Y120.55 E664.818
G1 X140.97 Y123.77 E665.045
G1 X137.75 Y126.99 E665.273
G1 X134.53 Y130.21 E665.5
G1 X134.46 Y129.71 F9000
G1 X137.69 Y126.48 E665.728 F3600
G1 X140.93 Y123.25 E665.956
G1 X144.16 Y120.02 E666.184
G1 X147.39 Y116.78 E666.412
G1 X150.63 Y113.55 E666.64
G1 X153.86 Y110.32 E666.868
G1 X153.59 Y110.02 F9000
G1 X150.39 Y113.22 E667.094 F3600
G1 X147.19 Y116.42 E667.32
G1 X143.99 Y119.63 E667.546
G1 X140.78 Y122.83 E667.772
G1 X137.58 Y126.03 E667.998
G1 X134.38 Y129.23 E668.224
G1 X134.28 Y128.76 F9000
G1 X137.41 Y125.64 E668.445 F3600
G1 X140.53 Y122.51 E668.665
G1 X143.66 Y119.39 E668.886
G1 X146.78 Y116.27 E669.106
G1 X149.91 Y113.14 E669.327
G1 X153.03 Y110.02 E669.547
G1 X152.46 F9000
G1 X149.41 Y113.07 E669.762 F3600
G1 X146.36 Y116.12 E669.977
G1 X143.32 Y119.17 E670.193
G1 X140.27 Y122.21 E670.408
G1 X137.22 Y125.26 E670.623
G1 X134.17 Y128.31 E670.838
G1 X134.04 Y127.87 F9000
G1 X137.02 Y124.9 E671.048 F3600
G1 X139.99 Y121.92 E671.258
G1 X142.97 Y118.95 E671.468
G1 X145.95 Y115.97 E671.678
G1 X148.92 Y113 E671.888
G1 X151.9 Y110.02 E672.098
G1 X151.33 F9000
G1 X147.84 Y113.51 E672.344 F3600
G1 X144.36 Y116.99 E672.59
G1 X140.87 Y120.48 E672.836
G1 X137.39 Y123.96 E673.082
G1 X133.9 Y127.45 E673.328
G1 X133.74 Y127.04 F9000
G1 X137.15 Y123.64 E673.568 F3600
G1 X140.55 Y120.23 E673.808
G1 X143.96 Y116.83 E674.049
G1 X147.36 Y113.42 E674.289
G1 X150.77 Y110.02 E674.529
G1 X150.2 F9000
G1 X146.87 Y113.34 E674.764 F3600
G1 X143.55 Y116.67 E674.998
G1 X140.22 Y119.99 E675.233
G1 X136.9 Y123.32 E675.467
G1 X133.57 Y126.64 E675.702
G1 X133.38 Y126.27 F9000
G1 X136.63 Y123.02 E675.931 F3600
G1 X139.88 Y119.77 E676.161
G1 X143.13 Y116.52 E676.39
G1 X146.38 Y113.27 E676.62
G1 X149.63 Y110.02 E676.849
G1 X149.07 F9000
G1 X145.89 Y113.2 E677.073 F3600
G1 X142.71 Y116.37 E677.297
G1 X139.54 Y119.55 E677.522
G1 X136.36 Y122.72 E677.746
G1 X133.18 Y125.9 E677.97
G1 X132.96 Y125.56 F9000
G1 X136.07 Y122.45 E678.189 F3600
G1 X139.18 Y119.34 E678.409
G1 X142.28 Y116.24 E678.628
G1 X145.39 Y113.13 E678.848
G1 X148.5 Y110.02 E679.067
G1 X147.94 F9000
G1 X144.9 Y113.06 E679.282 F3600
G1 X141.85 Y116.1 E679.497
G1 X138.81 Y119.15 E679.711
G1 X135.76 Y122.19 E679.926
G1 X132.72 Y125.23 E680.141
G1 X132.46 Y124.93 F9000
G1 X135.44 Y121.95 E680.351 F3600
G1 X138.42 Y118.97 E680.562
G1 X141.41 Y115.98 E680.772
G1 X144.39 Y113 E680.983
G1 X147.37 Y110.02 E681.193
G1 X146.81 F9000
G1 X143.88 Y112.94 E681.399 F3600
G1 X140.96 Y115.87 E681.606
G1 X138.03 Y118.79 E681.812
G1 X135.11 Y121.72 E682.019
G1 X132.18 Y124.64 E682.225
G1 X131.87 Y124.39 F9000
G1 X134.74 Y121.52 E682.428 F3600
G1 X137.62 Y118.64 E682.631
G1 X140.49 Y115.77 E682.833
G1 X143.37 Y112.89 E683.036
G1 X146.24 Y110.02 E683.239
G1 X145.67 F9000
G1 X142.14 Y113.56 E683.489 F3600
G1 X138.6 Y117.09 E683.738
G1 X135.07 Y120.63 E683.988
G1 X131.53 Y124.16 E684.237
G1 X131.53 Y110.02 F9000
G1 X128.21 Y113.34 E684.472 F3600
G1 X124.88 Y116.67 E684.706
G1 X121.56 Y119.99 E684.941
G1 X118.24 Y123.32 E685.175
G1 X114.91 Y126.64 E685.41
G1 X111.59 Y129.96 E685.644
G1 X108.26 Y133.29 E685.879
G1 X104.94 Y136.61 E686.113
G1 Y136.04 F9000
G1 X108.19 Y132.79 E686.343 F3600
G1 X111.45 Y129.54 E686.572
G1 X114.7 Y126.28 E686.802
G1 X117.96 Y123.03 E687.032
G1 X121.21 Y119.78 E687.261
G1 X124.46 Y116.53 E687.491
G1 X127.72 Y113.27 E687.72
G1 X130.97 Y110.02 E687.95
G1 X130.4 F9000
G1 X127.22 Y113.2 E688.175 F3600
G1 X124.04 Y116.39 E688.399
G1 X120.85 Y119.57 E688.624
G1 X117.67 Y122.75 E688.848
G1 X114.49 Y125.93 E689.073
G1 X111.31 Y129.12 E689.297
G1 X108.12 Y132.3 E689.522
G1 X104.94 Y135.48 E689.746
G1 Y134.91 F9000
G1 X108.05 Y131.8 E689.966 F3600
G1 X111.17 Y128.69 E690.185
G1 X114.28 Y125.58 E690.405
G1 X117.39 Y122.47 E690.625
G1 X120.5 Y119.35 E690.844
G1 X123.62 Y116.24 E691.064
G1 X126.73 Y113.13 E691.283
G1 X129.84 Y110.02 E691.503
G1 X129.27 Y110.01 F9000
G1 X125.79 Y113.49 E691.748 F3600
G1 X122.32 Y116.96 E691.994
G1 X118.84 Y120.44 E692.239
G1 X115.37 Y123.92 E692.484
G1 X111.89 Y127.4 E692.729
G1 X108.42 Y130.87 E692.975
G1 X104.94 Y134.35 E693.22
G1 Y133.78 F9000
G1 X108.33 Y130.38 E693.459 F3600
G1 X111.73 Y126.99 E693.699
G1 X115.12 Y123.59 E693.938
G1 X118.52 Y120.2 E694.178
G1 X121.91 Y116.8 E694.417
G1 X125.31 Y113.41 E694.657
G1 X128.7 Y110.01 E694.896
G1 X128.14 F9000
G1 X124.83 Y113.32 E695.13 F3600
G1 X121.51 Y116.64 E695.364
G1 X118.2 Y119.95 E695.598
G1 X114.88 Y123.27 E695.831
G1 X111.57 Y126.58 E696.065
G1 X108.25 Y129.9 E696.299
G1 X104.94 Y133.21 E696.533
G1 Y132.65 F9000
G1 X108.17 Y129.42 E696.761 F3600
G1 X111.41 Y126.18 E696.989
G1 X114.64 Y122.95 E697.217
G1 X117.87 Y119.71 E697.446
G1 X121.1 Y116.48 E697.674
G1 X124.34 Y113.24 E697.902
G1 X127.57 Y110.01 E698.13
G1 X127.01 F9000
G1 X123.86 Y113.16 E698.352 F3600
G1 X120.7 Y116.32 E698.575
G1 X117.55 Y119.47 E698.797
G1 X114.4 Y122.62 E699.02
G1 X111.25 Y125.77 E699.242
G1 X108.09 Y128.93 E699.465
G1 X104.94 Y132.08 E699.687
G1 Y131.52 F9000
G1 X108.01 Y128.45 E699.904 F3600
G1 X111.08 Y125.37 E700.121
G1 X114.15 Y122.3 E700.338
G1 X117.23 Y119.23 E700.554
G1 X120.3 Y116.16 E700.771
G1 X123.37 Y113.08 E700.988
G1 X126.44 Y110.01 E701.205
G1 X125.88 F9000
G1 X122.39 Y113.5 E701.451 F3600
G1 X118.9 Y116.99 E701.697
G1 X115.41 Y120.48 E701.944
G1 X111.92 Y123.97 E702.19
G1 X108.43 Y127.46 E702.436
G1 X104.94 Y130.95 E702.682
G1 Y130.39 F9000
G1 X108.34 Y126.99 E702.922 F3600
G1 X111.73 Y123.6 E703.161
G1 X115.13 Y120.2 E703.401
G1 X118.52 Y116.8 E703.64
G1 X121.92 Y113.41 E703.88
G1 X125.31 Y110.01 E704.119
G1 X124.74 F9000
G1 X121.44 Y113.31 E704.352 F3600
G1 X118.14 Y116.61 E704.585
G1 X114.84 Y119.92 E704.818
G1 X111.54 Y123.22 E705.051
G1 X108.24 Y126.52 E705.284
G1 X104.94 Y129.82 E705.517
G1 Y129.25 F9000
G1 X108.15 Y126.04 E705.743 F3600
G1 X111.35 Y122.84 E705.969
G1 X114.56 Y119.63 E706.196
G1 X117.77 Y116.42 E706.422
G1 X120.97 Y113.22 E706.648
G1 X124.18 Y110.01 E706.874
G1 X123.61 F9000
G1 X120.5 Y113.12 E707.094 F3600
G1 X117.39 Y116.24 E707.313
G1 X114.28 Y119.35 E707.533
G1 X111.16 Y122.46 E707.753
G1 X108.05 Y125.58 E707.972
G1 X104.94 Y128.69 E708.192
G1 Y128.12 F9000
G1 X107.96 Y125.1 E708.405 F3600
G1 X110.98 Y122.08 E708.618
G1 X114 Y119.07 E708.831
G1 X117.01 Y116.05 E709.043
G1 X120.03 Y113.03 E709.256
G1 X123.05 Y110.01 E709.469
G1 X122.48 F9000
G1 X118.97 Y113.52 E709.717 F3600
G1 X115.46 Y117.03 E709.964
G1 X111.96 Y120.54 E710.212
G1 X108.45 Y124.05 E710.459
G1 X104.94 Y127.56 E710.707
G1 Y126.99 F9000
G1 X108.34 Y123.59 E710.947 F3600
G1 X111.73 Y120.2 E711.186
G1 X115.13 Y116.8 E711.426
G1 X118.52 Y113.41 E711.665
G1 X121.92 Y110.01 E711.905
G1 X121.35 F9000
G1 X118.07 Y113.29 E712.137 F3600
G1 X114.79 Y116.58 E712.368
G1 X111.5 Y119.86 E712.6
G1 X108.22 Y123.15 E712.831
G1 X104.94 Y126.43 E713.063
G1 Y125.86 F9000
G1 X108.11 Y122.69 E713.287 F3600
G1 X111.28 Y119.52 E713.51
G1 X114.45 Y116.35 E713.734
G1 X117.62 Y113.18 E713.957
G1 X120.79 Y110.01 E714.181
G1 X120.22 F9000
G1 X117.16 Y113.07 E714.397 F3600
G1 X114.11 Y116.13 E714.612
G1 X111.05 Y119.18 E714.828
G1 X108 Y122.24 E715.043
G1 X104.94 Y125.3 E715.259
G1 Y124.73 F9000
G1 X107.88 Y121.79 E715.467 F3600
G1 X110.82 Y118.84 E715.674
G1 X113.77 Y115.9 E715.882
G1 X116.71 Y112.95 E716.089
G1 X119.65 Y110.01 E716.297
G1 X119.09 F9000
G1 X116.26 Y112.84 E716.497 F3600
G1 X113.43 Y115.67 E716.697
G1 X110.6 Y118.5 E716.896
G1 X107.77 Y121.33 E717.096
G1 X104.94 Y124.16 E717.296
G1 Y123.6 F9000
G1 X108.34 Y120.2 E717.536 F3600
G1 X111.73 Y116.81 E717.775
G1 X115.13 Y113.41 E718.015
G1 X118.52 Y110.01 E718.254
G1 X117.96 F9000
G1 X114.71 Y113.27 E718.484 F3600
G1 X111.45 Y116.52 E718.714
G1 X108.2 Y119.78 E718.943
G1 X104.94 Y123.03 E719.173
G1 Y122.47 F9000
G1 X108.05 Y119.36 E719.393 F3600
G1 X111.17 Y116.24 E719.612
G1 X114.28 Y113.13 E719.832
G1 X117.39 Y110.01 E720.051
G1 X116.83 F9000
G1 X113.86 Y112.98 E720.261 F3600
G1 X110.89 Y115.96 E720.471
G1 X107.91 Y118.93 E720.68
G1 X104.94 Y121.9 E720.89
G1 Y121.34 F9000
G1 X107.77 Y118.51 E721.09 F3600
G1 X110.6 Y115.68 E721.29
G1 X113.43 Y112.84 E721.489
G1 X116.26 Y110.01 E721.689
G1 X115.69 F9000
G1 X113 Y112.7 E721.879 F3600
G1 X110.32 Y115.39 E722.069
G1 X107.63 Y118.08 E722.258
G1 X104.94 Y120.77 E722.448
G1 Y120.2 F9000
G1 X108.34 Y116.8 E722.687 F3600
G1 X111.73 Y113.41 E722.927
G1 X115.13 Y110.01 E723.166
G1 X114.56 F9000
G1 X111.35 Y113.22 E723.393 F3600
G1 X108.15 Y116.43 E723.619
G1 X104.94 Y119.64 E723.846
G1 Y119.07 F9000
G1 X107.96 Y116.05 E724.059 F3600
G1 X110.98 Y113.03 E724.272
G1 X114 Y110.01 E724.485
G1 X113.43 F9000
G1 X110.6 Y112.84 E724.685 F3600
G1 X107.77 Y115.68 E724.884
G1 X104.94 Y118.51 E725.084
G1 Y117.94 F9000
G1 X107.58 Y115.3 E725.27 F3600
G1 X110.23 Y112.65 E725.457
G1 X112.87 Y110.01 E725.643
G1 X112.3 F9000
G1 X109.85 Y112.47 E725.816 F3600
G1 X107.39 Y114.92 E725.989
G1 X104.94 Y117.38 E726.162
G1 Y116.81 F9000
G1 X108.34 Y113.41 E726.402 F3600
G1 X111.73 Y110.01 E726.642
G1 X111.17 F9000
G1 X108.06 Y113.13 E726.862 F3600
G1 X104.94 Y116.24 E727.081
G1 Y115.68 F9000
G1 X107.77 Y112.85 E727.281 F3600
G1 X110.6 Y110.01 E727.481
G1 X110.04 F9000
G1 X107.49 Y112.56 E727.661 F3600
G1 X104.94 Y115.11 E727.841
G1 Y114.55 F9000
G1 X107.21 Y112.28 E728.001 F3600
G1 X109.47 Y110.01 E728.161
G1 X108.91 F9000
G1 X104.94 Y113.98 E728.441 F3600
G1 Y113.42 F9000
G1 X108.34 Y110.01 E728.681 F3600
G1 X107.77 F9000
G1 X104.94 Y112.85 E728.881 F3600
G1 Y112.28 F9000
G1 X107.21 Y110.01 E729.041 F3600
G1 X106.64 F9000
G1 X104.94 Y111.72 E729.161 F3600
G1 Y111.15 F9000
G1 X106.08 Y110.01 E729.241 F3600
G1 X105.51 F9000
G1 X104.94 Y110.59 E729.282 F3600
G1 Y110.02 F9000
G1 X104.95 Y110.01 E729.282 F3600
G1 E726.282 F1800
G1 Z1.4
G1 X114 Y110.01 F9000
G1 X123.05 Y110.02
G1 X132.1 Y110.02
G1 Z0.9
G1 E729.282 F1800
G1 X128.71 Y113.41 E729.522 F3600
G1 X125.31 Y116.81 E729.761
G1 X121.92 Y120.2 E730.001
G1 X118.52 Y123.6 E730.241
G1 X115.13 Y126.99 E730.48
G1 X111.73 Y130.38 E730.72
G1 X108.34 Y133.78 E730.959
G1 X104.94 Y137.17 E731.199
G1 Y137.74 F9000
G1 X108.41 Y134.28 E731.444 F3600
G1 X111.87 Y130.81 E731.688
G1 X115.34 Y127.35 E731.933
G1 X118.8 Y123.88 E732.177
G1 X122.27 Y120.42 E732.422
G1 X125.73 Y116.95 E732.666
G1 X129.2 Y113.49 E732.911
G1 X132.66 Y110.02 E733.155
G1 X133.23 F9000
G1 X130.09 Y113.16 E733.377 F3600
G1 X126.94 Y116.31 E733.599
G1 X123.8 Y119.45 E733.82
G1 X120.66 Y122.59 E734.042
G1 X117.51 Y125.74 E734.264
G1 X114.37 Y128.88 E734.486
G1 X111.23 Y132.02 E734.707
G1 X108.08 Y135.17 E734.929
G1 X104.94 Y138.31 E735.151
G1 Y138.87 F9000
G1 X108.15 Y135.66 E735.377 F3600
G1 X111.35 Y132.46 E735.603
G1 X114.56 Y129.25 E735.83
G1 X117.77 Y126.05 E736.056
G1 X120.97 Y122.84 E736.282
G1 X124.18 Y119.64 E736.508
G1 X127.39 Y116.43 E736.735
G1 X130.59 Y113.23 E736.961
G1 X133.8 Y110.02 E737.187
G1 X134.36 F9000
G1 X131.09 Y113.29 E737.418 F3600
G1 X127.82 Y116.56 E737.648
G1 X124.55 Y119.83 E737.879
G1 X121.28 Y123.1 E738.11
G1 X118.02 Y126.36 E738.34
G1 X114.75 Y129.63 E738.571
G1 X111.48 Y132.9 E738.802
G1 X108.21 Y136.17 E739.032
G1 X104.94 Y139.44 E739.263
G1 Y140 F9000
G1 X108.27 Y136.67 E739.498 F3600
G1 X111.6 Y133.34 E739.733
G1 X114.94 Y130.01 E739.968
G1 X118.27 Y126.68 E740.203
G1 X121.6 Y123.34 E740.438
G1 X124.93 Y120.01 E740.673
G1 X128.27 Y116.68 E740.908
G1 X131.6 Y113.35 E741.143
G1 X134.93 Y110.02 E741.378
G1 X135.49 F9000
G1 X132.1 Y113.41 E741.618 F3600
G1 X128.7 Y116.81 E741.857
G1 X125.31 Y120.2 E742.097
G1 X121.91 Y123.6 E742.336
G1 X118.52 Y126.99 E742.576
G1 X115.12 Y130.39 E742.815
G1 X111.73 Y133.78 E743.055
G1 X108.33 Y137.18 E743.294
G1 X104.94 Y140.57 E743.534
G1 Y141.13 F9000
G1 X108.4 Y137.67 E743.778 F3600
G1 X111.86 Y134.22 E744.022
G1 X115.31 Y130.76 E744.266
G1 X118.77 Y127.3 E744.51
G1 X122.23 Y123.85 E744.754
G1 X125.69 Y120.39 E744.998
G1 X129.14 Y116.93 E745.242
G1 X132.6 Y113.48 E745.486
G1 X136.06 Y110.02 E745.73
G1 X136.62 F9000
G1 X133.1 Y113.54 E745.978 F3600
G1 X129.58 Y117.06 E746.227
G1 X126.06 Y120.58 E746.475
G1 X122.54 Y124.1 E746.723
G1 X119.02 Y127.62 E746.972
G1 X115.5 Y131.14 E747.22
G1 X111.98 Y134.66 E747.468
G1 X108.46 Y138.18 E747.717
G1 X104.94 Y141.7 E747.965
G1 Y142.27 F9000
G1 X108.17 Y139.05 E748.193 F3600
G1 X111.39 Y135.82 E748.42
G1 X114.62 Y132.6 E748.648
G1 X117.84 Y129.37 E748.875
G1 X121.07 Y126.15 E749.103
G1 X124.29 Y122.92 E749.331
G1 X127.52 Y119.7 E749.558
G1 X130.74 Y116.47 E749.786
G1 X133.97 Y113.25 E750.013
G1 X137.19 Y110.02 E750.241
G1 X137.76 F9000
G1 X134.48 Y113.3 E750.473 F3600
G1 X131.2 Y116.58 E750.704
G1 X127.91 Y119.86 E750.936
G1 X124.63 Y123.14 E751.167
G1 X121.35 Y126.43 E751.399
G1 X118.07 Y129.71 E751.63
G1 X114.79 Y132.99 E751.862
G1 X111.5 Y136.27 E752.093
G1 X108.22 Y139.55 E752.325
G1 X104.94 Y142.83 E752.556
G1 Y143.4 F9000
G1 X108.28 Y140.06 E752.792 F3600
G1 X111.62 Y136.72 E753.027
G1 X114.95 Y133.39 E753.263
G1 X118.29 Y130.05 E753.498
G1 X121.63 Y126.71 E753.734
G1 X124.97 Y123.37 E753.969
G1 X128.31 Y120.03 E754.205
G1 X131.64 Y116.7 E754.44
G1 X134.98 Y113.36 E754.676
G1 X138.32 Y110.02 E754.911
G1 X138.89 F9000
G1 X135.5 Y113.41 E755.151 F3600
G1 X132.1 Y116.81 E755.39
G1 X128.71 Y120.2 E755.63
G1 X125.31 Y123.6 E755.869
G1 X121.92 Y126.99 E756.109
G1 X118.52 Y130.38 E756.348
G1 X115.13 Y133.78 E756.588
G1 X111.73 Y137.17 E756.827
G1 X108.34 Y140.57 E757.067
G1 X104.94 Y143.96 E757.306
G1 Y144.53 F9000
G1 X108.39 Y141.08 E757.55 F3600
G1 X111.84 Y137.63 E757.793
G1 X115.29 Y134.18 E758.037
G1 X118.74 Y130.73 E758.28
G1 X122.2 Y127.28 E758.524
G1 X125.65 Y123.82 E758.768
G1 X129.1 Y120.37 E759.011
G1 X132.55 Y116.92 E759.255
G1 X136 Y113.47 E759.498
G1 X139.45 Y110.02 E759.742
G1 X140.02 F9000
G1 X136.51 Y113.53 E759.99 F3600
G1 X133 Y117.03 E760.237
G1 X129.5 Y120.54 E760.485
G1 X125.99 Y124.05 E760.732
G1 X122.48 Y127.56 E760.98
G1 X118.97 Y131.06 E761.227
G1 X115.46 Y134.57 E761.475
G1 X111.96 Y138.08 E761.722
G1 X108.45 Y141.58 E761.97
G1 X104.94 Y145.09 E762.217
G1 X105.49 Y145.11 F9000
G1 X109 Y141.6 E762.465 F3600
G1 X112.51 Y138.09 E762.712
G1 X116.02 Y134.58 E762.96
G1 X119.53 Y131.07 E763.207
G1 X123.04 Y127.57 E763.455
G1 X126.54 Y124.06 E763.703
G1 X130.05 Y120.55 E763.95
G1 X133.56 Y117.04 E764.198
G1 X137.07 Y113.53 E764.445
G1 X140.58 Y110.02 E764.693
G1 X141.15 F9000
G1 X137.64 Y113.53 E764.941 F3600
G1 X134.13 Y117.04 E765.188
G1 X130.62 Y120.55 E765.436
G1 X127.11 Y124.06 E765.683
G1 X123.61 Y127.57 E765.931
G1 X120.1 Y131.07 E766.179
G1 X116.59 Y134.58 E766.426
G1 X113.08 Y138.09 E766.674
G1 X109.57 Y141.6 E766.921
G1 X106.06 Y145.11 E767.169
G1 X106.62 F9000
G1 X110.13 Y141.6 E767.417 F3600
G1 X113.64 Y138.09 E767.664
G1 X117.15 Y134.58 E767.912
G1 X120.66 Y131.07 E768.159
G1 X124.17 Y127.57 E768.407
G1 X127.67 Y124.06 E768.655
G1 X131.18 Y120.55 E768.902
G1 X134.69 Y117.04 E769.15
G1 X138.2 Y113.53 E769.397
G1 X141.71 Y110.02 E769.645
G1 X153.86 Y117.67 F9000
G1 X150.4 Y121.13 E769.889 F3600
G1 X146.94 Y124.59 E770.133
G1 X143.48 Y128.05 E770.377
G1 X140.02 Y131.51 E770.621
G1 X136.56 Y134.97 E770.865
G1 X133.1 Y138.43 E771.109
G1 E768.109 F1800
G1 Z1.4
G1 X130.41 Y140.41 F9000
G1 X130.06 Y139.56
G1 X130.15 Y140.15
G1 X131.95 Y152.95
G1 X132.4 Y153.86
G1 X132.31 Y153.55
; TYPE:WALL-INNER
G1 Z0.9
G1 E771.109 F1800
G1 X136.69 E771.327 F3600
G1 X141.07 E771.546
G1 X145.44 E771.764
G1 X149.82 E771.983
G1 X154.2 E772.201
G1 Y156.95 E772.371
G1 Y160.35 E772.541
G1 X149.24 E772.788
G1 X144.28 E773.036
G1 X139.32 E773.283
G1 X134.36 E773.531
G1 X129.4 E773.778
G1 X124.44 E774.025
G1 X119.48 E774.273
G1 X114.52 E774.52
G1 X109.56 E774.768
G1 X104.6 E775.015
G1 Y156.95 E775.185
G1 Y153.55 E775.355
G1 X109.04 E775.576
G1 X113.48 E775.798
G1 X117.93 E776.019
G1 X122.37 E776.241
G1 X126.81 E776.462
G1 X126.91 Y153.74 E776.473
G1 X127.15 Y154.12 E776.495
G1 X127.4 Y154.46 E776.517
G1 X127.67 Y154.77 E776.537
G1 X127.96 Y155.04 E776.557
G1 X128.28 Y155.28 E776.577
G1 X128.64 Y155.48 E776.597
G1 X129.02 Y155.62 E776.618
G1 X129.42 Y155.68 E776.638
G1 X129.82 Y155.67 E776.658
G1 X130.21 Y155.58 E776.678
G1 X130.59 Y155.43 E776.698
G1 X130.95 Y155.21 E776.719
G1 X131.37 Y154.86 E776.746
G1 X131.66 Y154.54 E776.768
G1 X131.93 Y154.18 E776.79
G1 X132.18 Y153.78 E776.814
G1 X132.29 Y153.59 E776.825
G1 X132.31 Y153.55
