; generated by Slic3r 1.3.0 on 2019-05-14 at 11:45:51

; external perimeters extrusion width = 0.55mm (4.37mm^3/s)
; perimeters extrusion width = 0.70mm (11.44mm^3/s)
; infill extrusion width = 0.62mm (13.45mm^3/s)
; solid infill extrusion width = 0.70mm (3.81mm^3/s)
; top infill extrusion width = 0.70mm (2.86mm^3/s)

M107
M104 S200 ; set temperature
G28 ; home all axes
G1 Z5 F5000 ; lift nozzle

; Filament gcode

M109 S200 ; set temperature and wait for it to be reached
G21 ; set units to millimeters
G90 ; use absolute coordinates
M82 ; use absolute distances for extrusion
G92 E0
G1 Z0.350 F7800.000
G1 E-2.00000 F2400.00000
G92 E0
G1 X91.148 Y45.326 F7800.000
G1 E2.00000 F2400.00000
G1 F1800
G1 X92.212 Y43.295 E2.07096
G1 X93.393 Y42.109 E2.12273
G1 X93.801 Y41.792 E2.13874
G1 X95.523 Y40.826 E2.19982
G1 X96.514 Y40.518 E2.23194
G1 X97.525 Y40.288 E2.26401
G1 X98.493 Y40.142 E2.29431
G1 X99.681 Y40.070 E2.33112
G1 X100.319 Y40.070 E2.35089
G1 X101.507 Y40.142 E2.38769
G1 X102.475 Y40.288 E2.41799
G1 X103.486 Y40.518 E2.45006
G1 X104.477 Y40.826 E2.48219
G1 X106.199 Y41.792 E2.54326
G1 X106.607 Y42.109 E2.55928
G1 X108.147 Y43.809 E2.63024
G1 X108.852 Y45.326 E2.68200
G1 X108.904 Y45.487 E2.68723
G1 X109.217 Y47.500 E2.75026
G1 X109.217 Y113.500 E4.79238
G1 X109.087 Y114.802 E4.83288
G1 X108.884 Y115.815 E4.86485
G1 X108.063 Y117.932 E4.93510
G1 X107.690 Y118.551 E4.95744
G1 X106.694 Y119.822 E5.00740
G1 X106.301 Y120.214 E5.02458
G1 X105.016 Y121.213 E5.07495
G1 X104.399 Y121.581 E5.09720
G1 X102.298 Y122.389 E5.16683
G1 X101.293 Y122.589 E5.19855
G1 X98.707 Y122.589 E5.27855
G1 X97.702 Y122.389 E5.31027
G1 X95.601 Y121.582 E5.37990
G1 X94.984 Y121.213 E5.40216
G1 X93.699 Y120.214 E5.45252
G1 X93.306 Y119.822 E5.46970
G1 X92.310 Y118.551 E5.51967
G1 X91.937 Y117.932 E5.54201
G1 X91.116 Y115.815 E5.61226
G1 X90.913 Y114.802 E5.64422
G1 X90.783 Y113.500 E5.68472
G1 X90.783 Y47.500 E7.72685
G1 X91.097 Y45.487 E7.78987
G1 X91.125 Y45.398 E7.79278
G1 E5.79278 F2400.00000
G92 E0
G1 X100.778 Y48.336 F7800.000
G1 E2.00000 F2400.00000
G1 F1800
G1 X100.992 Y48.385 E2.00679
G1 X100.992 Y113.341 E4.01662
G1 X100.875 Y113.926 E4.03506
G1 X100.747 Y114.137 E4.04271
G1 X100.633 Y114.251 E4.04768
G1 X100.423 Y114.376 E4.05527
G1 X100.000 Y114.461 E4.06861
G1 X99.577 Y114.376 E4.08194
G1 X99.367 Y114.251 E4.08953
G1 X99.253 Y114.137 E4.09450
G1 X99.125 Y113.926 E4.10215
G1 X99.008 Y113.341 E4.12060
G1 X99.008 Y48.385 E6.13042
G1 X99.215 Y48.338 E6.13698
G1 X100.078 Y48.294 E6.16372
G1 X100.703 Y48.332 E6.18310
G1 X101.617 Y47.886 F7800.000
G1 F1800
G1 X101.617 Y113.403 E8.21028
G1 X101.466 Y114.155 E8.23400
G1 X101.243 Y114.526 E8.24739
G1 X101.020 Y114.748 E8.25713
G1 X100.650 Y114.968 E8.27044
G1 X100.000 Y115.098 E8.29096
G1 X99.350 Y114.968 E8.31148
G1 X98.980 Y114.748 E8.32479
G1 X98.757 Y114.526 E8.33453
G1 X98.534 Y114.155 E8.34792
G1 X98.383 Y113.403 E8.37164
G1 X98.383 Y47.886 E10.39882
G1 X99.129 Y47.717 E10.42247
G1 X100.081 Y47.668 E10.45197
G1 X100.867 Y47.716 E10.47634
G1 X101.544 Y47.870 E10.49782
G1 X102.242 Y47.550 F7800.000
G1 F1800
G1 X102.242 Y113.465 E12.53732
G1 X102.057 Y114.384 E12.56632
G1 X101.738 Y114.914 E12.58545
G1 X101.406 Y115.245 E12.59995
G1 X100.878 Y115.560 E12.61900
G1 X100.000 Y115.735 E12.64669
G1 X99.122 Y115.560 E12.67439
G1 X98.594 Y115.245 E12.69343
G1 X98.262 Y114.914 E12.70794
G1 X97.943 Y114.384 E12.72706
G1 X97.758 Y113.465 E12.75607
G1 X97.758 Y47.550 E14.79557
G1 X98.085 Y47.313 E14.80806
G1 X99.043 Y47.096 E14.83844
G1 X100.084 Y47.042 E14.87069
G1 X100.956 Y47.095 E14.89772
G1 X101.915 Y47.313 E14.92816
G1 X102.183 Y47.504 E14.93833
G1 X101.907 Y47.922 F7800.000
G1 E12.93833 F2400.00000
G92 E0
G1 X99.876 Y48.699 F7800.000
G1 E2.00000 F2400.00000
G1 F1800
G1 X99.390 Y49.186 E2.02129
G1 X99.390 Y50.070 E2.04865
G1 X100.610 Y48.850 E2.10207
G1 X100.610 Y49.734 E2.12944
G1 X99.390 Y50.954 E2.18286
G1 X99.390 Y51.838 E2.21023
G1 X100.610 Y50.618 E2.26365
G1 X100.610 Y51.502 E2.29101
G1 X99.390 Y52.722 E2.34443
G1 X99.390 Y53.606 E2.37180
G1 X100.610 Y52.386 E2.42522
G1 X100.610 Y53.270 E2.45259
G1 X99.390 Y54.490 E2.50600
G1 X99.390 Y55.374 E2.53337
G1 X100.610 Y54.154 E2.58679
G1 X100.610 Y55.038 E2.61416
G1 X99.390 Y56.259 E2.66758
G1 X99.390 Y57.143 E2.69495
G1 X100.610 Y55.923 E2.74836
G1 X100.610 Y56.807 E2.77573
G1 X99.390 Y58.027 E2.82915
G1 X99.390 Y58.911 E2.85652
G1 X100.610 Y57.691 E2.90994
G1 X100.610 Y58.575 E2.93730
G1 X99.390 Y59.795 E2.99072
G1 X99.390 Y60.679 E3.01809
G1 X100.610 Y59.459 E3.07151
G1 X100.610 Y60.343 E3.09888
G1 X99.390 Y61.563 E3.15230
G1 X99.390 Y62.447 E3.17966
G1 X100.610 Y61.227 E3.23308
G1 X100.610 Y62.111 E3.26045
G1 X99.390 Y63.332 E3.31387
G1 X99.390 Y64.216 E3.34124
G1 X100.610 Y62.995 E3.39465
G1 X100.610 Y63.880 E3.42202
G1 X99.390 Y65.100 E3.47544
G1 X99.390 Y65.984 E3.50281
G1 X100.610 Y64.764 E3.55623
G1 X100.610 Y65.648 E3.58359
G1 X99.390 Y66.868 E3.63701
G1 X99.390 Y67.752 E3.66438
G1 X100.610 Y66.532 E3.71780
G1 X100.610 Y67.416 E3.74517
G1 X99.390 Y68.636 E3.79859
G1 X99.390 Y69.520 E3.82595
G1 X100.610 Y68.300 E3.87937
G1 X100.610 Y69.184 E3.90674
G1 X99.390 Y70.405 E3.96016
G1 X99.390 Y71.289 E3.98753
G1 X100.610 Y70.068 E4.04094
G1 X100.610 Y70.953 E4.06831
G1 X99.390 Y72.173 E4.12173
G1 X99.390 Y73.057 E4.14910
G1 X100.610 Y71.837 E4.20252
G1 X100.610 Y72.721 E4.22988
G1 X99.390 Y73.941 E4.28330
G1 X99.390 Y74.825 E4.31067
G1 X100.610 Y73.605 E4.36409
G1 X100.610 Y74.489 E4.39146
G1 X99.390 Y75.709 E4.44488
G1 X99.390 Y76.593 E4.47224
G1 X100.610 Y75.373 E4.52566
G1 X100.610 Y76.257 E4.55303
G1 X99.390 Y77.478 E4.60645
G1 X99.390 Y78.362 E4.63382
G1 X100.610 Y77.141 E4.68723
G1 X100.610 Y78.026 E4.71460
G1 X99.390 Y79.246 E4.76802
G1 X99.390 Y80.130 E4.79539
G1 X100.610 Y78.910 E4.84881
G1 X100.610 Y79.794 E4.87618
G1 X99.390 Y81.014 E4.92959
G1 X99.390 Y81.898 E4.95696
G1 X100.610 Y80.678 E5.01038
G1 X100.610 Y81.562 E5.03775
G1 X99.390 Y82.782 E5.09117
G1 X99.390 Y83.666 E5.11853
G1 X100.610 Y82.446 E5.17195
G1 X100.610 Y83.330 E5.19932
G1 X99.390 Y84.551 E5.25274
G1 X99.390 Y85.435 E5.28011
G1 X100.610 Y84.214 E5.33352
G1 X100.610 Y85.099 E5.36089
G1 X99.390 Y86.319 E5.41431
G1 X99.390 Y87.203 E5.44168
G1 X100.610 Y85.983 E5.49510
G1 X100.610 Y86.867 E5.52247
G1 X99.390 Y88.087 E5.57588
G1 X99.390 Y88.971 E5.60325
G1 X100.610 Y87.751 E5.65667
G1 X100.610 Y88.635 E5.68404
G1 X99.390 Y89.855 E5.73746
G1 X99.390 Y90.739 E5.76482
G1 X100.610 Y89.519 E5.81824
G1 X100.610 Y90.403 E5.84561
G1 X99.390 Y91.624 E5.89903
G1 X99.390 Y92.508 E5.92640
G1 X100.610 Y91.287 E5.97982
G1 X100.610 Y92.172 E6.00718
G1 X99.390 Y93.392 E6.06060
G1 X99.390 Y94.276 E6.08797
G1 X100.610 Y93.056 E6.14139
G1 X100.610 Y93.940 E6.16876
G1 X99.390 Y95.160 E6.22217
G1 X99.390 Y96.044 E6.24954
G1 X100.610 Y94.824 E6.30296
G1 X100.610 Y95.708 E6.33033
G1 X99.390 Y96.928 E6.38375
G1 X99.390 Y97.812 E6.41111
G1 X100.610 Y96.592 E6.46453
G1 X100.610 Y97.476 E6.49190
G1 X99.390 Y98.696 E6.54532
G1 X99.390 Y99.581 E6.57269
G1 X100.610 Y98.360 E6.62611
G1 X100.610 Y99.245 E6.65347
G1 X99.390 Y100.465 E6.70689
G1 X99.390 Y101.349 E6.73426
G1 X100.610 Y100.129 E6.78768
G1 X100.610 Y101.013 E6.81505
G1 X99.390 Y102.233 E6.86846
G1 X99.390 Y103.117 E6.89583
G1 X100.610 Y101.897 E6.94925
G1 X100.610 Y102.781 E6.97662
G1 X99.390 Y104.001 E7.03004
G1 X99.390 Y104.885 E7.05740
G1 X100.610 Y103.665 E7.11082
G1 X100.610 Y104.549 E7.13819
G1 X99.390 Y105.769 E7.19161
G1 X99.390 Y106.654 E7.21898
G1 X100.610 Y105.433 E7.27240
G1 X100.610 Y106.317 E7.29976
G1 X99.390 Y107.538 E7.35318
G1 X99.390 Y108.422 E7.38055
G1 X100.610 Y107.202 E7.43397
G1 X100.610 Y108.086 E7.46134
G1 X99.390 Y109.306 E7.51475
G1 X99.390 Y110.190 E7.54212
G1 X100.610 Y108.970 E7.59554
G1 X100.610 Y109.854 E7.62291
G1 X99.390 Y111.074 E7.67633
G1 X99.390 Y111.958 E7.70369
G1 X100.610 Y110.738 E7.75711
G1 X100.610 Y111.622 E7.78448
G1 X99.390 Y112.842 E7.83790
G1 X99.390 Y113.522 E7.85894
G1 X99.424 Y113.692 E7.86432
G1 X100.610 Y112.506 E7.91624
G1 X100.610 Y113.036 E7.93264
G1 X100.526 Y113.453 E7.94581
G1 X100.495 Y113.506 E7.94771
G1 X100.004 Y113.997 E7.96921
G1 Z0.650 F7800.000
G1 E5.96921 F2400.00000
G92 E0
G1 X97.158 Y48.005 F7800.000
G1 E2.00000 F2400.00000
G1 F3600
G1 X97.601 Y47.873 E2.01246
G1 X98.213 Y47.770 E2.02921
G1 X99.110 Y47.680 E2.05352
G1 X100.000 Y47.650 E2.07755
G1 X100.768 Y47.676 E2.09826
G1 X101.792 Y47.771 E2.12603
G1 X102.399 Y47.873 E2.14263
G1 X102.842 Y48.005 E2.15508

G1 F3600
G1 X102.945 Y48.040 E2.15811
G1 X102.945 Y113.418 E3.97417
G1 X102.858 Y114.193 E3.99583
G1 X102.650 Y114.810 E4.01393
G1 X102.104 Y115.567 E4.03986
G1 X102.041 Y115.629 E4.04232
G1 X101.308 Y116.146 E4.06722
G1 X100.668 Y116.363 E4.08600
G1 X100.000 Y116.436 E4.10467
G1 X99.332 Y116.363 E4.12335
G1 X98.692 Y116.146 E4.14213
G1 X97.959 Y115.629 E4.16703
G1 X97.896 Y115.567 E4.16949
G1 X97.350 Y114.810 E4.19542
G1 X97.142 Y114.193 E4.21352
G1 X97.055 Y113.418 E4.23517
G1 X97.055 Y48.040 E6.05123
G1 X97.087 Y48.029 E6.05218

G1 X96.419 Y47.638 F7800.000

G1 F3600
G1 X96.706 Y47.486 E6.06119
G1 X97.204 Y47.319 E6.07577

G1 F3600
G1 X97.474 Y47.250 E6.08329
G1 X98.128 Y47.140 E6.10120
G1 X99.067 Y47.045 E6.12666
G1 X100.000 Y47.014 E6.15183
G1 X100.808 Y47.041 E6.17364
G1 X101.875 Y47.141 E6.20254
G1 X102.526 Y47.250 E6.22037
G1 X102.796 Y47.319 E6.22789

G1 F3600
G1 X103.294 Y47.486 E6.24247
G1 X103.581 Y47.638 E6.25148
G1 X103.581 Y113.453 E8.07968
G1 X103.482 Y114.331 E8.10422
G1 X103.222 Y115.104 E8.12688
G1 X102.588 Y115.982 E8.15696
G1 X102.450 Y116.119 E8.16236
G1 X101.600 Y116.718 E8.19125
G1 X100.807 Y116.988 E8.21451
G1 X100.000 Y117.076 E8.23706
G1 X99.193 Y116.988 E8.25961
G1 X98.400 Y116.718 E8.28287
G1 X97.550 Y116.119 E8.31176
G1 X97.412 Y115.982 E8.31715
G1 X96.778 Y115.104 E8.34724
G1 X96.518 Y114.331 E8.36990
G1 X96.419 Y113.453 E8.39444
G1 X96.419 Y47.713 E10.22055

G1 X95.859 Y47.524 F7800.000

G1 F3600
G1 X95.872 Y47.449 E10.22268
G1 X96.035 Y47.222 E10.23046
G1 X96.134 Y47.155 E10.23378
G1 X96.484 Y46.970 E10.24477
G1 X97.089 Y46.766 E10.26249
G1 X97.361 Y46.701 E10.27028
G1 X98.054 Y46.584 E10.28978
G1 X99.233 Y46.479 E10.32268

G1 F1800
G1 X100.000 Y46.453 E10.33849
G1 X100.767 Y46.479 E10.35429

G1 F3600
G1 X101.029 Y46.499 E10.36160

G1 F1800
G1 X101.045 Y46.500 E10.36193

G1 F3600
G1 X101.947 Y46.584 E10.38711
G1 X102.639 Y46.701 E10.40658
G1 X102.911 Y46.766 E10.41437
G1 X103.516 Y46.970 E10.43209
G1 X103.866 Y47.155 E10.44308
G1 X103.965 Y47.222 E10.44640
G1 X104.128 Y47.449 E10.45418
G1 X104.141 Y47.524 E10.45631
G1 X104.141 Y113.485 E12.28854
G1 X104.033 Y114.453 E12.31561
G1 X103.750 Y115.292 E12.34019
G1 X103.709 Y115.387 E12.34307
G1 X103.015 Y116.349 E12.37602
G1 X102.810 Y116.550 E12.38400
G1 X101.857 Y117.223 E12.41641
G1 X100.929 Y117.538 E12.44363
G1 X100.000 Y117.640 E12.46959
G1 X99.071 Y117.538 E12.49555
G1 X98.143 Y117.223 E12.52278
G1 X97.190 Y116.550 E12.55519
G1 X96.985 Y116.349 E12.56317
G1 X96.291 Y115.387 E12.59612
G1 X96.250 Y115.292 E12.59899
G1 X95.967 Y114.453 E12.62358
G1 X95.859 Y113.485 E12.65065
G1 X95.859 Y47.599 E14.48080

G1 E12.48080 F2400.00000
G92 E0
G1 X100.329 Y48.243 F7800.000
G1 E2.00000 F2400.00000

G1 F3600
G1 X98.824 Y48.272 E2.04250
G1 X97.966 Y48.358 E2.06684
G1 X97.322 Y48.479 E2.08535
G1 X97.322 Y48.797 E2.09434
G1 X102.678 Y48.797 E2.24557
G1 X102.678 Y49.351 E2.26121
G1 X97.322 Y49.351 E2.41245
G1 X97.322 Y49.905 E2.42809
G1 X102.678 Y49.905 E2.57933
G1 X102.678 Y50.459 E2.59497
G1 X97.322 Y50.459 E2.74620
G1 X97.322 Y51.013 E2.76185
G1 X102.678 Y51.013 E2.91308
G1 X102.678 Y51.567 E2.92872
G1 X97.322 Y51.567 E3.07996
G1 X97.322 Y52.122 E3.09560
G1 X102.678 Y52.122 E3.24683
G1 X102.678 Y52.676 E3.26248
G1 X97.322 Y52.676 E3.41371
G1 X97.322 Y53.230 E3.42935
G1 X102.678 Y53.230 E3.58059
G1 X102.678 Y53.784 E3.59623
G1 X97.322 Y53.784 E3.74747
G1 X97.322 Y54.338 E3.76311
G1 X102.678 Y54.338 E3.91434
G1 X102.678 Y54.892 E3.92999
G1 X97.322 Y54.892 E4.08122
G1 X97.322 Y55.446 E4.09686
G1 X102.678 Y55.446 E4.24810
G1 X102.678 Y56.000 E4.26374
G1 X97.322 Y56.000 E4.41498
G1 X97.322 Y56.554 E4.43062
G1 X102.678 Y56.554 E4.58185
G1 X102.678 Y57.108 E4.59749
G1 X97.322 Y57.108 E4.74873
G1 X97.322 Y57.662 E4.76437
G1 X102.678 Y57.662 E4.91561
G1 X102.678 Y58.216 E4.93125
G1 X97.322 Y58.216 E5.08248
G1 X97.322 Y58.770 E5.09813
G1 X102.678 Y58.770 E5.24936
G1 X102.678 Y59.324 E5.26500
G1 X97.322 Y59.324 E5.41624
G1 X97.322 Y59.879 E5.43188
G1 X102.678 Y59.879 E5.58312
G1 X102.678 Y60.433 E5.59876
G1 X97.322 Y60.433 E5.74999
G1 X97.322 Y60.987 E5.76564
G1 X102.678 Y60.987 E5.91687
G1 X102.678 Y61.541 E5.93251
G1 X97.322 Y61.541 E6.08375
G1 X97.322 Y62.095 E6.09939
G1 X102.678 Y62.095 E6.25062
G1 X102.678 Y62.649 E6.26627
G1 X97.322 Y62.649 E6.41750
G1 X97.322 Y63.203 E6.43314
G1 X102.678 Y63.203 E6.58438
G1 X102.678 Y63.757 E6.60002
G1 X97.322 Y63.757 E6.75126
G1 X97.322 Y64.311 E6.76690
G1 X102.678 Y64.311 E6.91813
G1 X102.678 Y64.865 E6.93378
G1 X97.322 Y64.865 E7.08501
G1 X97.322 Y65.419 E7.10065
G1 X102.678 Y65.419 E7.25189
G1 X102.678 Y65.973 E7.26753
G1 X97.322 Y65.973 E7.41877
G1 X97.322 Y66.527 E7.43441
G1 X102.678 Y66.527 E7.58564
G1 X102.678 Y67.081 E7.60129
G1 X97.322 Y67.081 E7.75252
G1 X97.322 Y67.636 E7.76816
G1 X102.678 Y67.636 E7.91940
G1 X102.678 Y68.190 E7.93504
G1 X97.322 Y68.190 E8.08627
G1 X97.322 Y68.744 E8.10192
G1 X102.678 Y68.744 E8.25315
G1 X102.678 Y69.298 E8.26879
G1 X97.322 Y69.298 E8.42003
G1 X97.322 Y69.852 E8.43567
G1 X102.678 Y69.852 E8.58691
G1 X102.678 Y70.406 E8.60255
G1 X97.322 Y70.406 E8.75378
G1 X97.322 Y70.960 E8.76943
G1 X102.678 Y70.960 E8.92066
G1 X102.678 Y71.514 E8.93630
G1 X97.322 Y71.514 E9.08754
G1 X97.322 Y72.068 E9.10318
G1 X102.678 Y72.068 E9.25441
G1 X102.678 Y72.622 E9.27006
G1 X97.322 Y72.622 E9.42129
G1 X97.322 Y73.176 E9.43693
G1 X102.678 Y73.176 E9.58817
G1 X102.678 Y73.730 E9.60381
G1 X97.322 Y73.730 E9.75505
G1 X97.322 Y74.284 E9.77069
G1 X102.678 Y74.284 E9.92192
G1 X102.678 Y74.839 E9.93757
G1 X97.322 Y74.839 E10.08880
G1 X97.322 Y75.393 E10.10444
G1 X102.678 Y75.393 E10.25568
G1 X102.678 Y75.947 E10.27132
G1 X97.322 Y75.947 E10.42256
G1 X97.322 Y76.501 E10.43820
G1 X102.678 Y76.501 E10.58943
G1 X102.678 Y77.055 E10.60508
G1 X97.322 Y77.055 E10.75631
G1 X97.322 Y77.609 E10.77195
G1 X102.678 Y77.609 E10.92319
G1 X102.678 Y78.163 E10.93883
G1 X97.322 Y78.163 E11.09006
G1 X97.322 Y78.717 E11.10571
G1 X102.678 Y78.717 E11.25694
G1 X102.678 Y79.271 E11.27258
G1 X97.322 Y79.271 E11.42382
G1 X97.322 Y79.825 E11.43946
G1 X102.678 Y79.825 E11.59070
G1 X102.678 Y80.379 E11.60634
G1 X97.322 Y80.379 E11.75757
G1 X97.322 Y80.933 E11.77322
G1 X102.678 Y80.933 E11.92445
G1 X102.678 Y81.487 E11.94009
G1 X97.322 Y81.487 E12.09133
G1 X97.322 Y82.041 E12.10697
G1 X102.678 Y82.041 E12.25820
G1 X102.678 Y82.596 E12.27385
G1 X97.322 Y82.596 E12.42508
G1 X97.322 Y83.150 E12.44072
G1 X102.678 Y83.150 E12.59196
G1 X102.678 Y83.704 E12.60760
G1 X97.322 Y83.704 E12.75884
G1 X97.322 Y84.258 E12.77448
G1 X102.678 Y84.258 E12.92571
G1 X102.678 Y84.812 E12.94136
G1 X97.322 Y84.812 E13.09259
G1 X97.322 Y85.366 E13.10823
G1 X102.678 Y85.366 E13.25947
G1 X102.678 Y85.920 E13.27511
G1 X97.322 Y85.920 E13.42634
G1 X97.322 Y86.474 E13.44199
G1 X102.678 Y86.474 E13.59322
G1 X102.678 Y87.028 E13.60886
G1 X97.322 Y87.028 E13.76010
G1 X97.322 Y87.582 E13.77574
G1 X102.678 Y87.582 E13.92698
G1 X102.678 Y88.136 E13.94262
G1 X97.322 Y88.136 E14.09385
G1 X97.322 Y88.690 E14.10950
G1 X102.678 Y88.690 E14.26073
G1 X102.678 Y89.244 E14.27637
G1 X97.322 Y89.244 E14.42761
G1 X97.322 Y89.798 E14.44325
G1 X102.678 Y89.798 E14.59448
G1 X102.678 Y90.353 E14.61013
G1 X97.322 Y90.353 E14.76136
G1 X97.322 Y90.907 E14.77700
G1 X102.678 Y90.907 E14.92824
G1 X102.678 Y91.461 E14.94388
G1 X97.322 Y91.461 E15.09512
G1 X97.322 Y92.015 E15.11076
G1 X102.678 Y92.015 E15.26199
G1 X102.678 Y92.569 E15.27764
G1 X97.322 Y92.569 E15.42887
G1 X97.322 Y93.123 E15.44451
G1 X102.678 Y93.123 E15.59575
G1 X102.678 Y93.677 E15.61139
